P3
# torOS logo, written by build/splash.py
231 176
255
0 0 0 0 0 0 0 0 0 0 0 0 0 0 0 0 0 0 0 0 0 0 0 0 0 0 0 0 0 0 0 0 0 0 0 0 0 0 0 0 0 0 0 0 0 0 0 0 0 0 0 0 0 0 0 0 0 0 0 0 0 0 0 0 0 0 0 0 0 0 0 0 0 0 0 0 0 0 0 0 0 0 0 0 0 0 0 0 0 0 0 0 0 0 0 0 0 0 0 0 0 0 0 0 0 0 0 0 0 0 0 0 0 0 0 0 0 0 0 0 0 0 0 0 0 0 0 0 0 0 0 0 0 0 0 0 0 0 0 0 0 0 0 0 0 0 0 0 0 0 0 0 0 0 0 0 0 0 0 0 0 0 0 0 0 0 0 0 0 0 0 0 0 0 0 0 0 0 0 0 0 0 0 0 0 0 0 0 0 0 0 0 0 0 0 0 0 0 0 0 0 0 0 0 0 0 0 0 0 0 0 0 0 0 0 0 0 0 0 0 0 0 0 0 0 0 0 0 0 0 0 0 0 0 0 0 0 0 0 0 0 0 0 0 0 0 0 0 0 0 0 0 0 0 0 0 0 0 0 0 0 0 0 0 0 0 0 0 0 0 0 0 0 0 0 0 0 0 0 0 0 0 0 0 0 0 0 0 0 0 0 0 0 0 0 0 0 0 0 0 0 0 0 0 0 0 0 0 0 0 0 0 0 0 0 0 0 0 0 0 0 0 0 0 0 0 0 0 0 0 0 0 0 0 0 0 0 0 0 0 0 0 2 2 2 0 0 0 80 84 89 127 134 141 1 1 1 3 3 3 1 1 1 0 0 0 0 0 0 0 0 0 0 0 0 0 0 0 0 0 0 0 0 0 0 0 0 0 0 0 0 0 0 0 0 0 0 0 0 0 0 0 0 0 0 0 0 0 0 0 0 0 0 0 0 0 0 0 0 0 0 0 0 0 0 0 0 0 0 0 0 0 0 0 0 0 0 0 0 0 0 0 0 0 0 0 0 0 0 0 0 0 0 0 0 0 0 0 0 0 0 0 0 0 0 0 0 0 0 0 0 0 0 0 0 0 0 0 0 0 0 0 0 0 0 0 0 0 0 0 0 0 0 0 0 0 0 0 0 0 0 0 0 0 0 0 0 0 0 0 0 0 0 0 0 0 0 0 0 0 0 0 0 0 0 0 0 0 0 0 0 0 0 0 0 0 0 0 0 0 0 0 0 0 0 0 0 0 0 0 0 0 0 0 0 0 0 0 0 0 0 0 0 0 0 0 0 0 0 0 0 0 0 0 0 0 0 0 0 0 0 0 0 0 0 0 0 0 0 0 0 0 0 0 0 0 0 0 0 0 0 0 0 0 0 0 0 0 0 0 0 0 0 0 0 0 0 0 0 0 0 0 0 0 0 0 0 0 0 0 0 0 0 0 0 0 0 0 0 0 0 0 0 0 0 0 0 0 0 0 0 0 0 0 0 0 0 0 0 0 0 0 0 0 0 0 0 0 0 0 0 0 0 0 0 0 0 0 0 0 0 0 0 0 0 0 0 0 0 0 0 0 0
0 0 0 0 0 0 0 0 0 0 0 0 0 0 0 0 0 0 0 0 0 0 0 0 0 0 0 0 0 0 0 0 0 0 0 0 0 0 0 0 0 0 0 0 0 0 0 0 0 0 0 0 0 0 0 0 0 0 0 0 0 0 0 0 0 0 0 0 0 0 0 0 0 0 0 0 0 0 0 0 0 0 0 0 0 0 0 0 0 0 0 0 0 0 0 0 0 0 0 0 0 0 0 0 0 0 0 0 0 0 0 0 0 0 0 0 0 0 0 0 0 0 0 0 0 0 0 0 0 0 0 0 0 0 0 0 0 0 0 0 0 0 0 0 0 0 0 0 0 0 0 0 0 0 0 0 0 0 0 0 0 0 0 0 0 0 0 0 0 0 0 0 0 0 0 0 0 0 0 0 0 0 0 0 0 0 0 0 0 0 0 0 0 0 0 0 0 0 0 0 0 0 0 0 0 0 0 0 0 0 0 0 0 0 0 0 0 0 0 0 0 0 0 0 0 0 0 0 0 0 0 0 0 0 0 0 0 0 0 0 0 0 0 0 0 0 0 0 0 0 0 0 0 0 0 0 0 0 0 0 0 0 0 0 0 0 0 0 0 0 0 0 0 0 0 0 0 0 0 0 0 0 0 0 0 0 0 0 0 0 0 0 0 0 0 0 0 0 0 0 0 0 0 0 0 0 0 0 0 0 0 0 0 0 0 0 0 0 0 0 0 0 0 0 0 0 0 0 0 0 0 0 0 0 0 0 0 0 0 4 4 4 0 0 0 63 66 68 233 234 235 226 233 238 112 122 133 0 0 0 2 2 2 0 0 0 0 0 0 0 0 0 0 0 0 0 0 0 0 0 0 0 0 0 0 0 0 0 0 0 0 0 0 0 0 0 0 0 0 0 0 0 0 0 0 0 0 0 0 0 0 0 0 0 0 0 0 0 0 0 0 0 0 0 0 0 0 0 0 0 0 0 0 0 0 0 0 0 0 0 0 0 0 0 0 0 0 0 0 0 0 0 0 0 0 0 0 0 0 0 0 0 0 0 0 0 0 0 0 0 0 0 0 0 0 0 0 0 0 0 0 0 0 0 0 0 0 0 0 0 0 0 0 0 0 0 0 0 0 0 0 0 0 0 0 0 0 0 0 0 0 0 0 0 0 0 0 0 0 0 0 0 0 0 0 0 0 0 0 0 0 0 0 0 0 0 0 0 0 0 0 0 0 0 0 0 0 0 0 0 0 0 0 0 0 0 0 0 0 0 0 0 0 0 0 0 0 0 0 0 0 0 0 0 0 0 0 0 0 0 0 0 0 0 0 0 0 0 0 0 0 0 0 0 0 0 0 0 0 0 0 0 0 0 0 0 0 0 0 0 0 0 0 0 0 0 0 0 0 0 0 0 0 0 0 0 0 0 0 0 0 0 0 0 0 0 0 0 0 0 0 0 0 0 0 0 0 0 0 0 0 0 0 0 0 0 0 0 0 0 0 0 0 0 0 0 0 0 0 0 0 0 0 0 0 0 0 0 0 0 0 0 0 0 0 0 0 0 0 0 0 0 0
0 0 0 0 0 0 0 0 0 0 0 0 0 0 0 0 0 0 0 0 0 0 0 0 0 0 0 0 0 0 0 0 0 0 0 0 0 0 0 0 0 0 0 0 0 0 0 0 0 0 0 0 0 0 0 0 0 0 0 0 0 0 0 0 0 0 0 0 0 0 0 0 0 0 0 0 0 0 0 0 0 0 0 0 0 0 0 0 0 0 0 0 0 0 0 0 0 0 0 0 0 0 0 0 0 0 0 0 0 0 0 0 0 0 0 0 0 0 0 0 0 0 0 0 0 0 0 0 0 0 0 0 0 0 0 0 0 0 0 0 0 0 0 0 0 0 0 0 0 0 0 0 0 0 0 0 0 0 0 0 0 0 0 0 0 0 0 0 0 0 0 0 0 0 0 0 0 0 0 0 0 0 0 0 0 0 0 0 0 0 0 0 0 0 0 0 0 0 0 0 0 0 0 0 0 0 0 0 0 0 0 0 0 0 0 0 0 0 0 0 0 0 0 0 0 0 0 0 0 0 0 0 0 0 0 0 0 0 0 0 0 0 0 0 0 0 0 0 0 0 0 0 0 0 0 0 0 0 0 0 0 0 0 0 0 0 0 0 0 0 0 0 0 0 0 0 0 0 0 0 0 0 0 0 0 0 0 0 0 0 0 0 0 0 0 0 0 0 0 0 0 0 0 0 0 0 0 0 0 0 0 0 0 0 0 0 0 0 0 0 0 0 0 0 0 0 0 0 0 0 0 0 0 0 0 0 3 3 3 0 0 0 63 66 68 237 238 239 255 255 255 211 216 222 222 230 237 97 104 112 0 0 0 3 3 3 1 1 1 0 0 0 0 0 0 0 0 0 0 0 0 0 0 0 0 0 0 0 0 0 0 0 0 0 0 0 0 0 0 0 0 0 0 0 0 0 0 0 0 0 0 0 0 0 0 0 0 0 0 0 0 0 0 0 0 0 0 0 0 0 0 0 0 0 0 0 0 0 0 0 0 0 0 0 0 0 0 0 0 0 0 0 0 0 0 0 0 0 0 0 0 0 0 0 0 0 0 0 0 0 0 0 0 0 0 0 0 0 0 0 0 0 0 0 0 0 0 0 0 0 0 0 0 0 0 0 0 0 0 0 0 0 0 0 0 0 0 0 0 0 0 0 0 0 0 0 0 0 0 0 0 0 0 0 0 0 0 0 0 0 0 0 0 0 0 0 0 0 0 0 0 0 0 0 0 0 0 0 0 0 0 0 0 0 0 0 0 0 0 0 0 0 0 0 0 0 0 0 0 0 0 0 0 0 0 0 0 0 0 0 0 0 0 0 0 0 0 0 0 0 0 0 0 0 0 0 0 0 0 0 0 0 0 0 0 0 0 0 0 0 0 0 0 0 0 0 0 0 0 0 0 0 0 0 0 0 0 0 0 0 0 0 0 0 0 0 0 0 0 0 0 0 0 0 0 0 0 0 0 0 0 0 0 0 0 0 0 0 0 0 0 0 0 0 0 0 0 0 0 0 0 0 0 0 0 0 0 0 0 0 0 0 0 0 0 0 0 0 0 0 0 0 0
0 0 0 0 0 0 0 0 0 0 0 0 0 0 0 0 0 0 0 0 0 0 0 0 0 0 0 0 0 0 0 0 0 0 0 0 0 0 0 0 0 0 0 0 0 0 0 0 0 0 0 0 0 0 0 0 0 0 0 0 0 0 0 0 0 0 0 0 0 0 0 0 0 0 0 0 0 0 0 0 0 0 0 0 0 0 0 0 0 0 0 0 0 0 0 0 0 0 0 0 0 0 0 0 0 0 0 0 0 0 0 0 0 0 0 0 0 0 0 0 0 0 0 0 0 0 0 0 0 0 0 0 0 0 0 0 0 0 0 0 0 0 0 0 0 0 0 0 0 0 0 0 0 0 0 0 0 0 0 0 0 0 0 0 0 0 0 0 0 0 0 0 0 0 0 0 0 0 0 0 0 0 0 0 0 0 0 0 0 0 0 0 0 0 0 0 0 0 0 0 0 0 0 0 0 0 0 0 0 0 0 0 0 0 0 0 0 0 0 0 0 0 0 0 0 0 0 0 0 0 0 0 0 0 0 0 0 0 0 0 0 0 0 0 0 0 0 0 0 0 0 0 0 0 0 0 0 0 0 0 0 0 0 0 0 0 0 0 0 0 0 0 0 0 0 0 0 0 0 0 0 0 0 0 0 0 0 0 0 0 0 0 0 0 0 0 0 0 0 0 0 0 0 0 0 0 0 0 0 0 0 0 0 0 0 0 0 0 0 0 0 0 0 0 0 0 0 0 0 0 0 0 0 4 4 4 0 0 0 63 66 68 233 234 235 255 255 255 245 246 246 214 220 226 213 221 228 213 221 227 80 84 89 0 0 0 3 3 3 0 0 0 0 0 0 0 0 0 0 0 0 0 0 0 0 0 0 0 0 0 0 0 0 0 0 0 0 0 0 0 0 0 0 0 0 0 0 0 0 0 0 0 0 0 0 0 0 0 0 0 0 0 0 0 0 0 0 0 0 0 0 0 0 0 0 0 0 0 0 0 0 0 0 0 0 0 0 0 0 0 0 0 0 0 0 0 0 0 0 0 0 0 0 0 0 0 0 0 0 0 0 0 0 0 0 0 0 0 0 0 0 0 0 0 0 0 0 0 0 0 0 0 0 0 0 0 0 0 0 0 0 0 0 0 0 0 0 0 0 0 0 0 0 0 0 0 0 0 0 0 0 0 0 0 0 0 0 0 0 0 0 0 0 0 0 0 0 0 0 0 0 0 0 0 0 0 0 0 0 0 0 0 0 0 0 0 0 0 0 0 0 0 0 0 0 0 0 0 0 0 0 0 0 0 0 0 0 0 0 0 0 0 0 0 0 0 0 0 0 0 0 0 0 0 0 0 0 0 0 0 0 0 0 0 0 0 0 0 0 0 0 0 0 0 0 0 0 0 0 0 0 0 0 0 0 0 0 0 0 0 0 0 0 0 0 0 0 0 0 0 0 0 0 0 0 0 0 0 0 0 0 0 0 0 0 0 0 0 0 0 0 0 0 0 0 0 0 0 0 0 0 0 0 0 0 0 0 0 0 0 0 0 0 0 0 0 0 0 0 0 0 0 0
0 0 0 0 0 0 0 0 0 0 0 0 0 0 0 0 0 0 0 0 0 0 0 0 0 0 0 0 0 0 0 0 0 0 0 0 0 0 0 0 0 0 0 0 0 0 0 0 0 0 0 0 0 0 0 0 0 0 0 0 0 0 0 0 0 0 0 0 0 0 0 0 0 0 0 0 0 0 0 0 0 0 0 0 0 0 0 0 0 0 0 0 0 0 0 0 0 0 0 0 0 0 0 0 0 0 0 0 0 0 0 0 0 0 0 0 0 0 0 0 0 0 0 0 0 0 0 0 0 0 0 0 0 0 0 0 0 0 0 0 0 0 0 0 0 0 0 0 0 0 0 0 0 0 0 0 0 0 0 0 0 0 0 0 0 0 0 0 0 0 0 0 0 0 0 0 0 0 0 0 0 0 0 0 0 0 0 0 0 0 0 0 0 0 0 0 0 0 0 0 0 0 0 0 0 0 0 0 0 0 0 0 0 0 0 0 0 0 0 0 0 0 0 0 0 0 0 0 0 0 0 0 0 0 0 0 0 0 0 0 0 0 0 0 0 0 0 0 0 0 0 0 0 0 0 0 0 0 0 0 0 0 0 0 0 0 0 0 0 0 0 0 0 0 0 0 0 0 0 0 0 0 0 0 0 0 0 0 0 0 0 0 0 0 0 0 0 0 0 0 0 0 0 0 0 0 0 0 0 0 0 0 0 0 0 0 0 0 0 0 0 0 0 0 0 0 0 0 0 0 3 3 3 0 0 0 63 66 68 237 238 239 255 255 255 252 252 252 251 251 249 215 221 228 211 219 227 216 224 231 208 215 222 63 66 68 0 0 0 3 3 3 0 0 0 0 0 0 0 0 0 0 0 0 0 0 0 0 0 0 0 0 0 0 0 0 0 0 0 0 0 0 0 0 0 0 0 0 0 0 0 0 0 0 0 0 0 0 0 0 0 0 0 0 0 0 0 0 0 0 0 0 0 0 0 0 0 0 0 0 0 0 0 0 0 0 0 0 0 0 0 0 0 0 0 0 0 0 0 0 0 0 0 0 0 0 0 0 0 0 0 0 0 0 0 0 0 0 0 0 0 0 0 0 0 0 0 0 0 0 0 0 0 0 0 0 0 0 0 0 0 0 0 0 0 0 0 0 0 0 0 0 0 0 0 0 0 0 0 0 0 0 0 0 0 0 0 0 0 0 0 0 0 0 0 0 0 0 0 0 0 0 0 0 0 0 0 0 0 0 0 0 0 0 0 0 0 0 0 0 0 0 0 0 0 0 0 0 0 0 0 0 0 0 0 0 0 0 0 0 0 0 0 0 0 0 0 0 0 0 0 0 0 0 0 0 0 0 0 0 0 0 0 0 0 0 0 0 0 0 0 0 0 0 0 0 0 0 0 0 0 0 0 0 0 0 0 0 0 0 0 0 0 0 0 0 0 0 0 0 0 0 0 0 0 0 0 0 0 0 0 0 0 0 0 0 0 0 0 0 0 0 0 0 0 0 0 0 0 0 0 0 0 0 0 0 0 0 0 0 0 0 0 0 0 0 0 0 0 0 0 0 0
0 0 0 0 0 0 0 0 0 0 0 0 0 0 0 0 0 0 0 0 0 0 0 0 0 0 0 0 0 0 0 0 0 0 0 0 0 0 0 0 0 0 0 0 0 0 0 0 0 0 0 0 0 0 0 0 0 0 0 0 0 0 0 0 0 0 0 0 0 0 0 0 0 0 0 0 0 0 0 0 0 0 0 0 0 0 0 0 0 0 0 0 0 0 0 0 0 0 0 0 0 0 0 0 0 0 0 0 0 0 0 0 0 0 0 0 0 0 0 0 0 0 0 0 0 0 0 0 0 0 0 0 0 0 0 0 0 0 0 0 0 0 0 0 0 0 0 0 0 0 0 0 0 0 0 0 0 0 0 0 0 0 0 0 0 0 0 0 0 0 0 0 0 0 0 0 0 0 0 0 0 0 0 0 0 0 0 0 0 0 0 0 0 0 0 0 0 0 0 0 0 0 0 0 0 0 0 0 0 0 0 0 0 0 0 0 0 0 0 0 0 0 0 0 0 0 0 0 0 0 0 0 0 0 0 0 0 0 0 0 0 0 0 0 0 0 0 0 0 0 0 0 0 0 0 0 0 0 0 0 0 0 0 0 0 0 0 0 0 0 0 0 0 0 0 0 0 0 0 0 0 0 0 0 0 0 0 0 0 0 0 0 0 0 0 0 0 0 0 0 0 0 0 0 0 0 0 0 0 0 0 0 0 0 0 0 0 0 0 0 0 0 0 0 0 0 0 4 4 4 0 0 0 63 66 68 233 234 235 255 255 255 249 250 250 255 255 255 251 251 251 219 224 228 212 221 228 210 218 225 218 226 233 196 201 206 34 52 45 0 0 0 2 2 2 0 0 0 0 0 0 0 0 0 0 0 0 0 0 0 0 0 0 0 0 0 0 0 0 0 0 0 0 0 0 0 0 0 0 0 0 0 0 0 0 0 0 0 0 0 0 0 0 0 0 0 0 0 0 0 0 0 0 0 0 0 0 0 0 0 0 0 0 0 0 0 0 0 0 0 0 0 0 0 0 0 0 0 0 0 0 0 0 0 0 0 0 0 0 0 0 0 0 0 0 0 0 0 0 0 0 0 0 0 0 0 0 0 0 0 0 0 0 0 0 0 0 0 0 0 0 0 0 0 0 0 0 0 0 0 0 0 0 0 0 0 0 0 0 0 0 0 0 0 0 0 0 0 0 0 0 0 0 0 0 0 0 0 0 0 0 0 0 0 0 0 0 0 0 0 0 0 0 0 0 0 0 0 0 0 0 0 0 0 0 0 0 0 0 0 0 0 0 0 0 0 0 0 0 0 0 0 0 0 0 0 0 0 0 0 0 0 0 0 0 0 0 0 0 0 0 0 0 0 0 0 0 0 0 0 0 0 0 0 0 0 0 0 0 0 0 0 0 0 0 0 0 0 0 0 0 0 0 0 0 0 0 0 0 0 0 0 0 0 0 0 0 0 0 0 0 0 0 0 0 0 0 0 0 0 0 0 0 0 0 0 0 0 0 0 0 0 0 0 0 0 0 0 0 0 0 0 0 0 0 0 0 0 0 0 0 0 0
0 0 0 0 0 0 0 0 0 0 0 0 0 0 0 0 0 0 0 0 0 0 0 0 0 0 0 0 0 0 0 0 0 0 0 0 0 0 0 0 0 0 0 0 0 0 0 0 0 0 0 0 0 0 0 0 0 0 0 0 0 0 0 0 0 0 0 0 0 0 0 0 0 0 0 0 0 0 0 0 0 0 0 0 0 0 0 0 0 0 0 0 0 0 0 0 0 0 0 0 0 0 0 0 0 0 0 0 0 0 0 0 0 0 0 0 0 0 0 0 0 0 0 0 0 0 0 0 0 0 0 0 0 0 0 0 0 0 0 0 0 0 0 0 0 0 0 0 0 0 0 0 0 0 0 0 0 0 0 0 0 0 0 0 0 0 0 0 0 0 0 0 0 0 0 0 0 0 0 0 0 0 0 0 0 0 0 0 0 0 0 0 0 0 0 0 0 0 0 0 0 0 0 0 0 0 0 0 0 0 0 0 0 0 0 0 0 0 0 0 0 0 0 0 0 0 0 0 0 0 0 0 0 0 0 0 0 0 0 0 0 0 0 0 0 0 0 0 0 0 0 0 0 0 0 0 0 0 0 0 0 0 0 0 0 0 0 0 0 0 0 0 0 0 0 0 0 0 0 0 0 0 0 0 0 0 0 0 0 0 0 0 0 0 0 0 0 0 0 0 0 0 0 0 0 0 0 0 0 0 0 0 0 0 0 0 0 0 0 0 0 0 0 0 3 3 3 0 0 0 63 66 68 237 238 239 255 255 255 251 251 251 254 254 254 254 254 254 252 252 252 226 230 232 211 220 227 213 221 228 210 218 225 218 226 233 196 201 206 34 52 45 0 0 0 2 2 2 0 0 0 0 0 0 0 0 0 0 0 0 0 0 0 0 0 0 0 0 0 0 0 0 0 0 0 0 0 0 0 0 0 0 0 0 0 0 0 0 0 0 0 0 0 0 0 0 0 0 0 0 0 0 0 0 0 0 0 0 0 0 0 0 0 0 0 0 0 0 0 0 0 0 0 0 0 0 0 0 0 0 0 0 0 0 0 0 0 0 0 0 0 0 0 0 0 0 0 0 0 0 0 0 0 0 0 0 0 0 0 0 0 0 0 0 0 0 0 0 0 0 0 0 0 0 0 0 0 0 0 0 0 0 0 0 0 0 0 0 0 0 0 0 0 0 0 0 0 0 0 0 0 0 0 0 0 0 0 0 0 0 0 0 0 0 0 0 0 0 0 0 0 0 0 0 0 0 0 0 0 0 0 0 0 0 0 0 0 0 0 0 0 0 0 0 0 0 0 0 0 0 0 0 0 0 0 0 0 0 0 0 0 0 0 0 0 0 0 0 0 0 0 0 0 0 0 0 0 0 0 0 0 0 0 0 0 0 0 0 0 0 0 0 0 0 0 0 0 0 0 0 0 0 0 0 0 0 0 0 0 0 0 0 0 0 0 0 0 0 0 0 0 0 0 0 0 0 0 0 0 0 0 0 0 0 0 0 0 0 0 0 0 0 0 0 0 0 0 0 0 0 0 0 0 0 0 0 0 0 0 0 0 0 0
0 0 0 0 0 0 0 0 0 0 0 0 0 0 0 0 0 0 0 0 0 0 0 0 0 0 0 0 0 0 0 0 0 0 0 0 0 0 0 0 0 0 0 0 0 0 0 0 0 0 0 0 0 0 0 0 0 0 0 0 0 0 0 0 0 0 0 0 0 0 0 0 0 0 0 0 0 0 0 0 0 0 0 0 0 0 0 0 0 0 0 0 0 0 0 0 0 0 0 0 0 0 0 0 0 0 0 0 0 0 0 0 0 0 0 0 0 0 0 0 0 0 0 0 0 0 0 0 0 0 0 0 0 0 0 0 0 0 0 0 0 0 0 0 0 0 0 0 0 0 0 0 0 0 0 0 0 0 0 0 0 0 0 0 0 0 0 0 0 0 0 0 0 0 0 0 0 0 0 0 0 0 0 0 0 0 0 0 0 0 0 0 0 0 0 0 0 0 0 0 0 0 0 0 0 0 0 0 0 0 0 0 0 0 0 0 0 0 0 0 0 0 0 0 0 0 0 0 0 0 0 0 0 0 0 0 0 0 0 0 0 0 0 0 0 0 0 0 0 0 0 0 0 0 0 0 0 0 0 0 0 0 0 0 0 0 0 0 0 0 0 0 0 0 0 0 0 0 0 0 0 0 0 0 0 0 0 0 0 0 0 0 0 0 0 0 0 0 0 0 0 0 0 0 0 0 0 0 0 0 0 0 0 0 0 0 0 0 0 0 0 3 3 3 0 0 0 63 66 68 233 234 235 255 255 255 251 251 251 254 254 254 254 254 254 254 254 254 252 252 252 221 227 232 211 220 227 213 221 228 213 221 228 210 218 225 220 228 235 189 194 199 34 52 45 0 0 0 3 3 3 0 0 0 0 0 0 0 0 0 0 0 0 0 0 0 0 0 0 0 0 0 0 0 0 0 0 0 0 0 0 0 0 0 0 0 0 0 0 0 0 0 0 0 0 0 0 0 0 0 0 0 0 0 0 0 0 0 0 0 0 0 0 0 0 0 0 0 0 0 0 0 0 0 0 0 0 0 0 0 0 0 0 0 0 0 0 0 0 0 0 0 0 0 0 0 0 0 0 0 0 0 0 0 0 0 0 0 0 0 0 0 0 0 0 0 0 0 0 0 0 0 0 0 0 0 0 0 0 0 0 0 0 0 0 0 0 0 0 0 0 0 0 0 0 0 0 0 0 0 0 0 0 0 0 0 0 0 0 0 0 0 0 0 0 0 0 0 0 0 0 0 0 0 0 0 0 0 0 0 0 0 0 0 0 0 0 0 0 0 0 0 0 0 0 0 0 0 0 0 0 0 0 0 0 0 0 0 0 0 0 0 0 0 0 0 0 0 0 0 0 0 0 0 0 0 0 0 0 0 0 0 0 0 0 0 0 0 0 0 0 0 0 0 0 0 0 0 0 0 0 0 0 0 0 0 0 0 0 0 0 0 0 0 0 0 0 0 0 0 0 0 0 0 0 0 0 0 0 0 0 0 0 0 0 0 0 0 0 0 0 0 0 0 0 0 0 0 0 0 0 0 0 0 0 0 0 0 0 0 0 0 0
0 0 0 0 0 0 0 0 0 0 0 0 0 0 0 0 0 0 0 0 0 0 0 0 0 0 0 0 0 0 0 0 0 0 0 0 0 0 0 0 0 0 0 0 0 0 0 0 0 0 0 0 0 0 0 0 0 0 0 0 0 0 0 0 0 0 0 0 0 0 0 0 0 0 0 0 0 0 0 0 0 0 0 0 0 0 0 0 0 0 0 0 0 0 0 0 0 0 0 0 0 0 0 0 0 0 0 0 0 0 0 0 0 0 0 0 0 0 0 0 0 0 0 0 0 0 0 0 0 0 0 0 0 0 0 0 0 0 0 0 0 0 0 0 0 0 0 0 0 0 0 0 0 0 0 0 0 0 0 0 0 0 0 0 0 0 0 0 0 0 0 0 0 0 0 0 0 0 0 0 0 0 0 0 0 0 0 0 0 0 0 0 0 0 0 0 0 0 0 0 0 0 0 0 0 0 0 0 0 0 0 0 0 0 0 0 0 0 0 0 0 0 0 0 0 0 0 0 0 0 0 0 0 0 0 0 0 0 0 0 0 0 0 0 0 0 0 0 0 0 0 0 0 0 0 0 0 0 0 0 0 0 0 0 0 0 0 0 0 0 0 0 0 0 0 0 0 0 0 0 0 0 0 0 0 0 0 0 0 0 0 0 0 0 0 0 0 0 0 0 0 0 0 0 0 0 0 0 0 0 0 0 0 0 0 0 0 0 4 4 4 0 0 0 63 66 68 237 238 239 255 255 255 249 250 250 254 254 254 254 254 254 254 254 254 254 254 254 253 253 253 226 230 232 211 220 227 213 221 228 213 221 228 213 221 228 210 218 225 221 229 236 176 183 190 21 29 25 0 0 0 2 2 2 0 0 0 0 0 0 0 0 0 0 0 0 0 0 0 0 0 0 0 0 0 0 0 0 0 0 0 0 0 0 0 0 0 0 0 0 0 0 0 0 0 0 0 0 0 0 0 0 0 0 0 0 0 0 0 0 0 0 0 0 0 0 0 0 0 0 0 0 0 0 0 0 0 0 0 0 0 0 0 0 0 0 0 0 0 0 0 0 0 0 0 0 0 0 0 0 0 0 0 0 0 0 0 0 0 0 0 0 0 0 0 0 0 0 0 0 0 0 0 0 0 0 0 0 0 0 0 0 0 0 0 0 0 0 0 0 0 0 0 0 0 0 0 0 0 0 0 0 0 0 0 0 0 0 0 0 0 0 0 0 0 0 0 0 0 0 0 0 0 0 0 0 0 0 0 0 0 0 0 0 0 0 0 0 0 0 0 0 0 0 0 0 0 0 0 0 0 0 0 0 0 0 0 0 0 0 0 0 0 0 0 0 0 0 0 0 0 0 0 0 0 0 0 0 0 0 0 0 0 0 0 0 0 0 0 0 0 0 0 0 0 0 0 0 0 0 0 0 0 0 0 0 0 0 0 0 0 0 0 0 0 0 0 0 0 0 0 0 0 0 0 0 0 0 0 0 0 0 0 0 0 0 0 0 0 0 0 0 0 0 0 0 0 0 0 0 0 0 0 0 0 0 0 0 0 0 0 0 0
0 0 0 0 0 0 0 0 0 0 0 0 0 0 0 0 0 0 0 0 0 0 0 0 0 0 0 0 0 0 0 0 0 0 0 0 0 0 0 0 0 0 0 0 0 0 0 0 0 0 0 0 0 0 0 0 0 0 0 0 0 0 0 0 0 0 0 0 0 0 0 0 0 0 0 0 0 0 0 0 0 0 0 0 0 0 0 0 0 0 0 0 0 0 0 0 0 0 0 0 0 0 0 0 0 0 0 0 0 0 0 0 0 0 0 0 0 0 0 0 0 0 0 0 0 0 0 0 0 0 0 0 0 0 0 0 0 0 0 0 0 0 0 0 0 0 0 0 0 0 0 0 0 0 0 0 0 0 0 0 0 0 0 0 0 0 0 0 0 0 0 0 0 0 0 0 0 0 0 0 0 0 0 0 0 0 0 0 0 0 0 0 0 0 0 0 0 0 0 0 0 0 0 0 0 0 0 0 0 0 0 0 0 0 0 0 0 0 0 0 0 0 0 0 0 0 0 0 0 0 0 0 0 0 0 0 0 0 0 0 0 0 0 0 0 0 0 0 0 0 0 0 0 0 0 0 0 0 0 0 0 0 0 0 0 0 0 0 0 0 0 0 0 0 0 0 0 0 0 0 0 0 0 0 0 0 0 0 0 0 0 0 0 0 0 0 0 0 0 0 0 0 0 0 0 0 0 0 0 0 0 0 0 0 0 2 2 2 0 0 0 63 66 68 233 234 235 255 255 255 251 251 251 254 254 254 254 254 254 254 254 254 254 254 254 254 254 254 253 253 253 221 227 232 211 220 227 213 221 228 213 221 228 213 221 228 213 221 228 210 218 225 222 230 237 176 183 190 21 29 25 0 0 0 3 3 3 0 0 0 0 0 0 0 0 0 0 0 0 0 0 0 0 0 0 0 0 0 0 0 0 0 0 0 0 0 0 0 0 0 0 0 0 0 0 0 0 0 0 0 0 0 0 0 0 0 0 0 0 0 0 0 0 0 0 0 0 0 0 0 0 0 0 0 0 0 0 0 0 0 0 0 0 0 0 0 0 0 0 0 0 0 0 0 0 0 0 0 0 0 0 0 0 0 0 0 0 0 0 0 0 0 0 0 0 0 0 0 0 0 0 0 0 0 0 0 0 0 0 0 0 0 0 0 0 0 0 0 0 0 0 0 0 0 0 0 0 0 0 0 0 0 0 0 0 0 0 0 0 0 0 0 0 0 0 0 0 0 0 0 0 0 0 0 0 0 0 0 0 0 0 0 0 0 0 0 0 0 0 0 0 0 0 0 0 0 0 0 0 0 0 0 0 0 0 0 0 0 0 0 0 0 0 0 0 0 0 0 0 0 0 0 0 0 0 0 0 0 0 0 0 0 0 0 0 0 0 0 0 0 0 0 0 0 0 0 0 0 0 0 0 0 0 0 0 0 0 0 0 0 0 0 0 0 0 0 0 0 0 0 0 0 0 0 0 0 0 0 0 0 0 0 0 0 0 0 0 0 0 0 0 0 0 0 0 0 0 0 0 0 0 0 0 0 0 0 0 0 0 0 0 0 0
0 0 0 0 0 0 0 0 0 0 0 0 0 0 0 0 0 0 0 0 0 0 0 0 0 0 0 0 0 0 0 0 0 0 0 0 0 0 0 0 0 0 0 0 0 0 0 0 0 0 0 0 0 0 0 0 0 0 0 0 0 0 0 0 0 0 0 0 0 0 0 0 0 0 0 0 0 0 0 0 0 0 0 0 0 0 0 0 0 0 0 0 0 0 0 0 0 0 0 0 0 0 0 0 0 0 0 0 0 0 0 0 0 0 0 0 0 0 0 0 0 0 0 0 0 0 0 0 0 0 0 0 0 0 0 0 0 0 0 0 0 0 0 0 0 0 0 0 0 0 0 0 0 0 0 0 0 0 0 0 0 0 0 0 0 0 0 0 0 0 0 0 0 0 0 0 0 0 0 0 0 0 0 0 0 0 0 0 0 0 0 0 0 0 0 0 0 0 0 0 0 0 0 0 0 0 0 0 0 0 0 0 0 0 0 0 0 0 0 0 0 0 0 0 0 0 0 0 0 0 0 0 0 0 0 0 0 0 0 0 0 0 0 0 0 0 0 0 0 0 0 0 0 0 0 0 0 0 0 0 0 0 0 0 0 0 0 0 0 0 0 0 0 0 0 0 0 0 0 0 0 0 0 0 0 0 0 0 0 0 0 0 0 0 0 0 0 0 0 0 0 0 0 0 0 0 0 0 0 0 0 0 4 4 4 0 0 0 63 66 68 237 238 239 255 255 255 249 250 250 254 254 254 254 254 254 254 254 254 254 254 254 254 254 254 254 254 254 253 253 253 226 230 232 211 220 227 213 221 228 213 221 228 213 221 228 213 221 228 213 221 228 211 216 222 222 230 237 176 183 190 21 29 25 0 0 0 2 2 2 0 0 0 0 0 0 0 0 0 0 0 0 0 0 0 0 0 0 0 0 0 0 0 0 0 0 0 0 0 0 0 0 0 0 0 0 0 0 0 0 0 0 0 0 0 0 0 0 0 0 0 0 0 0 0 0 0 0 0 0 0 0 0 0 0 0 0 0 0 0 0 0 0 0 0 0 0 0 0 0 0 0 0 0 0 0 0 0 0 0 0 0 0 0 0 0 0 0 0 0 0 0 0 0 0 0 0 0 0 0 0 0 0 0 0 0 0 0 0 0 0 0 0 0 0 0 0 0 0 0 0 0 0 0 0 0 0 0 0 0 0 0 0 0 0 0 0 0 0 0 0 0 0 0 0 0 0 0 0 0 0 0 0 0 0 0 0 0 0 0 0 0 0 0 0 0 0 0 0 0 0 0 0 0 0 0 0 0 0 0 0 0 0 0 0 0 0 0 0 0 0 0 0 0 0 0 0 0 0 0 0 0 0 0 0 0 0 0 0 0 0 0 0 0 0 0 0 0 0 0 0 0 0 0 0 0 0 0 0 0 0 0 0 0 0 0 0 0 0 0 0 0 0 0 0 0 0 0 0 0 0 0 0 0 0 0 0 0 0 0 0 0 0 0 0 0 0 0 0 0 0 0 0 0 0 0 0 0 0 0 0 0 0 0 0 0 0 0 0 0 0 0 0
0 0 0 0 0 0 0 0 0 0 0 0 0 0 0 0 0 0 0 0 0 0 0 0 0 0 0 0 0 0 0 0 0 0 0 0 0 0 0 0 0 0 0 0 0 0 0 0 0 0 0 0 0 0 0 0 0 0 0 0 0 0 0 0 0 0 0 0 0 0 0 0 0 0 0 0 0 0 0 0 0 0 0 0 0 0 0 0 0 0 0 0 0 0 0 0 0 0 0 0 0 0 0 0 0 0 0 0 0 0 0 0 0 0 0 0 0 0 0 0 0 0 0 0 0 0 0 0 0 0 0 0 0 0 0 0 0 0 0 0 0 0 0 0 0 0 0 0 0 0 0 0 0 0 0 0 0 0 0 0 0 0 0 0 0 0 0 0 0 0 0 0 0 0 0 0 0 0 0 0 0 0 0 0 0 0 0 0 0 0 0 0 0 0 0 0 0 0 0 0 0 0 0 0 0 0 0 0 0 0 0 0 0 0 0 0 0 0 0 0 0 0 0 0 0 0 0 0 0 0 0 0 0 0 0 0 0 0 0 0 0 0 0 0 0 0 0 0 0 0 0 0 0 0 0 0 0 0 0 0 0 0 0 0 0 0 0 0 0 0 0 0 0 0 0 0 0 0 0 0 0 0 0 0 0 0 0 0 0 0 0 0 0 0 0 0 0 0 0 0 0 0 0 0 0 0 0 0 0 2 2 2 0 0 0 63 66 68 237 238 239 255 255 255 251 251 251 254 254 254 254 254 254 254 254 254 254 254 254 254 254 254 254 254 254 254 254 254 253 253 253 226 230 232 211 220 227 213 221 228 213 221 228 213 221 228 213 221 228 213 221 228 213 221 228 210 218 225 222 230 237 176 183 190 21 29 25 0 0 0 2 3 3 0 0 0 0 0 0 0 0 0 0 0 0 0 0 0 0 0 0 0 0 0 0 0 0 0 0 0 0 0 0 0 0 0 0 0 0 0 0 0 0 0 0 0 0 0 0 0 0 0 0 0 0 0 0 0 0 0 0 0 0 0 0 0 0 0 0 0 0 0 0 0 0 0 0 0 0 0 0 0 0 0 0 0 0 0 0 0 0 0 0 0 0 0 0 0 0 0 0 0 0 0 0 0 0 0 0 0 0 0 0 0 0 0 0 0 0 0 0 0 0 0 0 0 0 0 0 0 0 0 0 0 0 0 0 0 0 0 0 0 0 0 0 0 0 0 0 0 0 0 0 0 0 0 0 0 0 0 0 0 0 0 0 0 0 0 0 0 0 0 0 0 0 0 0 0 0 0 0 0 0 0 0 0 0 0 0 0 0 0 0 0 0 0 0 0 0 0 0 0 0 0 0 0 0 0 0 0 0 0 0 0 0 0 0 0 0 0 0 0 0 0 0 0 0 0 0 0 0 0 0 0 0 0 0 0 0 0 0 0 0 0 0 0 0 0 0 0 0 0 0 0 0 0 0 0 0 0 0 0 0 0 0 0 0 0 0 0 0 0 0 0 0 0 0 0 0 0 0 0 0 0 0 0 0 0 0 0 0 0 0 0 0 0 0 0 0 0 0 0 0
0 0 0 0 0 0 0 0 0 0 0 0 0 0 0 0 0 0 0 0 0 0 0 0 0 0 0 0 0 0 0 0 0 0 0 0 0 0 0 0 0 0 0 0 0 0 0 0 0 0 0 0 0 0 0 0 0 0 0 0 0 0 0 0 0 0 0 0 0 0 0 0 0 0 0 0 0 0 0 0 0 0 0 0 0 0 0 0 0 0 0 0 0 0 0 0 0 0 0 0 0 0 0 0 0 0 0 0 0 0 0 0 0 0 0 0 0 0 0 0 0 0 0 0 0 0 0 0 0 0 0 0 0 0 0 0 0 0 0 0 0 0 0 0 0 0 0 0 0 0 0 0 0 0 0 0 0 0 0 0 0 0 0 0 0 0 0 0 0 0 0 0 0 0 0 0 0 0 0 0 0 0 0 0 0 0 0 0 0 0 0 0 0 0 0 0 0 0 0 0 0 0 0 0 0 0 0 0 0 0 0 0 0 0 0 0 0 0 0 0 0 0 0 0 0 0 0 0 0 0 0 0 0 0 0 0 0 0 0 0 0 0 0 0 0 0 0 0 0 0 0 0 0 0 0 0 0 0 0 0 0 0 0 0 0 0 0 0 0 0 0 0 0 0 0 0 0 0 0 0 0 0 0 0 0 0 0 0 0 0 0 0 0 0 0 0 0 0 0 0 0 0 0 0 0 0 3 3 3 0 0 0 63 66 68 237 238 239 255 255 255 249 250 250 254 254 254 254 254 254 254 254 254 254 254 254 254 254 254 254 254 254 254 254 254 254 254 254 253 253 253 226 230 232 211 220 227 213 221 228 213 221 228 213 221 228 213 221 228 213 221 228 213 221 228 213 221 228 208 215 222 226 233 238 176 183 190 13 18 16 0 0 0 2 2 2 0 0 0 0 0 0 0 0 0 0 0 0 0 0 0 0 0 0 0 0 0 0 0 0 0 0 0 0 0 0 0 0 0 0 0 0 0 0 0 0 0 0 0 0 0 0 0 0 0 0 0 0 0 0 0 0 0 0 0 0 0 0 0 0 0 0 0 0 0 0 0 0 0 0 0 0 0 0 0 0 0 0 0 0 0 0 0 0 0 0 0 0 0 0 0 0 0 0 0 0 0 0 0 0 0 0 0 0 0 0 0 0 0 0 0 0 0 0 0 0 0 0 0 0 0 0 0 0 0 0 0 0 0 0 0 0 0 0 0 0 0 0 0 0 0 0 0 0 0 0 0 0 0 0 0 0 0 0 0 0 0 0 0 0 0 0 0 0 0 0 0 0 0 0 0 0 0 0 0 0 0 0 0 0 0 0 0 0 0 0 0 0 0 0 0 0 0 0 0 0 0 0 0 0 0 0 0 0 0 0 0 0 0 0 0 0 0 0 0 0 0 0 0 0 0 0 0 0 0 0 0 0 0 0 0 0 0 0 0 0 0 0 0 0 0 0 0 0 0 0 0 0 0 0 0 0 0 0 0 0 0 0 0 0 0 0 0 0 0 0 0 0 0 0 0 0 0 0 0 0 0 0 0 0 0 0 0 0 0 0 0 0 0 0 0 0 0
0 0 0 0 0 0 0 0 0 0 0 0 0 0 0 0 0 0 0 0 0 0 0 0 0 0 0 0 0 0 0 0 0 0 0 0 0 0 0 0 0 0 0 0 0 0 0 0 0 0 0 0 0 0 0 0 0 0 0 0 0 0 0 0 0 0 0 0 0 0 0 0 0 0 0 0 0 0 0 0 0 0 0 0 0 0 0 0 0 0 0 0 0 0 0 0 0 0 0 0 0 0 0 0 0 0 0 0 0 0 0 0 0 0 0 0 0 0 0 0 0 0 0 0 0 0 0 0 0 0 0 0 0 0 0 0 0 0 0 0 0 0 0 0 0 0 0 0 0 0 0 0 0 0 0 0 0 0 0 0 0 0 0 0 0 0 0 0 0 0 0 0 0 0 0 0 0 0 0 0 0 0 0 0 0 0 0 0 0 0 0 0 0 0 0 0 0 0 0 0 0 0 0 0 0 0 0 0 0 0 0 0 0 0 0 0 0 0 0 0 0 0 0 0 0 0 0 0 0 0 0 0 0 0 0 0 0 0 0 0 0 0 0 0 0 0 0 0 0 0 0 0 0 0 0 0 0 0 0 0 0 0 0 0 0 0 0 0 0 0 0 0 0 0 0 0 0 0 0 0 0 0 0 0 0 0 0 0 0 0 0 0 0 0 0 0 0 0 0 0 1 1 1 3 3 3 0 0 0 80 84 89 237 238 239 255 255 255 251 251 251 254 254 254 254 254 254 254 254 254 254 254 254 254 254 254 254 254 254 254 254 254 254 254 254 254 254 254 253 253 253 226 230 232 211 220 227 213 221 228 213 221 228 213 221 228 213 221 228 213 221 228 213 221 228 213 221 228 213 221 228 211 216 222 226 233 238 154 163 176 9 10 10 0 0 0 2 2 2 0 0 0 0 0 0 0 0 0 0 0 0 0 0 0 0 0 0 0 0 0 0 0 0 0 0 0 0 0 0 0 0 0 0 0 0 0 0 0 0 0 0 0 0 0 0 0 0 0 0 0 0 0 0 0 0 0 0 0 0 0 0 0 0 0 0 0 0 0 0 0 0 0 0 0 0 0 0 0 0 0 0 0 0 0 0 0 0 0 0 0 0 0 0 0 0 0 0 0 0 0 0 0 0 0 0 0 0 0 0 0 0 0 0 0 0 0 0 0 0 0 0 0 0 0 0 0 0 0 0 0 0 0 0 0 0 0 0 0 0 0 0 0 0 0 0 0 0 0 0 0 0 0 0 0 0 0 0 0 0 0 0 0 0 0 0 0 0 0 0 0 0 0 0 0 0 0 0 0 0 0 0 0 0 0 0 0 0 0 0 0 0 0 0 0 0 0 0 0 0 0 0 0 0 0 0 0 0 0 0 0 0 0 0 0 0 0 0 0 0 0 0 0 0 0 0 0 0 0 0 0 0 0 0 0 0 0 0 0 0 0 0 0 0 0 0 0 0 0 0 0 0 0 0 0 0 0 0 0 0 0 0 0 0 0 0 0 0 0 0 0 0 0 0 0 0 0 0 0 0 0 0 0 0 0 0 0 0 0 0 0 0 0 0
0 0 0 0 0 0 0 0 0 0 0 0 0 0 0 0 0 0 0 0 0 0 0 0 0 0 0 0 0 0 0 0 0 0 0 0 0 0 0 0 0 0 0 0 0 0 0 0 0 0 0 0 0 0 0 0 0 0 0 0 0 0 0 0 0 0 0 0 0 0 0 0 0 0 0 0 0 0 0 0 0 0 0 0 0 0 0 0 0 0 0 0 0 0 0 0 0 0 0 0 0 0 0 0 0 0 0 0 0 0 0 0 0 0 0 0 0 0 0 0 0 0 0 0 0 0 0 0 0 0 0 0 0 0 0 0 0 0 0 0 0 0 0 0 0 0 0 0 0 0 0 0 0 0 0 0 0 0 0 0 0 0 0 0 0 0 0 0 0 0 0 0 0 0 0 0 0 0 0 0 0 0 0 0 0 0 0 0 0 0 0 0 0 0 0 0 0 0 0 0 0 0 0 0 0 0 0 0 0 0 0 0 0 0 0 0 0 0 0 0 0 0 0 0 0 0 0 0 0 0 0 0 0 0 0 0 0 0 0 0 0 0 0 0 0 0 0 0 0 0 0 0 0 0 0 0 0 0 0 0 0 0 0 0 0 0 0 0 0 0 0 0 0 0 0 0 0 0 0 0 0 0 0 0 0 0 0 0 0 0 0 0 0 0 0 0 0 1 1 1 3 3 3 0 0 0 93 96 104 245 246 246 255 255 255 251 251 251 254 254 254 254 254 254 254 254 254 254 254 254 254 254 254 254 254 254 254 254 254 254 254 254 254 254 254 254 254 254 253 253 253 226 230 232 211 220 227 213 221 228 213 221 228 213 221 228 213 221 228 213 221 228 213 221 228 213 221 228 213 221 228 213 221 228 210 218 225 226 233 238 151 162 174 13 18 16 0 0 0 2 2 2 0 0 0 0 0 0 0 0 0 0 0 0 0 0 0 0 0 0 0 0 0 0 0 0 0 0 0 0 0 0 0 0 0 0 0 0 0 0 0 0 0 0 0 0 0 0 0 0 0 0 0 0 0 0 0 0 0 0 0 0 0 0 0 0 0 0 0 0 0 0 0 0 0 0 0 0 0 0 0 0 0 0 0 0 0 0 0 0 0 0 0 0 0 0 0 0 0 0 0 0 0 0 0 0 0 0 0 0 0 0 0 0 0 0 0 0 0 0 0 0 0 0 0 0 0 0 0 0 0 0 0 0 0 0 0 0 0 0 0 0 0 0 0 0 0 0 0 0 0 0 0 0 0 0 0 0 0 0 0 0 0 0 0 0 0 0 0 0 0 0 0 0 0 0 0 0 0 0 0 0 0 0 0 0 0 0 0 0 0 0 0 0 0 0 0 0 0 0 0 0 0 0 0 0 0 0 0 0 0 0 0 0 0 0 0 0 0 0 0 0 0 0 0 0 0 0 0 0 0 0 0 0 0 0 0 0 0 0 0 0 0 0 0 0 0 0 0 0 0 0 0 0 0 0 0 0 0 0 0 0 0 0 0 0 0 0 0 0 0 0 0 0 0 0 0 0 0 0 0 0 0 0 0 0 0 0 0 0 0 0 0
0 0 0 0 0 0 0 0 0 0 0 0 0 0 0 0 0 0 0 0 0 0 0 0 0 0 0 0 0 0 0 0 0 0 0 0 0 0 0 0 0 0 0 0 0 0 0 0 0 0 0 0 0 0 0 0 0 0 0 0 0 0 0 0 0 0 0 0 0 0 0 0 0 0 0 0 0 0 0 0 0 0 0 0 0 0 0 0 0 0 0 0 0 0 0 0 0 0 0 0 0 0 0 0 0 0 0 0 0 0 0 0 0 0 0 0 0 0 0 0 0 0 0 0 0 0 0 0 0 0 0 0 0 0 0 0 0 0 0 0 0 0 0 0 0 0 0 0 0 0 0 0 0 0 0 0 0 0 0 0 0 0 0 0 0 0 0 0 0 0 0 0 0 0 0 0 0 0 0 0 0 0 0 0 0 0 0 0 0 0 0 0 0 0 0 0 0 0 0 0 0 0 0 0 0 0 0 0 0 0 0 0 0 0 0 0 0 0 0 0 0 0 0 0 0 0 0 0 0 0 0 0 0 0 0 0 0 0 0 0 0 0 0 0 0 0 0 0 0 0 0 0 0 0 0 0 0 0 0 0 0 0 0 0 0 0 0 0 0 0 0 0 0 0 0 0 0 0 0 0 0 0 0 0 0 0 0 0 0 0 0 0 0 0 1 1 1 3 3 3 0 0 0 93 96 104 251 251 251 255 255 255 251 251 251 254 254 254 254 254 254 254 254 254 254 254 254 254 254 254 254 254 254 254 254 254 254 254 254 254 254 254 254 254 254 254 254 254 253 253 253 226 230 232 211 220 227 213 221 228 213 221 228 213 221 228 213 221 228 213 221 228 213 221 228 213 221 228 213 221 228 213 221 228 213 221 228 210 218 225 226 233 238 150 160 172 9 10 10 0 0 0 2 2 2 0 0 0 0 0 0 0 0 0 0 0 0 0 0 0 0 0 0 0 0 0 0 0 0 0 0 0 0 0 0 0 0 0 0 0 0 0 0 0 0 0 0 0 0 0 0 0 0 0 0 0 0 0 0 0 0 0 0 0 0 0 0 0 0 0 0 0 0 0 0 0 0 0 0 0 0 0 0 0 0 0 0 0 0 0 0 0 0 0 0 0 0 0 0 0 0 0 0 0 0 0 0 0 0 0 0 0 0 0 0 0 0 0 0 0 0 0 0 0 0 0 0 0 0 0 0 0 0 0 0 0 0 0 0 0 0 0 0 0 0 0 0 0 0 0 0 0 0 0 0 0 0 0 0 0 0 0 0 0 0 0 0 0 0 0 0 0 0 0 0 0 0 0 0 0 0 0 0 0 0 0 0 0 0 0 0 0 0 0 0 0 0 0 0 0 0 0 0 0 0 0 0 0 0 0 0 0 0 0 0 0 0 0 0 0 0 0 0 0 0 0 0 0 0 0 0 0 0 0 0 0 0 0 0 0 0 0 0 0 0 0 0 0 0 0 0 0 0 0 0 0 0 0 0 0 0 0 0 0 0 0 0 0 0 0 0 0 0 0 0 0 0 0 0 0 0 0 0 0 0 0 0 0 0 0 0 0 0
0 0 0 0 0 0 0 0 0 0 0 0 0 0 0 0 0 0 0 0 0 0 0 0 0 0 0 0 0 0 0 0 0 0 0 0 0 0 0 0 0 0 0 0 0 0 0 0 0 0 0 0 0 0 0 0 0 0 0 0 0 0 0 0 0 0 0 0 0 0 0 0 0 0 0 0 0 0 0 0 0 0 0 0 0 0 0 0 0 0 0 0 0 0 0 0 0 0 0 0 0 0 0 0 0 0 0 0 0 0 0 0 0 0 0 0 0 0 0 0 0 0 0 0 0 0 0 0 0 0 0 0 0 0 0 0 0 0 0 0 0 0 0 0 0 0 0 0 0 0 0 0 0 0 0 0 0 0 0 0 0 0 0 0 0 0 0 0 0 0 0 0 0 0 0 0 0 0 0 0 0 0 0 0 0 0 0 0 0 0 0 0 0 0 0 0 0 0 0 0 0 0 0 0 0 0 0 0 0 0 0 0 0 0 0 0 0 0 0 0 0 0 0 0 0 0 0 0 0 0 0 0 0 0 0 0 0 0 0 0 0 0 0 0 0 0 0 0 0 0 0 0 0 0 0 0 0 0 0 0 0 0 0 0 0 0 0 0 0 0 0 0 0 0 0 0 0 0 0 0 0 0 0 0 0 0 0 0 0 0 0 1 1 1 2 2 2 0 0 0 93 96 104 249 250 250 254 254 254 251 251 251 254 254 254 254 254 254 254 254 254 254 254 254 254 254 254 254 254 254 254 254 254 254 254 254 254 254 254 254 254 254 254 254 254 254 254 254 253 253 253 226 230 232 211 220 227 213 221 228 213 221 228 213 221 228 213 221 228 213 221 228 213 221 228 213 221 228 213 221 228 213 221 228 213 221 228 213 221 228 210 218 225 226 233 238 149 157 167 13 18 16 0 0 0 2 3 3 0 0 0 0 0 0 0 0 0 0 0 0 0 0 0 0 0 0 0 0 0 0 0 0 0 0 0 0 0 0 0 0 0 0 0 0 0 0 0 0 0 0 0 0 0 0 0 0 0 0 0 0 0 0 0 0 0 0 0 0 0 0 0 0 0 0 0 0 0 0 0 0 0 0 0 0 0 0 0 0 0 0 0 0 0 0 0 0 0 0 0 0 0 0 0 0 0 0 0 0 0 0 0 0 0 0 0 0 0 0 0 0 0 0 0 0 0 0 0 0 0 0 0 0 0 0 0 0 0 0 0 0 0 0 0 0 0 0 0 0 0 0 0 0 0 0 0 0 0 0 0 0 0 0 0 0 0 0 0 0 0 0 0 0 0 0 0 0 0 0 0 0 0 0 0 0 0 0 0 0 0 0 0 0 0 0 0 0 0 0 0 0 0 0 0 0 0 0 0 0 0 0 0 0 0 0 0 0 0 0 0 0 0 0 0 0 0 0 0 0 0 0 0 0 0 0 0 0 0 0 0 0 0 0 0 0 0 0 0 0 0 0 0 0 0 0 0 0 0 0 0 0 0 0 0 0 0 0 0 0 0 0 0 0 0 0 0 0 0 0 0 0 0 0 0 0 0 0 0 0 0 0 0 0 0
0 0 0 0 0 0 0 0 0 0 0 0 0 0 0 0 0 0 0 0 0 0 0 0 0 0 0 0 0 0 0 0 0 0 0 0 0 0 0 0 0 0 0 0 0 0 0 0 0 0 0 0 0 0 0 0 0 0 0 0 0 0 0 0 0 0 0 0 0 0 0 0 0 0 0 0 0 0 0 0 0 0 0 0 0 0 0 0 0 0 0 0 0 0 0 0 0 0 0 0 0 0 0 0 0 0 0 0 0 0 0 0 0 0 0 0 0 0 0 0 0 0 0 0 0 0 0 0 0 0 0 0 0 0 0 0 0 0 0 0 0 0 0 0 0 0 0 0 0 0 0 0 0 0 0 0 0 0 0 0 0 0 0 0 0 0 0 0 0 0 0 0 0 0 0 0 0 0 0 0 0 0 0 0 0 0 0 0 0 0 0 0 0 0 0 0 0 0 0 0 0 0 0 0 0 0 0 0 0 0 0 0 0 0 0 0 0 0 0 0 0 0 0 0 0 0 0 0 0 0 0 0 0 0 0 0 0 0 0 0 0 0 0 0 0 0 0 0 0 0 0 0 0 0 0 0 0 0 0 0 0 0 0 0 0 0 0 0 0 0 0 0 0 0 0 0 0 0 0 0 0 0 0 0 0 0 0 0 0 0 0 3 3 3 0 0 0 93 96 104 249 250 250 254 254 254 251 251 251 254 254 254 254 254 254 254 254 254 254 254 254 254 254 254 254 254 254 254 254 254 254 254 254 254 254 254 254 254 254 254 254 254 254 254 254 254 254 255 252 252 252 221 227 232 211 220 227 213 221 228 213 221 228 213 221 228 213 221 228 213 221 228 213 221 228 213 221 228 213 221 228 213 221 228 213 221 228 213 221 228 213 221 228 210 218 225 226 233 238 149 157 167 9 10 10 0 0 0 2 2 2 0 0 0 0 0 0 0 0 0 0 0 0 0 0 0 0 0 0 0 0 0 0 0 0 0 0 0 0 0 0 0 0 0 0 0 0 0 0 0 0 0 0 0 0 0 0 0 0 0 0 0 0 0 0 0 0 0 0 0 0 0 0 0 0 0 0 0 0 0 0 0 0 0 0 0 0 0 0 0 0 0 0 0 0 0 0 0 0 0 0 0 0 0 0 0 0 0 0 0 0 0 0 0 0 0 0 0 0 0 0 0 0 0 0 0 0 0 0 0 0 0 0 0 0 0 0 0 0 0 0 0 0 0 0 0 0 0 0 0 0 0 0 0 0 0 0 0 0 0 0 0 0 0 0 0 0 0 0 0 0 0 0 0 0 0 0 0 0 0 0 0 0 0 0 0 0 0 0 0 0 0 0 0 0 0 0 0 0 0 0 0 0 0 0 0 0 0 0 0 0 0 0 0 0 0 0 0 0 0 0 0 0 0 0 0 0 0 0 0 0 0 0 0 0 0 0 0 0 0 0 0 0 0 0 0 0 0 0 0 0 0 0 0 0 0 0 0 0 0 0 0 0 0 0 0 0 0 0 0 0 0 0 0 0 0 0 0 0 0 0 0 0 0 0 0 0 0 0 0 0 0 0
0 0 0 0 0 0 0 0 0 0 0 0 0 0 0 0 0 0 0 0 0 0 0 0 0 0 0 0 0 0 0 0 0 0 0 0 0 0 0 0 0 0 0 0 0 0 0 0 0 0 0 0 0 0 0 0 0 0 0 0 0 0 0 0 0 0 0 0 0 0 0 0 0 0 0 0 0 0 0 0 0 0 0 0 0 0 0 0 0 0 0 0 0 0 0 0 0 0 0 0 0 0 0 0 0 0 0 0 0 0 0 0 0 0 0 0 0 0 0 0 0 0 0 0 0 0 0 0 0 0 0 0 0 0 0 0 0 0 0 0 0 0 0 0 0 0 0 0 0 0 0 0 0 0 0 0 0 0 0 0 0 0 0 0 0 0 0 0 0 0 0 0 0 0 0 0 0 0 0 0 0 0 0 0 0 0 0 0 0 0 0 0 0 0 0 0 0 0 0 0 0 0 0 0 0 0 0 0 0 0 0 0 0 0 0 0 0 0 0 0 0 0 0 0 0 0 0 0 0 0 0 0 0 0 0 0 0 0 0 0 0 0 0 0 0 0 0 0 0 0 0 0 0 0 0 0 0 0 0 0 0 0 0 0 0 0 0 0 0 0 0 0 0 0 0 0 0 0 0 0 0 0 0 0 0 1 1 1 2 2 2 0 0 0 93 96 104 245 246 246 255 255 255 252 252 252 254 254 254 254 254 254 254 254 254 254 254 254 254 254 254 254 254 254 254 254 254 254 254 254 254 254 254 254 254 254 254 254 254 254 254 254 254 254 254 255 255 255 251 251 251 219 224 228 212 220 228 213 221 228 213 221 228 213 221 228 213 221 228 213 221 228 213 221 228 213 221 228 213 221 228 213 221 228 213 221 228 213 221 228 213 221 228 213 221 228 210 218 225 226 233 238 144 154 166 9 10 10 1 1 1 2 2 2 0 0 0 0 0 0 0 0 0 0 0 0 0 0 0 0 0 0 0 0 0 0 0 0 0 0 0 0 0 0 0 0 0 0 0 0 0 0 0 0 0 0 0 0 0 0 0 0 0 0 0 0 0 0 0 0 0 0 0 0 0 0 0 0 0 0 0 0 0 0 0 0 0 0 0 0 0 0 0 0 0 0 0 0 0 0 0 0 0 0 0 0 0 0 0 0 0 0 0 0 0 0 0 0 0 0 0 0 0 0 0 0 0 0 0 0 0 0 0 0 0 0 0 0 0 0 0 0 0 0 0 0 0 0 0 0 0 0 0 0 0 0 0 0 0 0 0 0 0 0 0 0 0 0 0 0 0 0 0 0 0 0 0 0 0 0 0 0 0 0 0 0 0 0 0 0 0 0 0 0 0 0 0 0 0 0 0 0 0 0 0 0 0 0 0 0 0 0 0 0 0 0 0 0 0 0 0 0 0 0 0 0 0 0 0 0 0 0 0 0 0 0 0 0 0 0 0 0 0 0 0 0 0 0 0 0 0 0 0 0 0 0 0 0 0 0 0 0 0 0 0 0 0 0 0 0 0 0 0 0 0 0 0 0 0 0 0 0 0 0 0 0 0 0 0 0 0 0 0
0 0 0 0 0 0 0 0 0 0 0 0 0 0 0 0 0 0 0 0 0 0 0 0 0 0 0 0 0 0 0 0 0 0 0 0 0 0 0 0 0 0 0 0 0 0 0 0 0 0 0 0 0 0 0 0 0 0 0 0 0 0 0 0 0 0 0 0 0 0 0 0 0 0 0 0 0 0 0 0 0 0 0 0 0 0 0 0 0 0 0 0 0 0 0 0 0 0 0 0 0 0 0 0 0 0 0 0 0 0 0 0 0 0 0 0 0 0 0 0 0 0 0 0 0 0 0 0 0 0 0 0 0 0 0 0 0 0 0 0 0 0 0 0 0 0 0 0 0 0 0 0 0 0 0 0 0 0 0 0 0 0 0 0 0 0 0 0 0 0 0 0 0 0 0 0 0 0 0 0 0 0 0 0 0 0 0 0 0 0 0 0 0 0 0 0 0 0 0 0 0 0 0 0 0 0 0 0 0 0 0 0 0 0 0 0 0 0 0 0 0 0 0 0 0 0 0 0 0 0 0 0 0 0 0 0 0 0 0 0 0 0 0 0 0 0 0 0 0 0 0 0 0 0 0 0 0 0 0 0 0 0 0 0 0 0 0 0 0 0 0 0 0 0 0 0 0 0 0 0 0 0 0 0 0 3 3 3 0 0 0 93 96 104 249 250 250 254 254 254 251 251 251 254 254 254 254 254 254 254 254 254 254 254 254 254 254 254 254 254 254 254 254 254 254 254 254 254 254 254 254 254 254 254 254 254 254 254 254 254 254 254 254 254 254 255 255 255 251 251 251 219 224 228 212 221 228 213 221 228 213 221 228 213 221 228 213 221 228 213 221 228 213 221 228 213 221 228 213 221 228 213 221 228 213 221 228 213 221 228 213 221 228 213 221 228 213 221 228 210 218 225 222 230 237 127 134 141 3 3 4 0 0 0 1 1 1 0 0 0 0 0 0 0 0 0 0 0 0 0 0 0 0 0 0 0 0 0 0 0 0 0 0 0 0 0 0 0 0 0 0 0 0 0 0 0 0 0 0 0 0 0 0 0 0 0 0 0 0 0 0 0 0 0 0 0 0 0 0 0 0 0 0 0 0 0 0 0 0 0 0 0 0 0 0 0 0 0 0 0 0 0 0 0 0 0 0 0 0 0 0 0 0 0 0 0 0 0 0 0 0 0 0 0 0 0 0 0 0 0 0 0 0 0 0 0 0 0 0 0 0 0 0 0 0 0 0 0 0 0 0 0 0 0 0 0 0 0 0 0 0 0 0 0 0 0 0 0 0 0 0 0 0 0 0 0 0 0 0 0 0 0 0 0 0 0 0 0 0 0 0 0 0 0 0 0 0 0 0 0 0 0 0 0 0 0 0 0 0 0 0 0 0 0 0 0 0 0 0 0 0 0 0 0 0 0 0 0 0 0 0 0 0 0 0 0 0 0 0 0 0 0 0 0 0 0 0 0 0 0 0 0 0 0 0 0 0 0 0 0 0 0 0 0 0 0 0 0 0 0 0 0 0 0 0 0 0 0 0 0 0 0 0 0 0 0 0 0 0 0 0 0 0
0 0 0 0 0 0 0 0 0 0 0 0 0 0 0 0 0 0 0 0 0 0 0 0 0 0 0 0 0 0 0 0 0 0 0 0 0 0 0 0 0 0 0 0 0 0 0 0 0 0 0 0 0 0 0 0 0 0 0 0 0 0 0 0 0 0 0 0 0 0 0 0 0 0 0 0 0 0 0 0 0 0 0 0 0 0 0 0 0 0 0 0 0 0 0 0 0 0 0 0 0 0 0 0 0 0 0 0 0 0 0 0 0 0 0 0 0 0 0 0 0 0 0 0 0 0 0 0 0 0 0 0 0 0 0 0 0 0 0 0 0 0 0 0 0 0 0 0 0 0 0 0 0 0 0 0 0 0 0 0 0 0 0 0 0 0 0 0 0 0 0 0 0 0 0 0 0 0 0 0 0 0 0 0 0 0 0 0 0 0 0 0 0 0 0 0 0 0 0 0 0 0 0 0 0 0 0 0 0 0 0 0 0 0 0 0 0 0 0 0 0 0 0 0 0 0 0 0 0 0 0 0 0 0 0 0 0 0 0 0 0 0 0 0 0 0 0 0 0 0 0 0 0 0 0 0 0 0 0 0 0 0 0 0 0 0 0 0 0 0 0 0 0 0 0 0 0 0 0 1 1 1 2 2 2 0 0 0 93 96 104 249 250 250 255 255 255 252 252 252 254 254 254 254 254 254 254 254 254 254 254 254 254 254 254 254 254 254 254 254 254 254 254 254 254 254 254 254 254 254 254 254 254 254 254 254 254 254 254 254 254 254 254 254 254 255 255 255 251 251 251 221 227 232 212 221 228 213 221 228 213 221 228 213 221 228 213 221 228 213 221 228 213 221 228 213 221 228 213 221 228 213 221 228 213 221 228 213 221 228 213 221 228 213 221 228 213 221 228 213 221 228 211 219 226 220 228 235 127 134 141 4 4 4 1 1 1 2 2 2 0 0 0 0 0 0 0 0 0 0 0 0 0 0 0 0 0 0 0 0 0 0 0 0 0 0 0 0 0 0 0 0 0 0 0 0 0 0 0 0 0 0 0 0 0 0 0 0 0 0 0 0 0 0 0 0 0 0 0 0 0 0 0 0 0 0 0 0 0 0 0 0 0 0 0 0 0 0 0 0 0 0 0 0 0 0 0 0 0 0 0 0 0 0 0 0 0 0 0 0 0 0 0 0 0 0 0 0 0 0 0 0 0 0 0 0 0 0 0 0 0 0 0 0 0 0 0 0 0 0 0 0 0 0 0 0 0 0 0 0 0 0 0 0 0 0 0 0 0 0 0 0 0 0 0 0 0 0 0 0 0 0 0 0 0 0 0 0 0 0 0 0 0 0 0 0 0 0 0 0 0 0 0 0 0 0 0 0 0 0 0 0 0 0 0 0 0 0 0 0 0 0 0 0 0 0 0 0 0 0 0 0 0 0 0 0 0 0 0 0 0 0 0 0 0 0 0 0 0 0 0 0 0 0 0 0 0 0 0 0 0 0 0 0 0 0 0 0 0 0 0 0 0 0 0 0 0 0 0 0 0 0 0 0 0 0 0 0 0 0 0 0 0
0 0 0 0 0 0 0 0 0 0 0 0 0 0 0 0 0 0 0 0 0 0 0 0 0 0 0 0 0 0 0 0 0 0 0 0 0 0 0 0 0 0 0 0 0 0 0 0 0 0 0 0 0 0 0 0 0 0 0 0 0 0 0 0 0 0 0 0 0 0 0 0 0 0 0 0 0 0 0 0 0 0 0 0 0 0 0 0 0 0 0 0 0 0 0 0 0 0 0 0 0 0 0 0 0 0 0 0 0 0 0 0 0 0 0 0 0 0 0 0 0 0 0 0 0 0 0 0 0 0 0 0 0 0 0 0 0 0 0 0 0 0 0 0 0 0 0 0 0 0 0 0 0 0 0 0 0 0 0 0 0 0 0 0 0 0 0 0 0 0 0 0 0 0 0 0 0 0 0 0 0 0 0 0 0 0 0 0 0 0 0 0 0 0 0 0 0 0 0 0 0 0 0 0 0 0 0 0 0 0 0 0 0 0 0 0 0 0 0 0 0 0 0 0 0 0 0 0 0 0 0 0 0 0 0 0 0 0 0 0 0 0 0 0 0 0 0 0 0 0 0 0 0 0 0 0 0 0 0 0 0 0 0 0 0 0 0 0 0 0 0 0 0 0 0 0 0 0 0 2 2 2 0 0 0 93 96 104 249 250 250 254 254 254 251 251 251 254 254 254 254 254 254 254 254 254 254 254 254 254 254 254 254 254 254 254 254 254 254 254 254 254 254 254 254 254 254 254 254 254 254 254 254 254 254 254 254 254 254 254 254 254 254 254 254 255 255 255 251 251 251 219 224 228 212 221 228 213 221 228 213 221 228 213 221 228 213 221 228 213 221 228 213 221 228 213 221 228 213 221 228 213 221 228 213 221 228 213 221 228 213 221 228 213 221 228 213 221 228 213 221 228 211 219 226 211 219 226 220 228 235 127 134 141 2 3 3 0 0 0 1 1 1 0 0 0 0 0 0 0 0 0 0 0 0 0 0 0 0 0 0 0 0 0 0 0 0 0 0 0 0 0 0 0 0 0 0 0 0 0 0 0 0 0 0 0 0 0 0 0 0 0 0 0 0 0 0 0 0 0 0 0 0 0 0 0 0 0 0 0 0 0 0 0 0 0 0 0 0 0 0 0 0 0 0 0 0 0 0 0 0 0 0 0 0 0 0 0 0 0 0 0 0 0 0 0 0 0 0 0 0 0 0 0 0 0 0 0 0 0 0 0 0 0 0 0 0 0 0 0 0 0 0 0 0 0 0 0 0 0 0 0 0 0 0 0 0 0 0 0 0 0 0 0 0 0 0 0 0 0 0 0 0 0 0 0 0 0 0 0 0 0 0 0 0 0 0 0 0 0 0 0 0 0 0 0 0 0 0 0 0 0 0 0 0 0 0 0 0 0 0 0 0 0 0 0 0 0 0 0 0 0 0 0 0 0 0 0 0 0 0 0 0 0 0 0 0 0 0 0 0 0 0 0 0 0 0 0 0 0 0 0 0 0 0 0 0 0 0 0 0 0 0 0 0 0 0 0 0 0 0 0 0 0 0 0 0 0 0 0 0 0 0
0 0 0 0 0 0 0 0 0 0 0 0 0 0 0 0 0 0 0 0 0 0 0 0 0 0 0 0 0 0 0 0 0 0 0 0 0 0 0 0 0 0 0 0 0 0 0 0 0 0 0 0 0 0 0 0 0 0 0 0 0 0 0 0 0 0 0 0 0 0 0 0 0 0 0 0 0 0 0 0 0 0 0 0 0 0 0 0 0 0 0 0 0 0 0 0 0 0 0 0 0 0 0 0 0 0 0 0 0 0 0 0 0 0 0 0 0 0 0 0 0 0 0 0 0 0 0 0 0 0 0 0 0 0 0 0 0 0 0 0 0 0 0 0 0 0 0 0 0 0 0 0 0 0 0 0 0 0 0 0 0 0 0 0 0 0 0 0 0 0 0 0 0 0 0 0 0 0 0 0 0 0 0 0 0 0 0 0 0 0 0 0 0 0 0 0 0 0 0 0 0 0 0 0 0 0 0 0 0 0 0 0 0 0 0 0 0 0 0 0 0 0 0 0 0 0 0 0 0 0 0 0 0 0 0 0 0 0 0 0 0 0 0 0 0 0 0 0 0 0 0 0 0 0 0 0 0 0 0 0 0 0 0 0 0 0 0 0 0 0 0 0 0 1 1 1 3 3 3 0 0 0 93 96 104 249 250 250 255 255 255 252 252 252 254 254 254 254 254 254 254 254 254 254 254 254 254 254 254 254 254 254 254 254 254 254 254 254 254 254 254 254 254 254 254 254 254 254 254 254 254 254 254 254 254 254 254 254 254 254 254 254 254 254 254 255 255 255 251 251 251 221 227 232 212 221 228 213 221 228 213 221 228 213 221 228 213 221 228 213 221 228 213 221 228 213 221 228 213 221 228 213 221 228 213 221 228 213 221 228 213 221 228 213 221 228 213 221 228 213 221 228 213 221 228 212 220 227 211 219 226 221 229 236 113 125 137 4 4 4 1 1 2 1 1 1 0 0 0 0 0 0 0 0 0 0 0 0 0 0 0 0 0 0 0 0 0 0 0 0 0 0 0 0 0 0 0 0 0 0 0 0 0 0 0 0 0 0 0 0 0 0 0 0 0 0 0 0 0 0 0 0 0 0 0 0 0 0 0 0 0 0 0 0 0 0 0 0 0 0 0 0 0 0 0 0 0 0 0 0 0 0 0 0 0 0 0 0 0 0 0 0 0 0 0 0 0 0 0 0 0 0 0 0 0 0 0 0 0 0 0 0 0 0 0 0 0 0 0 0 0 0 0 0 0 0 0 0 0 0 0 0 0 0 0 0 0 0 0 0 0 0 0 0 0 0 0 0 0 0 0 0 0 0 0 0 0 0 0 0 0 0 0 0 0 0 0 0 0 0 0 0 0 0 0 0 0 0 0 0 0 0 0 0 0 0 0 0 0 0 0 0 0 0 0 0 0 0 0 0 0 0 0 0 0 0 0 0 0 0 0 0 0 0 0 0 0 0 0 0 0 0 0 0 0 0 0 0 0 0 0 0 0 0 0 0 0 0 0 0 0 0 0 0 0 0 0 0 0 0 0 0 0 0 0 0 0 0 0 0 0 0 0
0 0 0 0 0 0 0 0 0 0 0 0 0 0 0 0 0 0 0 0 0 0 0 0 0 0 0 0 0 0 0 0 0 0 0 0 0 0 0 0 0 0 0 0 0 0 0 0 0 0 0 0 0 0 0 0 0 0 0 0 0 0 0 0 0 0 0 0 0 0 0 0 0 0 0 0 0 0 0 0 0 0 0 0 0 0 0 0 0 0 0 0 0 0 0 0 0 0 0 0 0 0 0 0 0 0 0 0 0 0 0 0 0 0 0 0 0 0 0 0 0 0 0 0 0 0 0 0 0 0 0 0 0 0 0 0 0 0 0 0 0 0 0 0 0 0 0 0 0 0 0 0 0 0 0 0 0 0 0 0 0 0 0 0 0 0 0 0 0 0 0 0 0 0 0 0 0 0 0 0 0 0 0 0 0 0 0 0 0 0 0 0 0 0 0 0 0 0 0 0 0 0 0 0 0 0 0 0 0 0 0 0 0 0 0 0 0 0 0 0 0 0 0 0 0 0 0 0 0 0 0 0 0 0 0 0 0 0 0 0 0 0 0 0 0 0 0 0 0 0 0 0 0 0 0 0 0 0 0 0 0 0 0 0 0 0 0 0 0 0 1 1 1 2 2 2 0 0 0 93 96 104 245 246 246 254 254 254 251 251 251 254 254 254 254 254 254 254 254 254 254 254 254 254 254 254 254 254 254 254 254 254 254 254 254 254 254 254 254 254 254 254 254 254 254 254 254 254 254 254 254 254 254 254 254 254 254 254 254 254 254 254 254 254 254 255 255 255 251 251 251 221 227 232 212 221 228 213 221 228 213 221 228 213 221 228 213 221 228 213 221 228 213 221 228 213 221 228 213 221 228 213 221 228 213 221 228 213 221 228 213 221 228 213 221 228 213 221 228 213 221 228 213 221 228 213 221 228 211 219 226 211 219 226 221 229 236 112 122 133 1 1 1 1 1 1 1 1 1 0 0 0 0 0 0 0 0 0 0 0 0 0 0 0 0 0 0 0 0 0 0 0 0 0 0 0 0 0 0 0 0 0 0 0 0 0 0 0 0 0 0 0 0 0 0 0 0 0 0 0 0 0 0 0 0 0 0 0 0 0 0 0 0 0 0 0 0 0 0 0 0 0 0 0 0 0 0 0 0 0 0 0 0 0 0 0 0 0 0 0 0 0 0 0 0 0 0 0 0 0 0 0 0 0 0 0 0 0 0 0 0 0 0 0 0 0 0 0 0 0 0 0 0 0 0 0 0 0 0 0 0 0 0 0 0 0 0 0 0 0 0 0 0 0 0 0 0 0 0 0 0 0 0 0 0 0 0 0 0 0 0 0 0 0 0 0 0 0 0 0 0 0 0 0 0 0 0 0 0 0 0 0 0 0 0 0 0 0 0 0 0 0 0 0 0 0 0 0 0 0 0 0 0 0 0 0 0 0 0 0 0 0 0 0 0 0 0 0 0 0 0 0 0 0 0 0 0 0 0 0 0 0 0 0 0 0 0 0 0 0 0 0 0 0 0 0 0 0 0 0 0 0 0 0 0 0 0 0 0 0 0 0 0
0 0 0 0 0 0 0 0 0 0 0 0 0 0 0 0 0 0 0 0 0 0 0 0 0 0 0 0 0 0 0 0 0 0 0 0 0 0 0 0 0 0 0 0 0 0 0 0 0 0 0 0 0 0 0 0 0 0 0 0 0 0 0 0 0 0 0 0 0 0 0 0 0 0 0 0 0 0 0 0 0 0 0 0 0 0 0 0 0 0 0 0 0 0 0 0 0 0 0 0 0 0 0 0 0 0 0 0 0 0 0 0 0 0 0 0 0 0 0 0 0 0 0 0 0 0 0 0 0 0 0 0 0 0 0 0 0 0 0 0 0 0 0 0 0 0 0 0 0 0 0 0 0 0 0 0 0 0 0 0 0 0 0 0 0 0 0 0 0 0 0 0 0 0 0 0 0 0 0 0 0 0 0 0 0 0 0 0 0 0 0 0 0 0 0 0 0 0 0 0 0 0 0 0 0 0 0 0 0 0 0 0 0 0 0 0 0 0 0 0 0 0 0 0 0 0 0 0 0 0 0 0 0 0 0 0 0 0 0 0 0 0 0 0 0 0 0 0 0 0 0 0 0 0 0 0 0 0 0 0 0 0 0 0 0 0 0 1 1 1 3 3 3 0 0 0 93 96 104 251 251 251 255 255 255 251 251 251 254 254 254 254 254 254 254 254 254 254 254 254 254 254 254 254 254 254 254 254 254 254 254 254 254 254 254 254 254 254 254 254 254 254 254 254 254 254 254 254 254 254 254 254 254 254 254 254 254 254 254 254 254 254 254 254 254 255 255 255 251 251 251 219 224 228 213 221 228 213 221 228 213 221 228 213 221 228 213 221 228 213 221 228 213 221 228 213 221 228 213 221 228 213 221 228 213 221 228 213 221 228 213 221 228 213 221 228 213 221 228 213 221 228 213 221 228 213 221 228 213 221 228 211 219 226 212 220 228 216 224 231 97 104 112 0 0 0 2 2 2 1 1 1 0 0 0 0 0 0 0 0 0 0 0 0 0 0 0 0 0 0 0 0 0 0 0 0 0 0 0 0 0 0 0 0 0 0 0 0 0 0 0 0 0 0 0 0 0 0 0 0 0 0 0 0 0 0 0 0 0 0 0 0 0 0 0 0 0 0 0 0 0 0 0 0 0 0 0 0 0 0 0 0 0 0 0 0 0 0 0 0 0 0 0 0 0 0 0 0 0 0 0 0 0 0 0 0 0 0 0 0 0 0 0 0 0 0 0 0 0 0 0 0 0 0 0 0 0 0 0 0 0 0 0 0 0 0 0 0 0 0 0 0 0 0 0 0 0 0 0 0 0 0 0 0 0 0 0 0 0 0 0 0 0 0 0 0 0 0 0 0 0 0 0 0 0 0 0 0 0 0 0 0 0 0 0 0 0 0 0 0 0 0 0 0 0 0 0 0 0 0 0 0 0 0 0 0 0 0 0 0 0 0 0 0 0 0 0 0 0 0 0 0 0 0 0 0 0 0 0 0 0 0 0 0 0 0 0 0 0 0 0 0 0 0 0 0 0 0 0 0 0 0 0 0 0 0 0 0 0 0 0 0 0
0 0 0 0 0 0 0 0 0 0 0 0 0 0 0 0 0 0 0 0 0 0 0 0 0 0 0 0 0 0 0 0 0 0 0 0 0 0 0 0 0 0 0 0 0 0 0 0 0 0 0 0 0 0 0 0 0 0 0 0 0 0 0 0 0 0 0 0 0 0 0 0 0 0 0 0 0 0 0 0 0 0 0 0 0 0 0 0 0 0 0 0 0 0 0 0 0 0 0 0 0 0 0 0 0 0 0 0 0 0 0 0 0 0 0 0 0 0 0 0 0 0 0 0 0 0 0 0 0 0 0 0 0 0 0 0 0 0 0 0 0 0 0 0 0 0 0 0 0 0 0 0 0 0 0 0 0 0 0 0 0 0 0 0 0 0 0 0 0 0 0 0 0 0 0 0 0 0 0 0 0 0 0 0 0 0 0 0 0 0 0 0 0 0 0 0 0 0 0 0 0 0 0 0 0 0 0 0 0 0 0 0 0 0 0 0 0 0 0 0 0 0 0 0 0 0 0 0 0 0 0 0 0 0 0 0 0 0 0 0 0 0 0 0 0 0 0 0 0 0 0 0 0 0 0 0 0 0 0 0 0 0 0 0 1 1 1 2 2 2 0 0 0 93 96 104 245 246 246 254 254 254 251 251 251 254 254 254 254 254 254 254 254 254 254 254 254 254 254 254 254 254 254 254 254 254 254 254 254 254 254 254 254 254 254 254 254 254 254 254 254 254 254 254 254 254 254 254 254 254 254 254 254 254 254 254 254 254 254 254 254 254 254 254 254 254 254 254 252 252 252 221 227 232 212 220 228 213 221 228 213 221 228 213 221 228 213 221 228 213 221 228 213 221 228 213 221 228 213 221 228 213 221 228 213 221 228 213 221 228 213 221 228 213 221 228 213 221 228 213 221 228 213 221 228 213 221 228 213 221 228 213 221 228 211 219 226 212 220 227 213 221 228 93 96 104 0 0 0 1 1 1 1 1 1 0 0 0 0 0 0 0 0 0 0 0 0 0 0 0 0 0 0 0 0 0 0 0 0 0 0 0 0 0 0 0 0 0 0 0 0 0 0 0 0 0 0 0 0 0 0 0 0 0 0 0 0 0 0 0 0 0 0 0 0 0 0 0 0 0 0 0 0 0 0 0 0 0 0 0 0 0 0 0 0 0 0 0 0 0 0 0 0 0 0 0 0 0 0 0 0 0 0 0 0 0 0 0 0 0 0 0 0 0 0 0 0 0 0 0 0 0 0 0 0 0 0 0 0 0 0 0 0 0 0 0 0 0 0 0 0 0 0 0 0 0 0 0 0 0 0 0 0 0 0 0 0 0 0 0 0 0 0 0 0 0 0 0 0 0 0 0 0 0 0 0 0 0 0 0 0 0 0 0 0 0 0 0 0 0 0 0 0 0 0 0 0 0 0 0 0 0 0 0 0 0 0 0 0 0 0 0 0 0 0 0 0 0 0 0 0 0 0 0 0 0 0 0 0 0 0 0 0 0 0 0 0 0 0 0 0 0 0 0 0 0 0 0 0 0 0 0 0 0 0 0 0 0 0 0 0 0 0
0 0 0 0 0 0 0 0 0 0 0 0 0 0 0 0 0 0 0 0 0 0 0 0 0 0 0 0 0 0 0 0 0 0 0 0 0 0 0 0 0 0 0 0 0 0 0 0 0 0 0 0 0 0 0 0 0 0 0 0 0 0 0 0 0 0 0 0 0 0 0 0 0 0 0 0 0 0 0 0 0 0 0 0 0 0 0 0 0 0 0 0 0 0 0 0 0 0 0 0 0 0 0 0 0 0 0 0 0 0 0 0 0 0 0 0 0 0 0 0 0 0 0 0 0 0 0 0 0 0 0 0 0 0 0 0 0 0 0 0 0 0 0 0 0 0 0 0 0 0 0 0 0 0 0 0 0 0 0 0 0 0 0 0 0 0 0 0 0 0 0 0 0 0 0 0 0 0 0 0 0 0 0 0 0 0 0 0 0 0 0 0 0 0 0 0 0 0 0 0 0 0 0 0 0 0 0 0 0 0 0 0 0 0 0 0 0 0 0 0 0 0 0 0 0 0 0 0 0 0 0 0 0 0 0 0 0 0 0 0 0 0 0 0 0 0 0 0 0 0 0 0 0 0 0 0 0 0 0 0 0 1 1 1 3 3 3 0 0 0 93 96 104 251 251 251 255 255 255 251 251 251 254 254 254 254 254 254 254 254 254 254 254 254 254 254 254 254 254 254 254 254 254 254 254 254 254 254 254 254 254 254 254 254 254 254 254 254 254 254 254 254 254 254 254 254 254 254 254 254 254 254 254 254 254 254 254 254 254 254 254 254 254 254 254 254 254 254 253 253 253 226 233 238 211 220 227 213 221 228 213 221 228 213 221 228 213 221 228 213 221 228 213 221 228 213 221 228 213 221 228 213 221 228 213 221 228 213 221 228 213 221 228 213 221 228 213 221 228 213 221 228 213 221 228 213 221 228 213 221 228 213 221 228 213 221 228 211 219 225 216 224 231 214 222 229 93 96 104 0 0 0 2 3 3 0 0 0 0 0 0 0 0 0 0 0 0 0 0 0 0 0 0 0 0 0 0 0 0 0 0 0 0 0 0 0 0 0 0 0 0 0 0 0 0 0 0 0 0 0 0 0 0 0 0 0 0 0 0 0 0 0 0 0 0 0 0 0 0 0 0 0 0 0 0 0 0 0 0 0 0 0 0 0 0 0 0 0 0 0 0 0 0 0 0 0 0 0 0 0 0 0 0 0 0 0 0 0 0 0 0 0 0 0 0 0 0 0 0 0 0 0 0 0 0 0 0 0 0 0 0 0 0 0 0 0 0 0 0 0 0 0 0 0 0 0 0 0 0 0 0 0 0 0 0 0 0 0 0 0 0 0 0 0 0 0 0 0 0 0 0 0 0 0 0 0 0 0 0 0 0 0 0 0 0 0 0 0 0 0 0 0 0 0 0 0 0 0 0 0 0 0 0 0 0 0 0 0 0 0 0 0 0 0 0 0 0 0 0 0 0 0 0 0 0 0 0 0 0 0 0 0 0 0 0 0 0 0 0 0 0 0 0 0 0 0 0 0 0 0 0 0 0 0 0 0 0 0 0 0 0 0 0
0 0 0 0 0 0 0 0 0 0 0 0 0 0 0 0 0 0 0 0 0 0 0 0 0 0 0 0 0 0 0 0 0 0 0 0 0 0 0 0 0 0 0 0 0 0 0 0 0 0 0 0 0 0 0 0 0 0 0 0 0 0 0 0 0 0 0 0 0 0 0 0 0 0 0 0 0 0 0 0 0 0 0 0 0 0 0 0 0 0 0 0 0 0 0 0 0 0 0 0 0 0 0 0 0 0 0 0 0 0 0 0 0 0 0 0 0 0 0 0 0 0 0 0 0 0 0 0 0 0 0 0 0 0 0 0 0 0 0 0 0 0 0 0 0 0 0 0 0 0 0 0 0 0 0 0 0 0 0 0 0 0 0 0 0 0 0 0 0 0 0 0 0 0 0 0 0 0 0 0 0 0 0 0 0 0 0 0 0 0 0 0 0 0 0 0 0 0 0 0 0 0 0 0 0 0 0 0 0 0 0 0 0 0 0 0 0 0 0 0 0 0 0 0 0 0 0 0 0 0 0 0 0 0 0 0 0 0 0 0 0 0 0 0 0 0 0 0 0 0 0 0 0 0 0 0 0 0 1 1 1 2 2 2 0 0 0 93 96 104 249 250 250 254 254 254 252 252 252 254 254 254 254 254 254 254 254 254 254 254 254 254 254 254 254 254 254 254 254 254 254 254 254 254 254 254 254 254 254 254 254 254 254 254 254 254 254 254 254 254 254 254 254 254 254 254 254 254 254 254 254 254 254 254 254 254 254 254 254 254 254 254 254 254 254 254 254 254 253 253 253 226 230 232 212 220 227 213 221 228 213 221 228 213 221 228 213 221 228 213 221 228 213 221 228 213 221 228 213 221 228 213 221 228 213 221 228 213 221 228 213 221 228 213 221 228 213 221 228 213 221 228 213 221 228 213 221 228 213 221 228 213 221 228 213 221 228 213 221 228 211 219 225 213 221 228 214 222 229 93 96 104 0 0 0 2 2 2 1 1 1 0 0 0 0 0 0 0 0 0 0 0 0 0 0 0 0 0 0 0 0 0 0 0 0 0 0 0 0 0 0 0 0 0 0 0 0 0 0 0 0 0 0 0 0 0 0 0 0 0 0 0 0 0 0 0 0 0 0 0 0 0 0 0 0 0 0 0 0 0 0 0 0 0 0 0 0 0 0 0 0 0 0 0 0 0 0 0 0 0 0 0 0 0 0 0 0 0 0 0 0 0 0 0 0 0 0 0 0 0 0 0 0 0 0 0 0 0 0 0 0 0 0 0 0 0 0 0 0 0 0 0 0 0 0 0 0 0 0 0 0 0 0 0 0 0 0 0 0 0 0 0 0 0 0 0 0 0 0 0 0 0 0 0 0 0 0 0 0 0 0 0 0 0 0 0 0 0 0 0 0 0 0 0 0 0 0 0 0 0 0 0 0 0 0 0 0 0 0 0 0 0 0 0 0 0 0 0 0 0 0 0 0 0 0 0 0 0 0 0 0 0 0 0 0 0 0 0 0 0 0 0 0 0 0 0 0 0 0 0 0 0 0 0 0 0 0 0 0 0 0 0 0
0 0 0 0 0 0 0 0 0 0 0 0 0 0 0 0 0 0 0 0 0 0 0 0 0 0 0 0 0 0 0 0 0 0 0 0 0 0 0 0 0 0 0 0 0 0 0 0 0 0 0 0 0 0 0 0 0 0 0 0 0 0 0 0 0 0 0 0 0 0 0 0 0 0 0 0 0 0 0 0 0 0 0 0 0 0 0 0 0 0 0 0 0 0 0 0 0 0 0 0 0 0 0 0 0 0 0 0 0 0 0 0 0 0 0 0 0 0 0 0 0 0 0 0 0 0 0 0 0 0 0 0 0 0 0 0 0 0 0 0 0 0 0 0 0 0 0 0 0 0 0 0 0 0 0 0 0 0 0 0 0 0 0 0 0 0 0 0 0 0 0 0 0 0 0 0 0 0 0 0 0 0 0 0 0 0 0 0 0 0 0 0 0 0 0 0 0 0 0 0 0 0 0 0 0 0 0 0 0 0 0 0 0 0 0 0 0 0 0 0 0 0 0 0 0 0 0 0 0 0 0 0 0 0 0 0 0 0 0 0 0 0 0 0 0 0 0 0 0 0 0 0 0 0 0 0 0 0 3 3 3 0 0 0 93 96 104 251 251 251 255 255 255 251 251 251 254 254 254 254 254 254 254 254 254 254 254 254 254 254 254 254 254 254 254 254 254 254 254 254 254 254 254 254 254 254 254 254 254 254 254 254 254 254 254 254 254 254 254 254 254 254 254 254 254 254 254 254 254 254 254 254 254 254 254 254 254 254 254 254 254 254 254 254 254 254 254 254 253 253 253 226 233 238 212 220 227 213 221 228 213 221 228 213 221 228 213 221 228 213 221 228 213 221 228 213 221 228 213 221 228 213 221 228 213 221 228 213 221 228 213 221 228 213 221 228 213 221 228 213 221 228 213 221 228 213 221 228 213 221 228 213 221 228 213 221 228 213 221 228 213 221 228 211 219 226 214 222 229 214 222 229 80 84 89 0 0 0 3 3 3 0 0 0 0 0 0 0 0 0 0 0 0 0 0 0 0 0 0 0 0 0 0 0 0 0 0 0 0 0 0 0 0 0 0 0 0 0 0 0 0 0 0 0 0 0 0 0 0 0 0 0 0 0 0 0 0 0 0 0 0 0 0 0 0 0 0 0 0 0 0 0 0 0 0 0 0 0 0 0 0 0 0 0 0 0 0 0 0 0 0 0 0 0 0 0 0 0 0 0 0 0 0 0 0 0 0 0 0 0 0 0 0 0 0 0 0 0 0 0 0 0 0 0 0 0 0 0 0 0 0 0 0 0 0 0 0 0 0 0 0 0 0 0 0 0 0 0 0 0 0 0 0 0 0 0 0 0 0 0 0 0 0 0 0 0 0 0 0 0 0 0 0 0 0 0 0 0 0 0 0 0 0 0 0 0 0 0 0 0 0 0 0 0 0 0 0 0 0 0 0 0 0 0 0 0 0 0 0 0 0 0 0 0 0 0 0 0 0 0 0 0 0 0 0 0 0 0 0 0 0 0 0 0 0 0 0 0 0 0 0 0 0 0 0 0 0 0 0 0 0 0 0
0 0 0 0 0 0 0 0 0 0 0 0 0 0 0 0 0 0 0 0 0 0 0 0 0 0 0 0 0 0 0 0 0 0 0 0 0 0 0 0 0 0 0 0 0 0 0 0 0 0 0 0 0 0 0 0 0 0 0 0 0 0 0 0 0 0 0 0 0 0 0 0 0 0 0 0 0 0 0 0 0 0 0 0 0 0 0 0 0 0 0 0 0 0 0 0 0 0 0 0 0 0 0 0 0 0 0 0 0 0 0 0 0 0 0 0 0 0 0 0 0 0 0 0 0 0 0 0 0 0 0 0 0 0 0 0 0 0 0 0 0 0 0 0 0 0 0 0 0 0 0 0 0 0 0 0 0 0 0 0 0 0 0 0 0 0 0 0 0 0 0 0 0 0 0 0 0 0 0 0 0 0 0 0 0 0 0 0 0 0 0 0 0 0 0 0 0 0 0 0 0 0 0 0 0 0 0 0 0 0 0 0 0 0 0 0 0 0 0 0 0 0 0 0 0 0 0 0 0 0 0 0 0 0 0 0 0 0 0 0 0 0 0 0 0 0 0 0 0 0 0 0 1 1 1 2 2 2 0 0 0 93 96 104 249 250 250 255 255 255 252 252 252 254 254 254 254 254 254 254 254 254 254 254 254 254 254 254 254 254 254 254 254 254 254 254 254 254 254 254 254 254 254 254 254 254 254 254 254 254 254 254 254 254 254 254 254 254 254 254 254 254 254 254 254 254 254 254 254 254 254 254 254 254 254 254 254 254 254 254 254 254 254 254 254 254 254 254 253 253 253 226 233 238 212 220 228 213 221 228 213 221 228 213 221 228 213 221 228 213 221 228 213 221 228 213 221 228 213 221 228 213 221 228 213 221 228 213 221 228 213 221 228 213 221 228 213 221 228 213 221 228 213 221 228 213 221 228 213 221 228 213 221 228 213 221 228 213 221 228 213 221 228 213 221 228 210 218 225 216 224 231 208 215 222 63 66 68 0 0 0 2 2 2 0 0 0 0 0 0 0 0 0 0 0 0 0 0 0 0 0 0 0 0 0 0 0 0 0 0 0 0 0 0 0 0 0 0 0 0 0 0 0 0 0 0 0 0 0 0 0 0 0 0 0 0 0 0 0 0 0 0 0 0 0 0 0 0 0 0 0 0 0 0 0 0 0 0 0 0 0 0 0 0 0 0 0 0 0 0 0 0 0 0 0 0 0 0 0 0 0 0 0 0 0 0 0 0 0 0 0 0 0 0 0 0 0 0 0 0 0 0 0 0 0 0 0 0 0 0 0 0 0 0 0 0 0 0 0 0 0 0 0 0 0 0 0 0 0 0 0 0 0 0 0 0 0 0 0 0 0 0 0 0 0 0 0 0 0 0 0 0 0 0 0 0 0 0 0 0 0 0 0 0 0 0 0 0 0 0 0 0 0 0 0 0 0 0 0 0 0 0 0 0 0 0 0 0 0 0 0 0 0 0 0 0 0 0 0 0 0 0 0 0 0 0 0 0 0 0 0 0 0 0 0 0 0 0 0 0 0 0 0 0 0 0 0 0 0 0 0 0 0
0 0 0 0 0 0 0 0 0 0 0 0 0 0 0 0 0 0 0 0 0 0 0 0 0 0 0 0 0 0 0 0 0 0 0 0 0 0 0 0 0 0 0 0 0 0 0 0 0 0 0 0 0 0 0 0 0 0 0 0 0 0 0 0 0 0 0 0 0 0 0 0 0 0 0 0 0 0 0 0 0 0 0 0 0 0 0 0 0 0 0 0 0 0 0 0 0 0 0 0 0 0 0 0 0 0 0 0 0 0 0 0 0 0 0 0 0 0 0 0 0 0 0 0 0 0 0 0 0 0 0 0 0 0 0 0 0 0 0 0 0 0 0 0 0 0 0 0 0 0 0 0 0 0 0 0 0 0 0 0 0 0 0 0 0 0 0 0 0 0 0 0 0 0 0 0 0 0 0 0 0 0 0 0 0 0 0 0 0 0 0 0 0 0 0 0 0 0 0 0 0 0 0 0 0 0 0 0 0 0 0 0 0 0 0 0 0 0 0 0 0 0 0 0 0 0 0 0 0 0 0 0 0 0 0 0 0 0 0 0 0 0 0 0 0 0 0 0 0 0 0 0 2 2 2 0 0 0 93 96 104 249 250 250 254 254 254 251 251 251 254 254 254 254 254 254 254 254 254 254 254 254 254 254 254 254 254 254 254 254 254 254 254 254 254 254 254 254 254 254 254 254 254 254 254 254 254 254 254 254 254 254 254 254 254 254 254 254 254 254 254 254 254 254 254 254 254 254 254 254 254 254 254 254 254 254 254 254 254 254 254 254 254 254 254 254 254 254 252 252 252 226 230 232 212 220 227 213 221 228 213 221 228 213 221 228 213 221 228 213 221 228 213 221 228 213 221 228 213 221 228 213 221 228 213 221 228 213 221 228 213 221 228 213 221 228 213 221 228 213 221 228 213 221 228 213 221 228 213 221 228 213 221 228 213 221 228 213 221 228 213 221 228 213 221 228 213 221 228 210 218 225 216 224 231 208 215 222 63 66 68 0 0 0 3 3 4 0 0 0 0 0 0 0 0 0 0 0 0 0 0 0 0 0 0 0 0 0 0 0 0 0 0 0 0 0 0 0 0 0 0 0 0 0 0 0 0 0 0 0 0 0 0 0 0 0 0 0 0 0 0 0 0 0 0 0 0 0 0 0 0 0 0 0 0 0 0 0 0 0 0 0 0 0 0 0 0 0 0 0 0 0 0 0 0 0 0 0 0 0 0 0 0 0 0 0 0 0 0 0 0 0 0 0 0 0 0 0 0 0 0 0 0 0 0 0 0 0 0 0 0 0 0 0 0 0 0 0 0 0 0 0 0 0 0 0 0 0 0 0 0 0 0 0 0 0 0 0 0 0 0 0 0 0 0 0 0 0 0 0 0 0 0 0 0 0 0 0 0 0 0 0 0 0 0 0 0 0 0 0 0 0 0 0 0 0 0 0 0 0 0 0 0 0 0 0 0 0 0 0 0 0 0 0 0 0 0 0 0 0 0 0 0 0 0 0 0 0 0 0 0 0 0 0 0 0 0 0 0 0 0 0 0 0 0 0 0 0 0 0 0 0 0
0 0 0 0 0 0 0 0 0 0 0 0 0 0 0 0 0 0 0 0 0 0 0 0 0 0 0 0 0 0 0 0 0 0 0 0 0 0 0 0 0 0 0 0 0 0 0 0 0 0 0 0 0 0 0 0 0 0 0 0 0 0 0 0 0 0 0 0 0 0 0 0 0 0 0 0 0 0 0 0 0 0 0 0 0 0 0 0 0 0 0 0 0 0 0 0 0 0 0 0 0 0 0 0 0 0 0 0 0 0 0 0 0 0 0 0 0 0 0 0 0 0 0 0 0 0 0 0 0 0 0 0 0 0 0 0 0 0 0 0 0 0 0 0 0 0 0 0 0 0 0 0 0 0 0 0 0 0 0 0 0 0 0 0 0 0 0 0 0 0 0 0 0 0 0 0 0 0 0 0 0 0 0 0 0 0 0 0 0 0 0 0 0 0 0 0 0 0 0 0 0 0 0 0 0 0 0 0 0 0 0 0 0 0 0 0 0 0 0 0 0 0 0 0 0 0 0 0 0 0 0 0 0 0 0 0 0 0 0 0 0 0 0 0 0 0 1 1 1 2 2 2 0 0 0 97 104 112 249 250 250 255 255 255 252 252 252 254 254 254 254 254 254 254 254 254 254 254 254 254 254 254 254 254 254 254 254 254 254 254 254 254 254 254 254 254 254 254 254 254 254 254 254 254 254 254 254 254 254 254 254 254 254 254 254 254 254 254 254 254 254 254 254 254 254 254 254 254 254 254 254 254 254 254 254 254 254 254 254 254 254 254 254 254 254 254 254 254 252 252 252 226 230 232 212 221 228 213 221 228 213 221 228 213 221 228 213 221 228 213 221 228 213 221 228 213 221 228 213 221 228 213 221 228 213 221 228 213 221 228 213 221 228 213 221 228 213 221 228 213 221 228 213 221 228 213 221 228 213 221 228 213 221 228 213 221 228 213 221 228 213 221 228 213 221 228 213 221 228 213 221 228 210 218 225 216 224 231 208 215 222 63 66 68 0 0 0 3 3 3 0 0 0 0 0 0 0 0 0 0 0 0 0 0 0 0 0 0 0 0 0 0 0 0 0 0 0 0 0 0 0 0 0 0 0 0 0 0 0 0 0 0 0 0 0 0 0 0 0 0 0 0 0 0 0 0 0 0 0 0 0 0 0 0 0 0 0 0 0 0 0 0 0 0 0 0 0 0 0 0 0 0 0 0 0 0 0 0 0 0 0 0 0 0 0 0 0 0 0 0 0 0 0 0 0 0 0 0 0 0 0 0 0 0 0 0 0 0 0 0 0 0 0 0 0 0 0 0 0 0 0 0 0 0 0 0 0 0 0 0 0 0 0 0 0 0 0 0 0 0 0 0 0 0 0 0 0 0 0 0 0 0 0 0 0 0 0 0 0 0 0 0 0 0 0 0 0 0 0 0 0 0 0 0 0 0 0 0 0 0 0 0 0 0 0 0 0 0 0 0 0 0 0 0 0 0 0 0 0 0 0 0 0 0 0 0 0 0 0 0 0 0 0 0 0 0 0 0 0 0 0 0 0 0 0 0 0 0 0 0 0 0 0
0 0 0 0 0 0 0 0 0 0 0 0 0 0 0 0 0 0 0 0 0 0 0 0 0 0 0 0 0 0 0 0 0 0 0 0 0 0 0 0 0 0 0 0 0 0 0 0 0 0 0 0 0 0 0 0 0 0 0 0 0 0 0 0 0 0 0 0 0 0 0 0 0 0 0 0 0 0 0 0 0 0 0 0 0 0 0 0 0 0 0 0 0 0 0 0 0 0 0 0 0 0 0 0 0 0 0 0 0 0 0 0 0 0 0 0 0 0 0 0 0 0 0 0 0 0 0 0 0 0 0 0 0 0 0 0 0 0 0 0 0 0 0 0 0 0 0 0 0 0 0 0 0 0 0 0 0 0 0 0 0 0 0 0 0 0 0 0 0 0 0 0 0 0 0 0 0 0 0 0 0 0 0 0 0 0 0 0 0 0 0 0 0 0 0 0 0 0 0 0 0 0 0 0 0 0 0 0 0 0 0 0 0 0 0 0 0 0 0 0 0 0 0 0 0 0 0 0 0 0 0 0 0 0 0 0 0 0 0 0 0 0 0 0 0 0 2 2 2 0 0 0 97 104 112 249 250 250 254 254 254 251 251 251 254 254 254 254 254 254 254 254 254 254 254 254 254 254 254 254 254 254 254 254 254 254 254 254 254 254 254 254 254 254 254 254 254 254 254 254 254 254 254 254 254 254 254 254 254 254 254 254 254 254 254 254 254 254 254 254 254 254 254 254 254 254 254 254 254 254 254 254 254 254 254 254 254 254 254 254 254 254 254 254 254 254 254 255 252 252 252 226 230 232 212 220 228 213 221 228 213 221 228 213 221 228 213 221 228 213 221 228 213 221 228 213 221 228 213 221 228 213 221 228 213 221 228 213 221 228 213 221 228 213 221 228 213 221 228 213 221 228 213 221 228 213 221 228 213 221 228 213 221 228 213 221 228 213 221 228 213 221 228 213 221 228 213 221 228 213 221 228 213 221 228 210 218 225 216 224 231 211 216 222 63 66 68 0 0 0 4 4 4 0 0 0 0 0 0 0 0 0 0 0 0 0 0 0 0 0 0 0 0 0 0 0 0 0 0 0 0 0 0 0 0 0 0 0 0 0 0 0 0 0 0 0 0 0 0 0 0 0 0 0 0 0 0 0 0 0 0 0 0 0 0 0 0 0 0 0 0 0 0 0 0 0 0 0 0 0 0 0 0 0 0 0 0 0 0 0 0 0 0 0 0 0 0 0 0 0 0 0 0 0 0 0 0 0 0 0 0 0 0 0 0 0 0 0 0 0 0 0 0 0 0 0 0 0 0 0 0 0 0 0 0 0 0 0 0 0 0 0 0 0 0 0 0 0 0 0 0 0 0 0 0 0 0 0 0 0 0 0 0 0 0 0 0 0 0 0 0 0 0 0 0 0 0 0 0 0 0 0 0 0 0 0 0 0 0 0 0 0 0 0 0 0 0 0 0 0 0 0 0 0 0 0 0 0 0 0 0 0 0 0 0 0 0 0 0 0 0 0 0 0 0 0 0 0 0 0 0 0 0 0 0 0 0 0 0 0 0 0 0
0 0 0 0 0 0 0 0 0 0 0 0 0 0 0 0 0 0 0 0 0 0 0 0 0 0 0 0 0 0 0 0 0 0 0 0 0 0 0 0 0 0 0 0 0 0 0 0 0 0 0 0 0 0 0 0 0 0 0 0 0 0 0 0 0 0 0 0 0 0 0 0 0 0 0 0 0 0 0 0 0 0 0 0 0 0 0 0 0 0 0 0 0 0 0 0 0 0 0 0 0 0 0 0 0 0 0 0 0 0 0 0 0 0 0 0 0 0 0 0 0 0 0 0 0 0 0 0 0 0 0 0 0 0 0 0 0 0 0 0 0 0 0 0 0 0 0 0 0 0 0 0 0 0 0 0 0 0 0 0 0 0 0 0 0 0 0 0 0 0 0 0 0 0 0 0 0 0 0 0 0 0 0 0 0 0 0 0 0 0 0 0 0 0 0 0 0 0 0 0 0 0 0 0 0 0 0 0 0 0 0 0 0 0 0 0 0 0 0 0 0 0 0 0 0 0 0 0 0 0 0 0 0 0 0 0 0 0 0 0 1 1 1 3 3 3 0 0 0 97 104 112 249 250 250 255 255 255 252 252 252 254 254 254 254 254 254 254 254 254 254 254 254 254 254 254 254 254 254 254 254 254 254 254 254 254 254 254 254 254 254 254 254 254 254 254 254 254 254 254 254 254 254 254 254 254 254 254 254 254 254 254 254 254 254 254 254 254 254 254 254 254 254 254 254 254 254 254 254 254 254 254 254 254 254 254 254 254 254 254 254 254 254 254 254 254 254 254 251 251 251 226 230 232 211 220 227 213 221 228 213 221 228 213 221 228 213 221 228 213 221 228 213 221 228 213 221 228 213 221 228 213 221 228 213 221 228 213 221 228 213 221 228 213 221 228 213 221 228 213 221 228 213 221 228 213 221 228 213 221 228 213 221 228 213 221 228 213 221 228 213 221 228 213 221 228 213 221 228 213 221 228 213 221 228 213 221 228 210 218 225 219 227 234 200 207 213 34 52 45 0 0 0 2 2 2 0 0 0 0 0 0 0 0 0 0 0 0 0 0 0 0 0 0 0 0 0 0 0 0 0 0 0 0 0 0 0 0 0 0 0 0 0 0 0 0 0 0 0 0 0 0 0 0 0 0 0 0 0 0 0 0 0 0 0 0 0 0 0 0 0 0 0 0 0 0 0 0 0 0 0 0 0 0 0 0 0 0 0 0 0 0 0 0 0 0 0 0 0 0 0 0 0 0 0 0 0 0 0 0 0 0 0 0 0 0 0 0 0 0 0 0 0 0 0 0 0 0 0 0 0 0 0 0 0 0 0 0 0 0 0 0 0 0 0 0 0 0 0 0 0 0 0 0 0 0 0 0 0 0 0 0 0 0 0 0 0 0 0 0 0 0 0 0 0 0 0 0 0 0 0 0 0 0 0 0 0 0 0 0 0 0 0 0 0 0 0 0 0 0 0 0 0 0 0 0 0 0 0 0 0 0 0 0 0 0 0 0 0 0 0 0 0 0 0 0 0 0 0 0 0 0 0 0 0 0 0 0 0 0 0 0 0
0 0 0 0 0 0 0 0 0 0 0 0 0 0 0 0 0 0 0 0 0 0 0 0 0 0 0 0 0 0 0 0 0 0 0 0 0 0 0 0 0 0 0 0 0 0 0 0 0 0 0 0 0 0 0 0 0 0 0 0 0 0 0 0 0 0 0 0 0 0 0 0 0 0 0 0 0 0 0 0 0 0 0 0 0 0 0 0 0 0 0 0 0 0 0 0 0 0 0 0 0 0 0 0 0 0 0 0 0 0 0 0 0 0 0 0 0 0 0 0 0 0 0 0 0 0 0 0 0 0 0 0 0 0 0 0 0 0 0 0 0 0 0 0 0 0 0 0 0 0 0 0 0 0 0 0 0 0 0 0 0 0 0 0 0 0 0 0 0 0 0 0 0 0 0 0 0 0 0 0 0 0 0 0 0 0 0 0 0 0 0 0 0 0 0 0 0 0 0 0 0 0 0 0 0 0 0 0 0 0 0 0 0 0 0 0 0 0 0 0 0 0 0 0 0 0 0 0 0 0 0 0 0 0 0 0 0 1 1 1 1 1 1 0 0 0 97 104 112 245 246 246 254 254 254 251 251 251 254 254 254 254 254 254 254 254 254 254 254 254 254 254 254 254 254 254 254 254 254 254 254 254 254 254 254 254 254 254 254 254 254 254 254 254 254 254 254 254 254 254 254 254 254 254 254 254 254 254 254 254 254 254 254 254 254 254 254 254 254 254 254 254 254 254 254 254 254 254 254 254 254 254 254 254 254 254 254 254 254 253 253 253 253 253 253 254 254 254 251 251 251 233 234 235 214 222 229 211 219 226 213 221 228 213 221 228 213 221 228 213 221 228 213 221 228 213 221 228 213 221 228 213 221 228 213 221 228 213 221 228 213 221 228 213 221 228 213 221 228 213 221 228 213 221 228 213 221 228 213 221 228 213 221 228 213 221 228 213 221 228 213 221 228 213 221 228 213 221 228 213 221 228 213 221 228 213 221 228 213 221 228 210 218 225 219 227 234 196 201 206 34 52 45 0 0 0 3 3 3 0 0 0 0 0 0 0 0 0 0 0 0 0 0 0 0 0 0 0 0 0 0 0 0 0 0 0 0 0 0 0 0 0 0 0 0 0 0 0 0 0 0 0 0 0 0 0 0 0 0 0 0 0 0 0 0 0 0 0 0 0 0 0 0 0 0 0 0 0 0 0 0 0 0 0 0 0 0 0 0 0 0 0 0 0 0 0 0 0 0 0 0 0 0 0 0 0 0 0 0 0 0 0 0 0 0 0 0 0 0 0 0 0 0 0 0 0 0 0 0 0 0 0 0 0 0 0 0 0 0 0 0 0 0 0 0 0 0 0 0 0 0 0 0 0 0 0 0 0 0 0 0 0 0 0 0 0 0 0 0 0 0 0 0 0 0 0 0 0 0 0 0 0 0 0 0 0 0 0 0 0 0 0 0 0 0 0 0 0 0 0 0 0 0 0 0 0 0 0 0 0 0 0 0 0 0 0 0 0 0 0 0 0 0 0 0 0 0 0 0 0 0 0 0 0 0 0 0 0 0 0 0 0 0
0 0 0 0 0 0 0 0 0 0 0 0 0 0 0 0 0 0 0 0 0 0 0 0 0 0 0 0 0 0 0 0 0 0 0 0 0 0 0 0 0 0 0 0 0 0 0 0 0 0 0 0 0 0 0 0 0 0 0 0 0 0 0 0 0 0 0 0 0 0 0 0 0 0 0 0 0 0 0 0 0 0 0 0 0 0 0 0 0 0 0 0 0 0 0 0 0 0 0 0 0 0 0 0 0 0 0 0 0 0 0 0 0 0 0 0 0 0 0 0 0 0 0 0 0 0 0 0 0 0 0 0 0 0 0 0 0 0 0 0 0 0 0 0 0 0 0 0 0 0 0 0 0 0 0 0 0 0 0 0 0 0 0 0 0 0 0 0 0 0 0 0 0 0 0 0 0 0 0 0 0 0 0 0 0 0 0 0 0 0 0 0 0 0 0 0 0 0 0 0 0 0 0 0 0 0 0 0 0 0 0 0 0 0 0 0 0 0 0 0 0 0 0 0 0 0 0 0 0 0 0 0 0 0 1 1 1 3 3 3 0 0 0 97 104 112 249 250 250 255 255 255 251 251 251 254 254 254 254 254 254 254 254 254 254 254 254 254 254 254 254 254 254 254 254 254 254 254 254 254 254 254 254 254 254 254 254 254 254 254 254 254 254 254 254 254 254 254 254 254 254 254 254 254 254 254 254 254 254 254 254 254 254 254 254 254 254 254 254 254 254 254 254 254 254 254 254 254 254 254 254 254 254 253 253 254 253 253 254 255 255 255 255 255 255 255 255 255 245 246 246 211 216 222 208 215 222 220 228 235 214 222 229 212 220 227 213 221 228 213 221 228 213 221 228 213 221 228 213 221 228 213 221 228 213 221 228 213 221 228 213 221 228 213 221 228 213 221 228 213 221 228 213 221 228 213 221 228 213 221 228 213 221 228 213 221 228 213 221 228 213 221 228 213 221 228 213 221 228 213 221 228 213 221 228 213 221 228 213 221 228 213 221 228 210 218 225 220 228 235 196 201 206 34 52 45 0 0 0 3 3 3 0 0 0 0 0 0 0 0 0 0 0 0 0 0 0 0 0 0 0 0 0 0 0 0 0 0 0 0 0 0 0 0 0 0 0 0 0 0 0 0 0 0 0 0 0 0 0 0 0 0 0 0 0 0 0 0 0 0 0 0 0 0 0 0 0 0 0 0 0 0 0 0 0 0 0 0 0 0 0 0 0 0 0 0 0 0 0 0 0 0 0 0 0 0 0 0 0 0 0 0 0 0 0 0 0 0 0 0 0 0 0 0 0 0 0 0 0 0 0 0 0 0 0 0 0 0 0 0 0 0 0 0 0 0 0 0 0 0 0 0 0 0 0 0 0 0 0 0 0 0 0 0 0 0 0 0 0 0 0 0 0 0 0 0 0 0 0 0 0 0 0 0 0 0 0 0 0 0 0 0 0 0 0 0 0 0 0 0 0 0 0 0 0 0 0 0 0 0 0 0 0 0 0 0 0 0 0 0 0 0 0 0 0 0 0 0 0 0 0 0 0 0 0 0 0 0 0 0 0 0 0
0 0 0 0 0 0 0 0 0 0 0 0 0 0 0 0 0 0 0 0 0 0 0 0 0 0 0 0 0 0 0 0 0 0 0 0 0 0 0 0 0 0 0 0 0 0 0 0 0 0 0 0 0 0 0 0 0 0 0 0 0 0 0 0 0 0 0 0 0 0 0 0 0 0 0 0 0 0 0 0 0 0 0 0 0 0 0 0 0 0 0 0 0 0 0 0 0 0 0 0 0 0 0 0 0 0 0 0 0 0 0 0 0 0 0 0 0 0 0 0 0 0 0 0 0 0 0 0 0 0 0 0 0 0 0 0 0 0 0 0 0 0 0 0 0 0 0 0 0 0 0 0 0 0 0 0 0 0 0 0 0 0 0 0 0 0 0 0 0 0 0 0 0 0 0 0 0 0 0 0 0 0 0 0 0 0 0 0 0 0 0 0 0 0 0 0 0 0 0 0 0 0 0 0 0 0 0 0 0 0 0 0 0 0 0 0 0 0 0 0 0 0 0 0 0 0 0 0 0 0 0 1 1 1 2 2 2 0 0 0 97 104 112 245 246 246 254 254 254 251 251 251 254 254 254 254 254 254 254 254 254 254 254 254 254 254 254 254 254 254 254 254 254 254 254 254 254 254 254 254 254 254 254 254 254 254 254 254 254 254 254 254 254 254 254 254 254 254 254 254 254 254 254 254 254 254 254 254 254 254 254 254 254 254 254 254 254 254 254 254 254 254 254 254 254 254 254 254 254 254 253 253 253 255 255 255 255 255 255 233 234 235 205 209 213 189 194 199 176 183 190 125 137 150 107 120 134 153 164 176 208 215 222 219 227 234 212 220 228 212 220 227 213 221 228 213 221 228 213 221 228 213 221 228 213 221 228 213 221 228 213 221 228 213 221 228 213 221 228 213 221 228 213 221 228 213 221 228 213 221 228 213 221 228 213 221 228 213 221 228 213 221 228 213 221 228 213 221 228 213 221 228 213 221 228 213 221 228 213 221 228 213 221 228 213 221 228 210 218 225 221 229 236 176 183 190 21 29 25 0 0 0 2 2 2 0 0 0 0 0 0 0 0 0 0 0 0 0 0 0 0 0 0 0 0 0 0 0 0 0 0 0 0 0 0 0 0 0 0 0 0 0 0 0 0 0 0 0 0 0 0 0 0 0 0 0 0 0 0 0 0 0 0 0 0 0 0 0 0 0 0 0 0 0 0 0 0 0 0 0 0 0 0 0 0 0 0 0 0 0 0 0 0 0 0 0 0 0 0 0 0 0 0 0 0 0 0 0 0 0 0 0 0 0 0 0 0 0 0 0 0 0 0 0 0 0 0 0 0 0 0 0 0 0 0 0 0 0 0 0 0 0 0 0 0 0 0 0 0 0 0 0 0 0 0 0 0 0 0 0 0 0 0 0 0 0 0 0 0 0 0 0 0 0 0 0 0 0 0 0 0 0 0 0 0 0 0 0 0 0 0 0 0 0 0 0 0 0 0 0 0 0 0 0 0 0 0 0 0 0 0 0 0 0 0 0 0 0 0 0 0 0 0 0 0 0 0 0 0 0 0 0 0
0 0 0 0 0 0 0 0 0 0 0 0 0 0 0 0 0 0 0 0 0 0 0 0 0 0 0 0 0 0 0 0 0 0 0 0 0 0 0 0 0 0 0 0 0 0 0 0 0 0 0 0 0 0 0 0 0 0 0 0 0 0 0 0 0 0 0 0 0 0 0 0 0 0 0 0 0 0 0 0 0 0 0 0 0 0 0 0 0 0 0 0 0 0 0 0 0 0 0 0 0 0 0 0 0 0 0 0 0 0 0 0 0 0 0 0 0 0 0 0 0 0 0 0 0 0 0 0 0 0 0 0 0 0 0 0 0 0 0 0 0 0 0 0 0 0 0 0 0 0 0 0 0 0 0 0 0 0 0 0 0 0 0 0 0 0 0 0 0 0 0 0 0 0 0 0 0 0 0 0 0 0 0 0 0 0 0 0 0 0 0 0 0 0 0 0 0 0 0 0 0 0 0 0 0 0 0 0 0 0 0 0 0 0 0 0 0 0 0 0 0 0 0 0 0 0 0 0 1 1 1 3 3 3 0 0 0 97 104 112 249 250 250 255 255 255 251 251 251 254 254 254 254 254 254 254 254 254 254 254 254 254 254 254 254 254 254 254 254 254 254 254 254 254 254 254 254 254 254 254 254 254 254 254 254 254 254 254 254 254 254 254 254 254 254 254 254 254 254 254 254 254 254 254 254 254 254 254 254 254 254 254 254 254 254 254 254 254 254 254 254 254 254 254 254 254 254 253 253 254 255 255 255 245 246 246 196 201 206 159 168 179 148 159 172 147 158 171 145 156 168 102 116 129 79 95 110 83 96 111 102 116 129 159 168 179 216 224 231 214 222 229 212 220 227 213 221 228 213 221 228 213 221 228 213 221 228 213 221 228 213 221 228 213 221 228 213 221 228 213 221 228 213 221 228 213 221 228 213 221 228 213 221 228 213 221 228 213 221 228 213 221 228 213 221 228 213 221 228 213 221 228 213 221 228 213 221 228 213 221 228 213 221 228 213 221 228 213 221 228 210 218 225 221 229 236 166 176 187 21 29 25 0 0 0 2 2 2 0 0 0 0 0 0 0 0 0 0 0 0 0 0 0 0 0 0 0 0 0 0 0 0 0 0 0 0 0 0 0 0 0 0 0 0 0 0 0 0 0 0 0 0 0 0 0 0 0 0 0 0 0 0 0 0 0 0 0 0 0 0 0 0 0 0 0 0 0 0 0 0 0 0 0 0 0 0 0 0 0 0 0 0 0 0 0 0 0 0 0 0 0 0 0 0 0 0 0 0 0 0 0 0 0 0 0 0 0 0 0 0 0 0 0 0 0 0 0 0 0 0 0 0 0 0 0 0 0 0 0 0 0 0 0 0 0 0 0 0 0 0 0 0 0 0 0 0 0 0 0 0 0 0 0 0 0 0 0 0 0 0 0 0 0 0 0 0 0 0 0 0 0 0 0 0 0 0 0 0 0 0 0 0 0 0 0 0 0 0 0 0 0 0 0 0 0 0 0 0 0 0 0 0 0 0 0 0 0 0 0 0 0 0 0 0 0 0 0 0 0 0 0 0 0
0 0 0 0 0 0 0 0 0 0 0 0 0 0 0 0 0 0 0 0 0 0 0 0 0 0 0 0 0 0 0 0 0 0 0 0 0 0 0 0 0 0 0 0 0 0 0 0 0 0 0 0 0 0 0 0 0 0 0 0 0 0 0 0 0 0 0 0 0 0 0 0 0 0 0 0 0 0 0 0 0 0 0 0 0 0 0 0 0 0 0 0 0 0 0 0 0 0 0 0 0 0 0 0 0 0 0 0 0 0 0 0 0 0 0 0 0 0 0 0 0 0 0 0 0 0 0 0 0 0 0 0 0 0 0 0 0 0 0 0 0 0 0 0 0 0 0 0 0 0 0 0 0 0 0 0 0 0 0 0 0 0 0 0 0 0 0 0 0 0 0 0 0 0 0 0 0 0 0 0 0 0 0 0 0 0 0 0 0 0 0 0 0 0 0 0 0 0 0 0 0 0 0 0 0 0 0 0 0 0 0 0 0 0 0 0 0 0 0 0 0 0 0 0 0 1 1 1 2 2 2 0 0 0 97 104 112 245 246 246 254 254 254 252 252 252 254 254 254 254 254 254 254 254 254 254 254 254 254 254 254 254 254 254 254 254 254 254 254 254 254 254 254 254 254 254 254 254 254 254 254 254 254 254 254 254 254 254 254 254 254 254 254 254 254 254 254 254 254 254 254 254 254 254 254 254 254 254 254 254 254 254 254 254 254 254 254 254 254 254 254 254 254 254 253 253 254 255 255 255 226 230 232 166 176 187 146 157 170 150 162 175 152 163 176 153 164 177 150 160 172 102 116 129 84 100 115 88 103 118 83 98 113 78 92 108 136 147 158 216 224 231 213 221 228 212 220 227 213 221 228 213 221 228 213 221 228 213 221 228 213 221 228 213 221 228 213 221 228 213 221 228 213 221 228 213 221 228 213 221 228 213 221 228 213 221 228 213 221 228 213 221 228 213 221 228 213 221 228 213 221 228 213 221 228 213 221 228 213 221 228 213 221 228 213 221 228 213 221 228 213 221 228 210 218 225 222 230 237 166 176 187 13 18 16 0 0 0 1 2 2 0 0 0 0 0 0 0 0 0 0 0 0 0 0 0 0 0 0 0 0 0 0 0 0 0 0 0 0 0 0 0 0 0 0 0 0 0 0 0 0 0 0 0 0 0 0 0 0 0 0 0 0 0 0 0 0 0 0 0 0 0 0 0 0 0 0 0 0 0 0 0 0 0 0 0 0 0 0 0 0 0 0 0 0 0 0 0 0 0 0 0 0 0 0 0 0 0 0 0 0 0 0 0 0 0 0 0 0 0 0 0 0 0 0 0 0 0 0 0 0 0 0 0 0 0 0 0 0 0 0 0 0 0 0 0 0 0 0 0 0 0 0 0 0 0 0 0 0 0 0 0 0 0 0 0 0 0 0 0 0 0 0 0 0 0 0 0 0 0 0 0 0 0 0 0 0 0 0 0 0 0 0 0 0 0 0 0 0 0 0 0 0 0 0 0 0 0 0 0 0 0 0 0 0 0 0 0 0 0 0 0 0 0 0 0 0 0 0 0 0 0 0
0 0 0 0 0 0 0 0 0 0 0 0 0 0 0 0 0 0 0 0 0 0 0 0 0 0 0 0 0 0 0 0 0 0 0 0 0 0 0 0 0 0 0 0 0 0 0 0 0 0 0 0 0 0 0 0 0 0 0 0 0 0 0 0 0 0 0 0 0 0 0 0 0 0 0 0 0 0 0 0 0 0 0 0 0 0 0 0 0 0 0 0 0 0 0 0 0 0 0 0 0 0 0 0 0 0 0 0 0 0 0 0 0 0 0 0 0 0 0 0 0 0 0 0 0 0 0 0 0 0 0 0 0 0 0 0 0 0 0 0 0 0 0 0 0 0 0 0 0 0 0 0 0 0 0 0 0 0 0 0 0 0 0 0 0 0 0 0 0 0 0 0 0 0 0 0 0 0 0 0 0 0 0 0 0 0 0 0 0 0 0 0 0 0 0 0 0 0 0 0 0 0 0 0 0 0 0 0 0 0 0 0 0 0 0 0 0 0 0 0 0 0 1 1 1 2 2 2 0 0 0 97 104 112 249 250 250 255 255 255 251 251 251 254 254 254 254 254 254 254 254 254 254 254 254 254 254 254 254 254 254 254 254 254 254 254 254 254 254 254 254 254 254 254 254 254 254 254 254 254 254 254 254 254 254 254 254 254 254 254 254 254 254 254 254 254 254 254 254 254 254 254 254 254 254 254 254 254 254 254 254 254 254 254 254 254 254 254 254 254 254 253 253 253 255 255 255 214 220 226 154 165 177 148 159 172 152 163 176 151 162 175 151 162 175 152 163 176 150 160 172 99 113 127 84 99 114 87 102 116 87 102 117 88 103 118 78 92 108 129 141 153 216 224 231 214 222 229 212 220 227 213 221 228 213 221 228 213 221 228 213 221 228 213 221 228 213 221 228 213 221 228 213 221 228 213 221 228 213 221 228 213 221 228 213 221 228 213 221 228 213 221 228 213 221 228 213 221 228 213 221 228 213 221 228 213 221 228 213 221 228 213 221 228 213 221 228 213 221 228 213 221 228 213 221 228 210 218 225 222 230 237 141 151 164 9 10 10 0 0 0 1 1 1 0 0 0 0 0 0 0 0 0 0 0 0 0 0 0 0 0 0 0 0 0 0 0 0 0 0 0 0 0 0 0 0 0 0 0 0 0 0 0 0 0 0 0 0 0 0 0 0 0 0 0 0 0 0 0 0 0 0 0 0 0 0 0 0 0 0 0 0 0 0 0 0 0 0 0 0 0 0 0 0 0 0 0 0 0 0 0 0 0 0 0 0 0 0 0 0 0 0 0 0 0 0 0 0 0 0 0 0 0 0 0 0 0 0 0 0 0 0 0 0 0 0 0 0 0 0 0 0 0 0 0 0 0 0 0 0 0 0 0 0 0 0 0 0 0 0 0 0 0 0 0 0 0 0 0 0 0 0 0 0 0 0 0 0 0 0 0 0 0 0 0 0 0 0 0 0 0 0 0 0 0 0 0 0 0 0 0 0 0 0 0 0 0 0 0 0 0 0 0 0 0 0 0 0 0 0 0 0 0 0 0 0 0 0 0 0 0 0 0
0 0 0 0 0 0 0 0 0 0 0 0 0 0 0 0 0 0 0 0 0 0 0 0 0 0 0 0 0 0 0 0 0 0 0 0 0 0 0 0 0 0 0 0 0 0 0 0 0 0 0 0 0 0 0 0 0 0 0 0 0 0 0 0 0 0 0 0 0 0 0 0 0 0 0 0 0 0 0 0 0 0 0 0 0 0 0 0 0 0 0 0 0 0 0 0 0 0 0 0 0 0 0 0 0 0 0 0 0 0 0 0 0 0 0 0 0 0 0 0 0 0 0 0 0 0 0 0 0 2 2 2 2 2 2 2 2 2 2 2 2 2 3 3 2 2 2 0 0 0 0 0 0 0 0 0 0 0 0 0 0 0 0 0 0 0 0 0 0 0 0 0 0 0 0 0 0 0 0 0 0 0 0 0 0 0 0 0 0 0 0 0 0 0 0 0 0 0 0 0 0 0 0 0 0 0 0 0 0 0 0 0 0 0 0 0 0 0 0 1 1 1 2 2 2 0 0 0 97 104 112 249 250 250 255 255 255 252 252 252 254 254 254 254 254 254 254 254 254 254 254 254 254 254 254 254 254 254 254 254 254 254 254 254 254 254 254 254 254 254 254 254 254 254 254 254 254 254 254 254 254 254 254 254 254 254 254 254 254 254 254 254 254 254 254 254 254 254 254 254 254 254 254 254 254 254 254 254 254 254 254 254 254 254 254 254 254 254 253 253 253 255 255 255 205 209 213 150 160 172 150 161 174 152 163 176 151 162 175 151 162 175 151 162 175 151 162 176 148 159 172 102 116 129 83 98 114 87 102 117 86 101 116 86 101 116 88 103 118 78 92 108 129 141 153 216 224 231 215 221 228 212 220 227 213 221 228 213 221 228 213 221 228 213 221 228 213 221 228 213 221 228 213 221 228 213 221 228 213 221 228 213 221 228 213 221 228 213 221 228 213 221 228 213 221 228 213 221 228 213 221 228 213 221 228 213 221 228 213 221 228 213 221 228 213 221 228 213 221 228 213 221 228 213 221 228 212 220 227 210 218 225 222 230 237 136 147 158 9 10 10 1 1 1 1 1 1 0 0 0 0 0 0 0 0 0 0 0 0 0 0 0 0 0 0 0 0 0 0 0 0 0 0 0 0 0 0 0 0 0 0 0 0 0 0 0 0 0 0 0 0 0 0 0 0 0 0 0 0 0 0 0 0 0 0 0 0 0 0 0 0 0 0 0 0 0 0 0 0 0 0 0 0 0 0 0 0 0 0 0 0 0 0 0 0 0 0 0 0 0 0 0 0 0 0 0 0 0 0 0 0 0 0 0 0 0 0 0 0 0 0 0 0 0 0 0 0 0 0 0 0 0 0 0 0 0 0 0 0 0 0 0 0 0 0 0 0 0 0 0 0 0 0 0 0 0 0 0 0 0 0 0 0 0 0 0 0 0 0 0 0 0 0 0 0 0 0 0 0 0 0 0 0 0 0 0 0 0 0 0 0 0 0 0 0 0 0 0 0 0 0 0 0 0 0 0 0 0 0 0 0 0 0 0 0 0 0 0 0 0 0 0 0
0 0 0 0 0 0 0 0 0 0 0 0 0 0 0 0 0 0 0 0 0 0 0 0 0 0 0 0 0 0 0 0 0 0 0 0 0 0 0 0 0 0 0 0 0 0 0 0 0 0 0 0 0 0 0 0 0 0 0 0 0 0 0 0 0 0 0 0 0 0 0 0 0 0 0 0 0 0 0 0 0 0 0 0 0 0 0 0 0 0 0 0 0 0 0 0 0 0 0 0 0 0 0 0 0 0 0 0 0 0 0 0 0 0 0 0 0 0 0 0 0 0 0 1 1 1 3 3 3 0 0 0 0 0 0 0 0 0 0 0 0 0 0 0 0 0 0 2 2 2 1 1 1 0 0 0 0 0 0 0 0 0 0 0 0 0 0 0 0 0 0 0 0 0 0 0 0 0 0 0 0 0 0 0 0 0 0 0 0 0 0 0 0 0 0 0 0 0 0 0 0 0 0 0 0 0 0 0 0 0 0 0 0 0 0 0 1 1 1 0 0 0 0 0 0 105 112 119 249 250 250 255 255 255 251 251 251 254 254 254 254 254 254 254 254 254 254 254 254 254 254 254 254 254 254 254 254 254 254 254 254 254 254 254 254 254 254 254 254 254 254 254 254 254 254 254 254 254 254 254 254 254 254 254 254 254 254 254 254 254 254 254 254 254 254 254 254 254 254 254 254 254 254 254 254 254 254 254 254 254 254 254 254 254 254 253 253 253 255 255 255 196 201 206 146 157 170 151 162 175 152 163 175 151 162 175 151 162 175 151 162 175 151 162 175 151 162 176 148 159 172 102 116 129 83 98 114 87 102 117 86 101 116 86 101 116 86 101 116 88 103 118 78 92 108 129 141 153 216 224 231 214 222 229 212 220 227 213 221 228 213 221 228 213 221 228 213 221 228 213 221 228 213 221 228 213 221 228 213 221 228 213 221 228 213 221 228 213 221 228 213 221 228 213 221 228 213 221 228 213 221 228 213 221 228 213 221 228 213 221 228 213 221 228 213 221 228 213 221 228 213 221 228 213 221 228 213 221 228 213 221 228 210 218 225 226 233 238 133 142 152 0 0 0 0 0 0 1 1 1 0 0 0 0 0 0 0 0 0 0 0 0 0 0 0 0 0 0 0 0 0 0 0 0 0 0 0 0 0 0 0 0 0 0 0 0 0 0 0 0 0 0 0 0 0 0 0 0 0 0 0 0 0 0 0 0 0 0 0 0 0 0 0 0 0 0 0 0 0 0 0 0 0 0 0 0 0 0 0 0 0 0 0 0 0 0 0 0 0 0 0 0 0 0 0 0 0 0 0 0 0 0 0 0 0 0 0 0 0 0 0 0 0 0 0 0 0 0 0 0 0 0 0 0 0 0 0 0 0 0 0 0 0 0 0 0 0 0 0 0 0 0 0 0 0 0 0 0 0 0 0 0 0 0 0 0 0 0 0 0 0 0 0 0 0 0 0 0 0 0 0 0 0 0 0 0 0 0 0 0 0 0 0 0 0 0 0 0 0 0 0 0 0 0 0 0 0 0 0 0 0 0 0 0 0 0 0 0 0 0 0 0 0
0 0 0 0 0 0 0 0 0 0 0 0 0 0 0 0 0 0 0 0 0 0 0 0 0 0 0 0 0 0 0 0 0 0 0 0 0 0 0 0 0 0 0 0 0 0 0 0 0 0 0 0 0 0 0 0 0 0 0 0 0 0 0 0 0 0 0 0 0 0 0 0 0 0 0 0 0 0 0 0 0 0 0 0 0 0 0 0 0 0 0 0 0 0 0 0 0 0 0 0 0 0 0 0 0 0 0 0 0 0 0 0 0 0 0 0 0 0 0 0 3 3 3 0 0 0 0 0 0 13 18 16 80 84 89 105 112 119 80 84 89 63 66 68 21 29 25 0 0 0 0 0 0 2 2 2 0 0 0 0 0 0 0 0 0 0 0 0 0 0 0 0 0 0 0 0 0 0 0 0 0 0 0 0 0 0 0 0 0 0 0 0 0 0 0 0 0 0 0 0 0 0 0 0 0 0 0 0 0 0 0 0 0 2 2 2 2 2 2 0 0 0 127 134 141 255 255 255 255 255 255 252 252 252 254 254 254 254 254 254 254 254 254 254 254 254 254 254 254 254 254 254 254 254 254 254 254 254 254 254 254 254 254 254 254 254 254 254 254 254 254 254 254 254 254 254 254 254 254 254 254 254 254 254 254 254 254 254 254 254 254 254 254 254 254 254 254 254 254 254 254 254 254 254 254 254 254 254 254 254 254 254 253 253 253 255 255 255 208 215 222 144 154 166 151 162 175 152 162 175 151 162 175 151 162 175 151 162 175 151 162 175 151 162 175 152 163 176 148 159 172 102 116 129 83 99 114 87 102 117 86 101 116 86 101 116 86 101 116 86 101 116 88 103 118 78 92 108 129 141 153 218 226 233 213 221 228 212 220 227 213 221 228 213 221 228 213 221 228 213 221 228 213 221 228 213 221 228 213 221 228 213 221 228 213 221 228 213 221 228 213 221 228 213 221 228 213 221 228 213 221 228 213 221 228 213 221 228 213 221 228 213 221 228 213 221 228 213 221 228 213 221 228 213 221 228 213 221 228 213 221 228 211 219 226 211 219 226 220 228 235 112 122 133 0 0 0 2 2 2 1 1 1 0 0 0 0 0 0 0 0 0 0 0 0 0 0 0 0 0 0 0 0 0 0 0 0 0 0 0 0 0 0 0 0 0 0 0 0 0 0 0 0 0 0 0 0 0 0 0 0 0 0 0 0 0 0 0 0 0 0 0 0 0 0 0 0 0 0 0 0 0 0 0 0 0 0 0 0 0 0 0 0 0 0 0 0 0 0 0 0 0 0 0 0 0 0 0 0 0 0 0 0 0 0 0 0 0 0 0 0 0 0 0 0 0 0 0 0 0 0 0 0 0 0 0 0 0 0 0 0 0 0 0 0 0 0 0 0 0 0 0 0 0 0 0 0 0 0 0 0 0 0 0 0 0 0 0 0 0 0 0 0 0 0 0 0 0 0 0 0 0 0 0 0 0 0 0 0 0 0 0 0 0 0 0 0 0 0 0 0 0 0 0 0 0 0 0 0 0 0 0 0 0 0 0 0 0 0 0 0 0 0
0 0 0 0 0 0 0 0 0 0 0 0 0 0 0 0 0 0 0 0 0 0 0 0 0 0 0 0 0 0 0 0 0 0 0 0 0 0 0 0 0 0 0 0 0 0 0 0 0 0 0 0 0 0 0 0 0 0 0 0 0 0 0 0 0 0 0 0 0 0 0 0 0 0 0 0 0 0 0 0 0 0 0 0 0 0 0 0 0 0 0 0 0 0 0 0 0 0 0 0 0 0 0 0 0 0 0 0 0 0 0 0 0 0 0 0 0 3 3 3 0 0 0 9 10 10 105 112 119 205 209 213 251 251 251 249 250 250 216 224 231 210 218 225 176 183 190 105 112 119 21 29 25 0 0 0 2 2 2 0 0 0 0 0 0 0 0 0 0 0 0 0 0 0 0 0 0 0 0 0 0 0 0 0 0 0 0 0 0 0 0 0 0 0 0 0 0 0 0 0 0 0 0 0 0 0 0 0 0 0 1 1 1 0 0 0 0 0 0 127 134 141 255 255 255 251 251 251 251 251 251 254 254 254 254 254 254 254 254 254 254 254 254 254 254 254 254 254 254 254 254 254 254 254 254 254 254 254 254 254 254 254 254 254 254 254 254 254 254 254 254 254 254 254 254 254 254 254 254 254 254 254 254 254 254 254 254 254 254 254 254 254 254 254 254 254 254 254 254 254 254 254 254 254 254 254 254 254 254 253 253 253 255 255 255 208 215 222 145 156 168 150 161 175 152 163 176 151 162 175 151 162 175 151 162 175 151 162 175 151 162 175 151 162 175 152 163 176 148 159 172 102 116 129 83 99 114 87 102 117 86 101 116 86 101 116 86 101 116 86 101 116 86 101 116 88 103 118 78 92 108 133 142 152 219 227 234 213 221 228 212 220 227 213 221 228 213 221 228 213 221 228 213 221 228 213 221 228 213 221 228 213 221 228 213 221 228 213 221 228 213 221 228 213 221 228 213 221 228 213 221 228 213 221 228 213 221 228 213 221 228 213 221 228 213 221 228 213 221 228 213 221 228 213 221 228 213 221 228 213 221 228 213 221 228 211 219 226 211 219 226 222 230 237 112 122 133 0 0 0 2 2 2 0 0 0 0 0 0 0 0 0 0 0 0 0 0 0 0 0 0 0 0 0 0 0 0 0 0 0 0 0 0 0 0 0 0 0 0 0 0 0 0 0 0 0 0 0 0 0 0 0 0 0 0 0 0 0 0 0 0 0 0 0 0 0 0 0 0 0 0 0 0 0 0 0 0 0 0 0 0 0 0 0 0 0 0 0 0 0 0 0 0 0 0 0 0 0 0 0 0 0 0 0 0 0 0 0 0 0 0 0 0 0 0 0 0 0 0 0 0 0 0 0 0 0 0 0 0 0 0 0 0 0 0 0 0 0 0 0 0 0 0 0 0 0 0 0 0 0 0 0 0 0 0 0 0 0 0 0 0 0 0 0 0 0 0 0 0 0 0 0 0 0 0 0 0 0 0 0 0 0 0 0 0 0 0 0 0 0 0 0 0 0 0 0 0 0 0 0 0 0 0 0 0 0 0 0 0 0 0 0 0
0 0 0 0 0 0 0 0 0 0 0 0 0 0 0 0 0 0 0 0 0 0 0 0 0 0 0 0 0 0 0 0 0 0 0 0 0 0 0 0 0 0 0 0 0 0 0 0 0 0 0 0 0 0 0 0 0 0 0 0 0 0 0 0 0 0 0 0 0 0 0 0 0 0 0 0 0 0 0 0 0 0 0 0 0 0 0 0 0 0 0 0 0 0 0 0 0 0 0 0 0 0 0 0 0 0 0 0 0 0 0 1 1 1 3 3 3 0 0 0 63 66 68 196 201 206 255 255 255 255 255 255 255 255 255 237 238 239 213 221 227 214 222 229 219 227 234 222 230 237 176 183 190 63 66 68 0 0 0 2 2 2 1 1 1 0 0 0 0 0 0 0 0 0 0 0 0 0 0 0 0 0 0 0 0 0 0 0 0 0 0 0 0 0 0 0 0 0 0 0 0 0 0 0 0 0 0 1 1 1 2 2 2 1 1 1 127 134 141 255 255 255 252 252 252 254 254 254 254 254 254 254 254 254 254 254 254 254 254 254 254 254 254 254 254 254 254 254 254 254 254 254 254 254 254 254 254 254 254 254 254 254 254 254 254 254 254 254 254 254 254 254 254 254 254 254 254 254 254 254 254 254 254 254 254 254 254 254 254 254 254 254 254 254 254 254 254 254 254 254 254 254 254 253 253 254 253 253 253 255 255 255 205 209 213 145 156 168 151 162 175 152 163 175 151 162 175 151 162 175 151 162 175 151 162 175 151 162 175 151 162 175 151 162 175 151 162 176 150 160 172 102 116 129 83 99 114 87 102 117 86 101 116 86 101 116 86 101 116 86 101 116 86 101 116 86 101 116 88 103 118 78 92 108 136 147 158 218 226 233 213 221 228 212 220 227 213 221 228 213 221 228 213 221 228 213 221 228 213 221 228 213 221 228 213 221 228 213 221 228 213 221 228 213 221 228 213 221 228 213 221 228 213 221 228 213 221 228 213 221 228 213 221 228 213 221 228 213 221 228 213 221 228 213 221 228 213 221 228 213 221 228 213 221 228 213 221 228 212 220 227 210 218 225 226 233 238 105 112 119 0 0 0 4 4 4 1 1 1 0 0 0 0 0 0 0 0 0 0 0 0 0 0 0 0 0 0 0 0 0 0 0 0 0 0 0 0 0 0 0 0 0 0 0 0 0 0 0 0 0 0 0 0 0 0 0 0 0 0 0 0 0 0 0 0 0 0 0 0 0 0 0 0 0 0 0 0 0 0 0 0 0 0 0 0 0 0 0 0 0 0 0 0 0 0 0 0 0 0 0 0 0 0 0 0 0 0 0 0 0 0 0 0 0 0 0 0 0 0 0 0 0 0 0 0 0 0 0 0 0 0 0 0 0 0 0 0 0 0 0 0 0 0 0 0 0 0 0 0 0 0 0 0 0 0 0 0 0 0 0 0 0 0 0 0 0 0 0 0 0 0 0 0 0 0 0 0 0 0 0 0 0 0 0 0 0 0 0 0 0 0 0 0 0 0 0 0 0 0 0 0 0 0 0 0 0 0 0 0 0 0 0 0
0 0 0 0 0 0 0 0 0 0 0 0 0 0 0 0 0 0 0 0 0 0 0 0 0 0 0 0 0 0 0 0 0 0 0 0 0 0 0 0 0 0 0 0 0 0 0 0 0 0 0 0 0 0 0 0 0 0 0 0 0 0 0 0 0 0 0 0 0 0 0 0 0 0 0 0 0 0 0 0 0 0 0 0 0 0 0 0 0 0 0 0 0 0 0 0 0 0 0 0 0 0 0 0 0 0 0 0 1 1 1 1 1 1 0 0 0 105 112 119 245 246 246 255 255 255 251 251 251 249 250 250 254 254 254 237 238 239 212 220 226 211 219 226 210 218 225 210 218 225 219 227 234 214 222 229 97 104 112 0 0 0 0 0 1 0 0 0 0 0 0 0 0 0 0 0 0 0 0 0 0 0 0 0 0 0 0 0 0 0 0 0 0 0 0 0 0 0 0 0 0 0 0 0 1 1 1 1 1 1 0 0 0 127 134 141 255 255 255 251 251 251 252 252 252 254 254 254 254 254 254 254 254 254 254 254 254 254 254 254 254 254 254 254 254 254 254 254 254 254 254 254 254 254 254 254 254 254 254 254 254 254 254 254 254 254 254 254 254 254 254 254 254 254 254 254 254 254 254 254 254 254 254 254 254 254 254 254 254 254 254 254 254 254 254 254 254 254 254 254 254 254 254 253 253 253 255 255 255 205 209 213 145 156 168 150 161 174 152 163 176 151 162 175 151 162 175 151 162 175 151 162 175 151 162 175 151 162 175 151 162 175 151 162 175 151 162 176 148 159 172 102 116 129 83 98 114 87 102 117 86 101 116 86 101 116 86 101 116 86 101 116 86 101 116 86 101 116 86 101 116 88 102 117 78 92 108 136 147 158 218 226 233 213 221 228 212 220 227 213 221 228 213 221 228 213 221 228 213 221 228 213 221 228 213 221 228 213 221 228 213 221 228 213 221 228 213 221 228 213 221 228 213 221 228 213 221 228 213 221 228 213 221 228 213 221 228 213 221 228 213 221 228 213 221 228 213 221 228 213 221 228 213 221 228 213 221 228 213 221 228 211 219 226 211 219 226 216 224 231 93 96 104 0 0 0 2 2 2 0 0 0 0 0 0 0 0 0 0 0 0 0 0 0 0 0 0 0 0 0 0 0 0 0 0 0 0 0 0 0 0 0 0 0 0 0 0 0 0 0 0 0 0 0 0 0 0 0 0 0 0 0 0 0 0 0 0 0 0 0 0 0 0 0 0 0 0 0 0 0 0 0 0 0 0 0 0 0 0 0 0 0 0 0 0 0 0 0 0 0 0 0 0 0 0 0 0 0 0 0 0 0 0 0 0 0 0 0 0 0 0 0 0 0 0 0 0 0 0 0 0 0 0 0 0 0 0 0 0 0 0 0 0 0 0 0 0 0 0 0 0 0 0 0 0 0 0 0 0 0 0 0 0 0 0 0 0 0 0 0 0 0 0 0 0 0 0 0 0 0 0 0 0 0 0 0 0 0 0 0 0 0 0 0 0 0 0 0 0 0 0 0 0 0 0 0 0 0 0 0 0 0 0
0 0 0 0 0 0 0 0 0 0 0 0 0 0 0 0 0 0 0 0 0 0 0 0 0 0 0 0 0 0 0 0 0 0 0 0 0 0 0 0 0 0 0 0 0 0 0 0 0 0 0 0 0 0 0 0 0 0 0 0 0 0 0 0 0 0 0 0 0 0 0 0 0 0 0 0 0 0 0 0 0 0 0 0 0 0 0 0 0 0 0 0 0 0 0 0 0 0 0 0 0 0 0 0 0 1 1 1 1 1 1 0 0 0 127 134 141 255 255 255 255 255 255 252 252 252 254 254 254 253 253 254 255 255 255 237 238 239 212 219 226 213 221 228 213 221 228 213 221 228 210 218 225 213 221 227 222 230 237 112 122 133 2 2 2 3 3 3 1 1 1 0 0 0 0 0 0 0 0 0 0 0 0 0 0 0 0 0 0 0 0 0 0 0 0 0 0 0 0 0 0 1 1 1 2 2 2 1 1 1 127 134 141 255 255 255 253 253 253 253 253 253 254 254 254 254 254 254 254 254 254 254 254 254 254 254 254 254 254 254 254 254 254 254 254 254 254 254 254 254 254 254 254 254 254 254 254 254 253 253 254 253 253 253 253 254 254 254 254 254 254 254 254 254 254 254 254 254 254 254 254 254 254 254 254 254 254 254 254 254 254 254 254 254 254 254 254 253 253 253 253 253 253 254 254 254 205 209 213 146 157 170 151 162 175 152 163 176 151 162 175 151 162 175 151 162 175 151 162 175 151 162 175 151 162 175 151 162 175 151 162 175 151 162 175 152 163 176 148 159 172 99 113 127 83 99 114 87 102 117 86 101 116 86 101 116 86 101 116 86 101 116 86 101 116 86 101 116 86 101 116 86 101 116 88 103 118 78 92 108 136 147 158 219 227 234 212 220 227 212 220 227 213 221 228 213 221 228 213 221 228 213 221 228 213 221 228 213 221 228 213 221 228 213 221 228 213 221 228 213 221 228 213 221 228 213 221 228 213 221 228 213 221 228 213 221 228 213 221 228 213 221 228 213 221 228 213 221 228 213 221 228 213 221 228 213 221 228 213 221 228 213 221 228 211 219 226 213 221 228 219 227 234 93 96 104 0 0 0 3 3 3 1 1 1 0 0 0 0 0 0 0 0 0 0 0 0 0 0 0 0 0 0 0 0 0 0 0 0 0 0 0 0 0 0 0 0 0 0 0 0 0 0 0 0 0 0 0 0 0 0 0 0 0 0 0 0 0 0 0 0 0 0 0 0 0 0 0 0 0 0 0 0 0 0 0 0 0 0 0 0 0 0 0 0 0 0 0 0 0 0 0 0 0 0 0 0 0 0 0 0 0 0 0 0 0 0 0 0 0 0 0 0 0 0 0 0 0 0 0 0 0 0 0 0 0 0 0 0 0 0 0 0 0 0 0 0 0 0 0 0 0 0 0 0 0 0 0 0 0 0 0 0 0 0 0 0 0 0 0 0 0 0 0 0 0 0 0 0 0 0 0 0 0 0 0 0 0 0 0 0 0 0 0 0 0 0 0 0 0 0 0 0 0 0 0 0 0 0 0 0 0 0
0 0 0 0 0 0 0 0 0 0 0 0 0 0 0 0 0 0 0 0 0 0 0 0 0 0 0 0 0 0 0 0 0 0 0 0 0 0 0 0 0 0 0 0 0 0 0 0 0 0 0 0 0 0 0 0 0 0 0 0 0 0 0 0 0 0 0 0 0 0 0 0 0 0 0 0 0 0 0 0 0 0 0 0 0 0 0 0 0 0 0 0 0 0 0 0 0 0 0 0 0 0 1 1 1 1 1 1 4 4 4 133 142 152 255 255 255 252 252 252 251 251 251 254 254 254 254 254 254 253 254 254 255 255 255 237 238 239 212 220 226 213 221 228 213 221 228 213 221 228 213 221 228 210 218 225 210 218 225 226 233 238 112 122 133 0 0 0 2 2 2 0 0 0 0 0 0 0 0 0 0 0 0 0 0 0 0 0 0 0 0 0 0 0 0 0 0 0 1 1 1 1 1 1 0 0 0 127 134 141 255 255 255 253 253 253 252 252 252 254 254 254 254 254 254 254 254 254 254 254 254 254 254 254 254 254 254 254 254 254 254 254 254 254 254 254 254 254 254 254 254 254 254 254 254 251 251 252 254 254 254 255 255 255 254 254 254 251 251 252 253 253 253 254 254 254 254 254 254 254 254 254 254 254 254 254 254 254 254 254 254 254 254 254 252 252 253 255 255 255 254 254 254 196 201 206 142 154 166 151 162 175 152 163 176 151 162 175 151 162 175 151 162 175 151 162 175 151 162 175 151 162 175 151 162 175 151 162 175 151 162 175 151 162 175 152 163 176 147 158 171 99 113 127 84 99 114 87 101 116 86 101 116 86 101 116 86 101 116 86 101 116 86 101 116 86 101 116 86 101 116 86 101 116 87 102 116 87 102 118 81 96 110 142 154 166 218 226 233 213 221 228 213 221 228 213 221 228 213 221 228 213 221 228 213 221 228 213 221 228 213 221 228 213 221 228 213 221 228 213 221 228 213 221 228 213 221 228 213 221 228 213 221 228 213 221 228 213 221 228 213 221 228 213 221 228 213 221 228 213 221 228 213 221 228 213 221 228 213 221 228 213 221 228 213 221 228 210 218 225 213 221 228 216 224 231 80 84 89 0 0 0 3 3 3 0 0 0 0 0 0 0 0 0 0 0 0 0 0 0 0 0 0 0 0 0 0 0 0 0 0 0 0 0 0 0 0 0 0 0 0 0 0 0 0 0 0 0 0 0 0 0 0 0 0 0 0 0 0 0 0 0 0 0 0 0 0 0 0 0 0 0 0 0 1 1 1 3 3 3 3 3 3 2 2 2 3 3 3 3 3 3 2 2 2 0 1 1 0 0 0 0 0 0 0 0 0 0 0 0 0 0 0 0 0 0 0 0 0 0 0 0 0 0 0 0 0 0 0 0 0 0 0 0 0 0 0 0 0 0 0 0 0 0 0 0 0 0 0 0 0 0 0 0 0 0 0 0 0 0 0 0 0 0 0 0 0 0 0 0 0 0 0 0 0 0 0 0 0 0 0 0 0 0 0 0 0 0 0 0 0 0 0 0 0 0 0 0 0 0 0 0 0
0 0 0 0 0 0 0 0 0 0 0 0 0 0 0 0 0 0 0 0 0 0 0 0 0 0 0 0 0 0 0 0 0 0 0 0 0 0 0 0 0 0 0 0 0 0 0 0 0 0 0 0 0 0 0 0 0 0 0 0 0 0 0 0 0 0 0 0 0 0 0 0 0 0 0 0 0 0 0 0 0 0 0 0 0 0 0 0 0 0 0 0 0 0 0 0 0 0 0 2 2 2 2 2 2 0 0 0 141 151 164 255 255 255 249 250 250 252 252 252 254 254 254 254 254 254 254 254 254 253 254 254 255 255 255 237 238 239 211 219 226 213 221 228 213 221 228 213 221 228 213 221 228 213 221 228 212 220 226 211 219 225 222 230 237 97 104 112 0 0 0 4 4 4 1 1 1 0 0 0 0 0 0 0 0 0 0 0 0 0 0 0 0 0 0 1 1 1 1 1 1 0 0 0 127 134 141 255 255 255 252 252 252 252 252 252 254 254 254 254 254 254 254 254 254 254 254 254 254 254 254 254 254 254 254 254 254 254 254 254 254 254 254 254 254 254 254 254 254 253 253 253 254 254 254 255 255 255 252 252 252 237 238 239 254 254 254 255 255 255 255 255 255 252 253 253 253 253 253 254 254 254 253 253 254 253 253 254 253 253 253 254 254 255 255 255 255 237 238 239 176 183 190 146 157 170 152 164 176 151 162 175 151 162 175 151 162 175 151 162 175 151 162 175 151 162 175 151 162 175 151 162 175 151 162 175 151 162 175 151 162 175 151 162 175 152 163 176 147 158 171 99 113 127 84 99 114 87 101 116 86 101 116 86 101 116 86 101 116 86 101 116 86 101 116 86 101 116 86 101 116 86 101 116 86 101 116 86 101 116 87 102 117 81 96 110 145 156 168 219 227 234 212 221 228 212 220 227 213 221 228 213 221 228 213 221 228 213 221 228 213 221 228 213 221 228 213 221 228 213 221 228 213 221 228 213 221 228 213 221 228 213 221 228 213 221 228 213 221 228 213 221 228 213 221 228 213 221 228 213 221 228 213 221 228 213 221 228 213 221 228 213 221 228 213 221 228 213 221 228 210 218 225 216 224 231 205 209 213 63 66 68 0 0 0 3 3 3 0 0 1 0 0 0 0 0 0 0 0 0 0 0 0 0 0 0 0 0 0 0 0 0 0 0 0 0 0 0 0 0 0 0 0 0 0 0 0 0 0 0 0 0 0 0 0 0 0 0 0 0 0 0 0 0 0 0 0 0 1 1 1 2 2 2 0 0 0 0 0 0 0 0 0 0 0 0 0 0 0 0 0 0 0 0 0 0 0 0 2 2 2 0 0 0 0 0 0 0 0 0 0 0 0 0 0 0 0 0 0 0 0 0 0 0 0 0 0 0 0 0 0 0 0 0 0 0 0 0 0 0 0 0 0 0 0 0 0 0 0 0 0 0 0 0 0 0 0 0 0 0 0 0 0 0 0 0 0 0 0 0 0 0 0 0 0 0 0 0 0 0 0 0 0 0 0 0 0 0 0 0 0 0 0 0 0 0 0 0 0 0 0 0 0
0 0 0 0 0 0 0 0 0 0 0 0 0 0 0 0 0 0 0 0 0 0 0 0 0 0 0 0 0 0 0 0 0 0 0 0 0 0 0 0 0 0 0 0 0 0 0 0 0 0 0 0 0 0 0 0 0 0 0 0 0 0 0 0 0 0 0 0 0 0 0 0 0 0 0 0 0 0 0 0 0 0 0 0 0 0 0 0 0 0 0 0 0 0 0 0 0 0 0 2 2 2 0 0 0 127 134 141 255 255 255 252 252 252 252 252 252 254 254 254 254 254 254 254 254 254 254 254 254 254 254 254 255 255 255 237 238 239 212 219 226 213 221 228 213 221 228 213 221 228 213 221 228 213 221 228 213 221 228 211 219 226 211 220 227 221 229 236 93 96 104 0 0 0 2 3 3 0 0 0 0 0 0 0 0 0 0 0 0 0 0 0 2 2 2 1 1 1 0 0 0 127 134 141 255 255 255 253 253 253 252 252 252 254 254 254 254 254 254 254 254 254 254 254 254 254 254 254 254 254 254 254 254 254 254 254 254 254 254 254 254 254 254 254 254 254 252 252 252 255 255 255 251 252 252 189 194 199 133 142 152 107 120 134 136 147 158 176 183 190 226 230 232 255 255 255 255 255 255 255 255 255 255 255 255 255 255 255 255 255 255 249 250 250 205 209 213 159 168 179 146 157 170 152 163 176 151 162 175 151 162 175 151 162 175 151 162 175 151 162 175 151 162 175 151 162 175 151 162 175 151 162 175 151 162 175 151 162 175 151 162 175 151 162 175 152 163 176 148 159 172 99 113 127 84 99 114 87 101 116 86 101 116 86 101 116 86 101 116 86 101 116 86 101 116 86 101 116 86 101 116 86 101 116 86 101 116 86 101 116 87 102 117 87 102 117 81 96 110 147 158 171 220 228 235 212 221 228 213 221 228 213 221 228 213 221 228 213 221 228 213 221 228 213 221 228 213 221 228 213 221 228 213 221 228 213 221 228 213 221 228 213 221 228 213 221 228 213 221 228 213 221 228 213 221 228 213 221 228 213 221 228 213 221 228 213 221 228 213 221 228 213 221 228 213 221 228 213 221 228 213 221 228 210 218 225 216 224 231 205 209 213 63 66 68 0 0 0 3 3 3 0 0 0 0 0 0 0 0 0 0 0 0 0 0 0 0 0 0 0 0 0 0 0 0 0 0 0 0 0 0 0 0 0 0 0 0 0 0 0 0 0 0 0 0 0 0 0 0 0 0 0 0 0 0 2 2 2 0 0 0 0 0 0 13 18 16 80 84 89 105 112 119 127 134 141 127 134 141 93 96 104 34 52 45 2 3 3 0 0 0 1 1 1 1 1 1 0 0 0 0 0 0 0 0 0 0 0 0 0 0 0 0 0 0 0 0 0 0 0 0 0 0 0 0 0 0 0 0 0 0 0 0 0 0 0 0 0 0 0 0 0 0 0 0 0 0 0 0 0 0 0 0 0 0 0 0 0 0 0 0 0 0 0 0 0 0 0 0 0 0 0 0 0 0 0 0 0 0 0 0 0 0 0 0 0 0 0 0 0 0 0 0
0 0 0 0 0 0 0 0 0 0 0 0 0 0 0 0 0 0 0 0 0 0 0 0 0 0 0 0 0 0 0 0 0 0 0 0 0 0 0 0 0 0 0 0 0 0 0 0 0 0 0 0 0 0 0 0 0 0 0 0 0 0 0 0 0 0 0 0 0 0 0 0 0 0 0 0 0 0 0 0 0 0 0 0 0 0 0 0 0 0 0 0 0 1 1 1 4 4 4 0 0 0 112 122 133 255 255 255 251 251 251 252 252 252 254 254 254 254 254 254 254 254 254 254 254 254 254 254 254 253 254 254 255 255 255 237 238 239 211 219 226 213 221 228 213 221 228 213 221 228 213 221 228 213 221 228 213 221 228 213 221 228 211 219 226 214 222 229 210 219 226 80 84 89 0 0 0 3 3 3 0 0 0 0 0 0 0 0 0 1 1 1 1 1 1 0 0 0 127 134 141 255 255 255 251 251 251 252 252 252 254 254 254 254 254 254 254 254 254 254 254 254 254 254 254 254 254 254 254 254 254 254 254 254 254 254 254 254 254 254 254 254 254 252 252 252 255 255 255 237 238 239 133 142 152 78 92 108 78 92 108 83 98 114 78 92 108 78 92 108 99 113 127 166 176 187 237 238 239 249 250 250 245 246 246 237 238 239 200 207 213 166 176 187 146 157 170 149 161 174 154 163 176 151 162 175 151 162 175 151 162 175 151 162 175 151 162 175 151 162 175 151 162 175 151 162 175 151 162 175 151 162 175 151 162 175 151 162 175 151 162 175 151 162 175 152 163 176 148 159 172 99 113 127 84 99 114 87 101 116 86 101 116 86 101 116 86 101 116 86 101 116 86 101 116 86 101 116 86 101 116 86 101 116 86 101 116 86 101 116 86 101 116 87 102 116 86 101 116 79 95 110 149 157 167 218 226 233 213 221 228 212 220 227 213 221 228 213 221 228 213 221 228 213 221 228 213 221 228 213 221 228 213 221 228 213 221 228 213 221 228 213 221 228 213 221 228 213 221 228 213 221 228 213 221 228 213 221 228 213 221 228 213 221 228 213 221 228 213 221 228 213 221 228 213 221 228 213 221 228 213 221 228 213 221 228 210 218 225 218 226 233 200 207 213 34 52 45 0 0 0 2 2 2 0 0 0 0 0 0 0 0 0 0 0 0 0 0 0 0 0 0 0 0 0 0 0 0 0 0 0 0 0 0 0 0 0 0 0 0 0 0 0 0 0 0 0 0 0 0 0 0 2 2 2 0 0 0 9 10 10 105 112 119 205 209 213 254 254 254 255 255 255 249 250 250 237 238 239 220 228 235 205 209 213 154 163 176 63 66 68 0 0 0 0 0 0 1 1 1 0 0 0 0 0 0 0 0 0 0 0 0 0 0 0 0 0 0 0 0 0 0 0 0 0 0 0 0 0 0 0 0 0 0 0 0 0 0 0 0 0 0 0 0 0 0 0 0 0 0 0 0 0 0 0 0 0 0 0 0 0 0 0 0 0 0 0 0 0 0 0 0 0 0 0 0 0 0 0 0 0 0 0 0 0 0 0 0 0 0 0 0 0
0 0 0 0 0 0 0 0 0 0 0 0 0 0 0 0 0 0 0 0 0 0 0 0 0 0 0 0 0 0 0 0 0 0 0 0 0 0 0 0 0 0 0 0 0 0 0 0 0 0 0 0 0 0 0 0 0 0 0 0 0 0 0 0 0 0 0 0 0 0 0 0 0 0 0 0 0 0 0 0 0 0 0 0 0 0 0 0 0 0 0 0 0 3 3 3 0 0 0 93 96 104 254 254 254 252 252 252 252 252 252 254 254 254 254 254 254 254 254 254 254 254 254 254 254 254 254 254 254 253 254 254 255 255 255 237 238 239 211 219 226 213 221 228 213 221 228 213 221 228 213 221 228 213 221 228 213 221 228 213 221 228 213 221 228 211 219 225 214 222 229 208 215 222 63 66 68 0 0 0 3 3 3 0 0 0 2 2 2 1 1 1 1 1 1 127 134 141 255 255 255 252 252 252 254 254 254 254 254 254 254 254 254 254 254 254 254 254 254 254 254 254 254 254 254 254 254 254 254 254 254 254 254 254 254 254 254 254 254 254 251 252 252 255 255 255 233 234 235 113 125 137 78 92 108 88 103 118 88 103 118 87 102 117 88 103 118 88 103 118 84 98 113 78 92 108 120 132 145 176 183 190 159 168 179 147 158 171 146 157 170 148 159 172 152 163 176 152 163 175 151 162 175 151 162 175 151 162 175 151 162 175 151 162 175 151 162 175 151 162 175 151 162 175 151 162 175 151 162 175 151 162 175 151 162 175 151 162 175 151 162 175 151 162 175 151 162 176 150 162 175 104 117 130 83 99 114 87 102 117 86 101 116 86 101 116 86 101 116 86 101 116 86 101 116 86 101 116 86 101 116 86 101 116 86 101 116 86 101 116 86 101 116 86 101 116 87 102 116 86 101 116 78 92 108 152 163 175 220 228 235 211 219 226 213 221 228 213 221 228 213 221 228 213 221 228 213 221 228 213 221 228 213 221 228 213 221 228 213 221 228 213 221 228 213 221 228 213 221 228 213 221 228 213 221 228 213 221 228 213 221 228 213 221 228 213 221 228 213 221 228 213 221 228 213 221 228 213 221 228 213 221 228 213 221 228 213 221 228 210 218 225 219 227 234 189 194 199 34 52 45 0 0 0 3 3 3 0 0 0 0 0 0 0 0 0 0 0 0 0 0 0 0 0 0 0 0 0 0 0 0 0 0 0 0 0 0 0 0 0 0 0 0 0 0 0 0 0 0 3 3 3 0 0 0 34 52 45 189 194 199 255 255 255 255 255 255 254 254 254 253 253 253 226 230 232 208 215 222 210 218 225 216 224 231 221 229 236 216 224 231 127 134 141 13 18 16 0 0 0 3 3 3 0 0 0 0 0 0 0 0 0 0 0 0 0 0 0 0 0 0 0 0 0 0 0 0 0 0 0 0 0 0 0 0 0 0 0 0 0 0 0 0 0 0 0 0 0 0 0 0 0 0 0 0 0 0 0 0 0 0 0 0 0 0 0 0 0 0 0 0 0 0 0 0 0 0 0 0 0 0 0 0 0 0 0 0 0 0 0 0 0 0
0 0 0 0 0 0 0 0 0 0 0 0 0 0 0 0 0 0 0 0 0 0 0 0 0 0 0 0 0 0 0 0 0 0 0 0 0 0 0 0 0 0 0 0 0 0 0 0 0 0 0 0 0 0 0 0 0 0 0 0 0 0 0 0 0 0 0 0 0 0 0 0 0 0 0 0 0 0 0 0 0 0 0 0 0 0 0 1 1 1 4 4 4 0 0 0 93 96 104 249 250 250 252 252 252 252 252 252 254 254 254 254 254 254 254 254 254 254 254 254 254 254 254 254 254 254 254 254 254 253 253 254 255 255 255 237 238 239 211 219 225 213 221 228 213 221 228 213 221 228 213 221 228 213 221 228 213 221 228 213 221 228 213 221 228 213 221 228 210 218 225 219 227 234 196 201 206 34 52 45 0 0 0 4 4 4 1 1 1 0 0 0 127 134 141 255 255 255 251 251 251 252 252 252 254 254 254 254 254 254 254 254 254 254 254 254 254 254 254 254 254 254 254 254 254 254 254 254 254 254 254 254 254 254 254 254 254 252 252 252 255 255 255 237 238 239 113 125 137 79 95 110 89 104 118 86 101 116 86 101 116 86 101 116 86 101 116 86 101 116 87 102 117 84 100 115 113 126 139 150 162 175 149 161 174 151 162 176 152 163 176 152 163 176 151 162 175 151 162 175 151 162 175 151 162 175 151 162 175 151 162 175 151 162 175 151 162 175 151 162 175 151 162 175 151 162 175 151 162 175 151 162 175 151 162 175 151 162 175 151 162 175 151 162 175 151 162 175 151 161 174 107 120 134 82 98 113 87 102 117 86 101 116 86 101 116 86 101 116 86 101 116 86 101 116 86 101 116 86 101 116 86 101 116 86 101 116 86 101 116 86 101 116 86 101 116 86 101 116 87 102 117 85 101 116 83 98 112 159 168 179 219 227 234 212 221 228 212 220 228 213 221 228 213 221 228 213 221 228 213 221 228 213 221 228 213 221 228 213 221 228 213 221 228 213 221 228 213 221 228 213 221 228 213 221 228 213 221 228 213 221 228 213 221 228 213 221 228 213 221 228 213 221 228 213 221 228 213 221 228 213 221 228 213 221 228 213 221 228 213 221 228 210 218 225 220 228 235 189 194 199 21 29 25 0 0 0 1 1 2 0 0 0 0 0 0 0 0 0 0 0 0 0 0 0 0 0 0 0 0 0 0 0 0 0 0 0 0 0 0 0 0 0 0 0 0 2 2 2 0 0 0 34 52 45 211 216 222 255 255 255 249 250 250 251 251 251 252 252 252 255 255 255 233 234 235 211 220 227 212 220 227 211 219 226 210 218 225 212 219 226 222 230 237 159 168 179 21 29 25 0 0 0 2 2 2 0 0 0 0 0 0 0 0 0 0 0 0 0 0 0 0 0 0 0 0 0 0 0 0 0 0 0 0 0 0 0 0 0 0 0 0 0 0 0 0 0 0 0 0 0 0 0 0 0 0 0 0 0 0 0 0 0 0 0 0 0 0 0 0 0 0 0 0 0 0 0 0 0 0 0 0 0 0 0 0 0 0 0 0 0 0 0
0 0 0 0 0 0 0 0 0 0 0 0 0 0 0 0 0 0 0 0 0 0 0 0 0 0 0 0 0 0 0 0 0 0 0 0 0 0 0 0 0 0 0 0 0 0 0 0 0 0 0 0 0 0 0 0 0 0 0 0 0 0 0 0 0 0 0 0 0 0 0 0 0 0 0 0 0 0 0 0 0 0 0 0 0 0 0 3 3 3 0 0 0 93 96 104 253 253 253 255 255 255 252 252 252 254 254 254 254 254 254 254 254 254 254 254 254 254 254 254 254 254 254 254 254 254 254 254 254 253 253 253 255 255 255 237 238 239 211 219 225 213 221 228 213 221 228 213 221 228 213 221 228 213 221 228 213 221 228 213 221 228 213 221 228 213 221 228 213 221 228 210 218 225 218 226 233 196 201 206 63 66 68 0 0 0 1 1 1 127 134 141 255 255 255 252 252 252 254 254 254 254 254 254 254 254 254 254 254 254 254 254 254 254 254 254 254 254 254 254 254 254 254 254 254 254 254 254 254 254 254 254 254 254 251 251 252 255 255 255 237 238 239 113 125 137 79 95 110 88 103 118 86 101 116 86 101 116 86 101 116 86 101 116 86 101 116 86 101 116 86 101 116 84 99 114 125 137 150 154 165 177 150 161 175 151 162 175 151 162 175 151 162 175 151 162 175 151 162 175 151 162 175 151 162 175 151 162 175 151 162 175 151 162 175 151 162 175 151 162 175 151 162 175 151 162 175 151 162 175 151 162 175 151 162 175 151 162 175 151 162 175 151 162 175 151 162 175 152 162 175 107 120 134 83 98 113 87 102 117 86 101 116 86 101 116 86 101 116 86 101 116 86 101 116 86 101 116 86 101 116 86 101 116 86 101 116 86 101 116 86 101 116 86 101 116 86 101 116 86 101 116 87 102 116 85 100 115 83 96 111 154 165 177 219 227 234 212 220 228 212 220 227 213 221 228 213 221 228 213 221 228 213 221 228 213 221 228 213 221 228 213 221 228 213 221 228 213 221 228 213 221 228 213 221 228 212 220 227 211 219 226 211 219 227 212 220 227 213 221 228 213 221 228 213 221 228 213 221 228 213 221 228 213 221 228 213 221 228 213 221 228 213 221 228 210 218 225 222 230 237 166 176 187 13 18 16 0 0 0 2 2 2 0 0 0 0 0 0 0 0 0 0 0 0 0 0 0 0 0 0 0 0 0 0 0 0 0 0 0 0 0 0 3 3 3 0 0 0 34 52 45 211 216 222 255 255 255 249 250 250 254 254 254 254 254 254 254 254 254 255 255 255 233 234 235 211 220 227 213 221 228 213 221 228 213 221 228 213 221 228 210 218 225 222 230 237 154 163 176 21 29 25 0 0 0 2 2 2 0 0 0 0 0 0 0 0 0 0 0 0 0 0 0 0 0 0 0 0 0 0 0 0 0 0 0 0 0 0 0 0 0 0 0 0 0 0 0 0 0 0 0 0 0 0 0 0 0 0 0 0 0 0 0 0 0 0 0 0 0 0 0 0 0 0 0 0 0 0 0 0 0 0 0 0 0 0 0 0 0 0 0 0
0 0 0 0 0 0 0 0 0 0 0 0 0 0 0 0 0 0 0 0 0 0 0 0 0 0 0 0 0 0 0 0 0 0 0 0 0 0 0 0 0 0 0 0 0 0 0 0 0 0 0 0 0 0 0 0 0 0 0 0 0 0 0 0 0 0 0 0 0 0 0 0 0 0 0 0 0 0 0 0 0 0 0 0 4 4 4 0 0 0 93 96 104 251 251 251 252 252 252 251 251 251 254 254 254 254 254 254 254 254 254 254 254 254 254 254 254 254 254 254 254 254 254 254 254 254 254 254 254 253 253 253 255 255 255 233 234 235 211 219 225 213 221 228 213 221 228 213 221 228 213 221 228 213 221 228 213 221 228 213 221 228 213 221 228 213 221 228 213 221 228 213 221 228 210 218 225 218 226 233 205 209 213 112 122 133 127 134 141 255 255 255 252 252 252 252 252 252 254 254 254 254 254 254 254 254 254 254 254 254 254 254 254 254 254 254 254 254 254 254 254 254 254 254 254 254 254 254 254 254 254 252 253 253 255 255 255 233 234 235 113 125 137 79 95 110 89 104 118 86 101 116 86 101 116 86 101 116 86 101 116 86 101 116 86 101 116 86 101 116 86 101 116 86 100 115 129 141 153 153 164 177 151 162 175 151 162 175 151 162 175 151 162 175 151 162 175 151 162 175 151 162 175 151 162 175 151 162 175 151 162 175 151 162 175 151 162 175 151 162 175 151 162 175 151 162 175 151 162 175 151 162 175 151 162 175 151 162 175 151 162 175 151 162 175 151 162 175 151 161 174 107 120 134 82 98 113 87 102 117 86 101 116 86 101 116 86 101 116 86 101 116 86 101 116 86 101 116 86 101 116 86 101 116 86 101 116 86 101 116 86 101 116 86 101 116 86 101 116 86 101 116 86 101 116 87 102 117 85 101 116 83 96 111 154 165 177 219 227 234 213 221 228 212 220 227 213 221 228 213 221 228 213 221 228 213 221 228 213 221 228 213 221 228 213 221 228 213 221 228 213 221 228 212 220 227 216 224 231 220 228 235 219 227 234 214 222 229 211 219 226 213 221 228 213 221 228 213 221 228 213 221 228 213 221 228 213 221 228 213 221 228 213 221 228 213 221 228 210 218 225 222 230 237 159 168 179 13 18 16 0 0 0 1 1 1 0 0 0 0 0 0 0 0 0 0 0 0 0 0 0 0 0 0 0 0 0 0 0 0 2 2 2 0 0 0 21 29 25 205 209 213 255 255 255 249 250 250 254 254 254 254 254 254 254 254 254 254 254 254 255 255 255 233 234 235 211 220 227 213 221 228 213 221 228 213 221 228 213 221 228 213 221 228 210 218 225 222 230 237 159 168 179 21 29 25 0 0 0 2 2 2 0 0 0 0 0 0 0 0 0 0 0 0 0 0 0 0 0 0 0 0 0 0 0 0 0 0 0 0 0 0 0 0 0 0 0 0 0 0 0 0 0 0 0 0 0 0 0 0 0 0 0 0 0 0 0 0 0 0 0 0 0 0 0 0 0 0 0 0 0 0 0 0 0 0 0 0 0 0 0 0 0
0 0 0 0 0 0 0 0 0 0 0 0 0 0 0 0 0 0 0 0 0 0 0 0 0 0 0 0 0 0 0 0 0 0 0 0 0 0 0 0 0 0 0 0 0 0 0 0 0 0 0 0 0 0 0 0 0 0 0 0 0 0 0 0 0 0 0 0 0 0 0 0 0 0 0 0 0 0 0 0 0 3 3 3 0 0 0 93 96 104 254 254 254 255 255 255 252 252 252 254 254 254 254 254 254 254 254 254 254 254 254 254 254 254 254 254 254 254 254 254 254 254 254 254 254 254 254 254 254 253 253 253 255 255 255 233 234 235 210 218 225 213 221 228 213 221 228 213 221 228 213 221 228 213 221 228 213 221 228 213 221 228 213 221 228 213 221 228 213 221 228 213 221 228 213 221 228 211 219 226 216 224 231 221 229 236 233 234 235 249 250 250 255 255 255 254 254 254 254 254 254 254 254 254 254 254 254 254 254 254 254 254 254 254 254 254 254 254 254 254 254 254 254 254 254 254 254 254 252 252 252 255 255 255 237 238 239 113 125 137 79 95 110 88 103 118 86 101 116 86 101 116 86 101 116 86 101 116 86 101 116 86 101 116 86 101 116 86 101 116 85 100 116 89 104 118 136 147 158 153 164 177 151 162 175 151 162 175 151 162 175 151 162 175 151 162 175 151 162 175 151 162 175 151 162 175 151 162 175 151 162 175 151 162 175 151 162 175 151 162 175 151 162 175 151 162 175 151 162 175 151 162 175 151 162 175 151 162 175 151 162 175 151 162 175 151 162 175 150 161 175 107 120 134 82 98 113 87 102 117 86 101 116 86 101 116 86 101 116 86 101 116 86 101 116 86 101 116 86 101 116 86 101 116 86 101 116 86 101 116 86 101 116 86 101 116 86 101 116 86 101 116 86 101 116 86 101 116 87 102 117 86 101 116 81 96 110 141 151 164 218 226 233 213 221 229 212 220 227 213 221 228 213 221 228 213 221 228 213 221 228 213 221 228 213 221 228 213 221 228 212 220 227 216 224 231 200 207 213 176 183 190 189 194 199 208 215 222 220 228 235 214 222 229 212 220 227 213 221 228 213 221 228 213 221 228 213 221 228 213 221 228 213 221 228 213 221 228 213 221 228 210 218 225 226 233 238 149 157 167 9 10 10 1 1 1 2 2 2 0 0 0 0 0 0 0 0 0 0 0 0 0 0 0 0 0 0 3 3 3 0 0 0 21 29 25 189 194 199 255 255 255 249 250 250 254 254 254 254 254 254 254 254 254 254 254 254 254 254 254 255 255 255 233 234 235 212 219 226 213 221 228 213 221 228 213 221 228 213 221 228 213 221 228 213 221 228 210 218 225 222 230 237 149 157 167 9 10 10 0 0 0 2 2 2 0 0 0 0 0 0 0 0 0 0 0 0 0 0 0 0 0 0 0 0 0 0 0 0 0 0 0 0 0 0 0 0 0 0 0 0 0 0 0 0 0 0 0 0 0 0 0 0 0 0 0 0 0 0 0 0 0 0 0 0 0 0 0 0 0 0 0 0 0 0 0 0 0 0 0 0 0 0
0 0 0 0 0 0 0 0 0 0 0 0 0 0 0 0 0 0 0 0 0 0 0 0 0 0 0 0 0 0 0 0 0 0 0 0 0 0 0 0 0 0 0 0 0 0 0 0 0 0 0 0 0 0 0 0 0 0 0 0 0 0 0 0 0 0 0 0 0 0 0 0 0 0 0 0 0 0 3 3 3 0 0 0 93 96 104 249 250 250 252 252 252 251 251 251 254 254 254 254 254 254 254 254 254 254 254 254 254 254 254 254 254 254 254 254 254 254 254 254 254 254 254 254 254 254 254 254 254 253 253 253 255 255 255 233 234 235 210 218 225 213 221 229 213 221 228 213 221 228 213 221 228 213 221 228 213 221 228 213 221 228 213 221 228 213 221 228 213 221 228 213 221 228 213 221 228 213 221 228 211 219 226 210 219 226 208 215 222 219 224 228 245 246 246 255 255 255 254 254 254 254 254 254 254 254 254 254 254 254 254 254 254 254 254 254 254 254 254 254 254 254 254 254 254 252 252 252 255 255 255 233 234 235 113 125 137 79 95 110 89 104 118 86 101 116 86 101 116 86 101 116 86 101 116 86 101 116 86 101 116 86 101 116 86 101 116 86 101 116 84 99 115 94 109 123 148 159 172 152 163 176 151 162 175 151 162 175 151 162 175 151 162 175 151 162 175 151 162 175 151 162 175 151 162 175 151 162 175 151 162 175 151 162 175 151 162 175 151 162 175 151 162 175 151 162 175 151 162 175 151 162 175 151 162 175 151 162 175 151 162 175 151 162 175 151 162 175 151 162 175 107 120 134 82 98 113 87 102 117 86 101 116 86 101 116 86 101 116 86 101 116 86 101 116 86 101 116 86 101 116 86 101 116 86 101 116 86 101 116 86 101 116 86 101 116 86 101 116 86 101 116 86 101 116 86 101 116 86 101 116 87 102 116 87 102 117 79 95 110 136 147 158 216 224 231 214 222 229 212 220 227 213 221 228 213 221 228 213 221 228 213 221 228 213 221 228 212 220 227 216 224 231 200 207 213 112 122 133 81 96 110 87 102 116 107 120 134 150 160 172 208 215 222 216 224 231 211 219 226 213 221 228 213 221 228 213 221 228 213 221 228 213 221 228 213 221 228 213 221 228 213 221 228 211 216 222 226 233 238 127 134 141 2 2 2 2 2 2 1 1 1 0 0 0 0 0 0 0 0 0 0 0 0 3 3 3 0 0 0 21 29 25 196 201 206 255 255 255 251 251 251 254 254 254 254 254 254 254 254 254 254 254 254 254 254 254 254 254 254 255 255 255 233 234 235 212 220 227 213 221 228 213 221 228 213 221 228 213 221 228 213 221 228 213 221 228 213 221 228 211 219 225 219 227 234 133 142 152 4 4 4 0 0 1 1 1 1 0 0 0 0 0 0 0 0 0 0 0 0 0 0 0 0 0 0 0 0 0 0 0 0 0 0 0 0 0 0 0 0 0 0 0 0 0 0 0 0 0 0 0 0 0 0 0 0 0 0 0 0 0 0 0 0 0 0 0 0 0 0 0 0 0 0 0 0 0 0 0 0 0 0 0
0 0 0 0 0 0 0 0 0 0 0 0 0 0 0 0 0 0 0 0 0 0 0 0 0 0 0 0 0 0 0 0 0 0 0 0 0 0 0 0 0 0 0 0 0 0 0 0 0 0 0 0 0 0 0 0 0 0 0 0 0 0 0 0 0 0 0 0 0 0 0 0 1 1 1 4 4 4 0 0 0 93 96 104 254 254 254 255 255 255 252 252 252 254 254 254 254 254 254 254 254 254 254 254 254 254 254 254 254 254 254 254 254 254 254 254 254 254 254 254 254 254 254 254 254 254 254 254 254 253 253 253 255 255 255 233 234 235 210 218 225 214 222 229 213 221 228 213 221 228 213 221 228 213 221 228 213 221 228 213 221 228 213 221 228 213 221 228 213 221 228 213 221 228 213 221 228 213 221 228 213 221 228 213 221 228 214 222 229 211 219 226 219 224 228 237 238 239 254 254 254 254 254 255 254 254 254 254 254 254 254 254 254 254 254 254 254 254 254 254 254 254 252 252 252 255 255 255 237 238 239 113 125 137 79 95 110 88 103 118 86 101 116 86 101 116 86 101 116 86 101 116 86 101 116 86 101 116 86 101 116 86 101 116 86 101 116 87 102 116 84 99 114 102 116 129 148 159 172 152 163 176 151 162 175 151 162 175 151 162 175 151 162 175 151 162 175 151 162 175 151 162 175 151 162 175 151 162 175 151 162 175 151 162 175 151 162 175 151 162 175 151 162 175 151 162 175 151 162 175 151 162 175 151 162 175 151 162 175 151 162 175 151 162 175 151 162 176 150 160 172 104 117 130 83 98 114 87 102 117 86 101 116 86 101 116 86 101 116 86 101 116 86 101 116 86 101 116 86 101 116 86 101 116 86 101 116 86 101 116 86 101 116 86 101 116 86 101 116 86 101 116 86 101 116 86 101 116 86 101 116 86 101 116 86 101 116 88 103 118 78 92 108 125 137 150 213 221 227 216 224 231 212 220 227 213 221 228 213 221 228 213 221 228 212 220 227 216 224 231 200 207 213 107 120 134 79 95 110 88 103 118 86 101 116 82 97 113 78 92 108 113 125 137 200 207 213 218 226 233 211 219 226 213 221 228 213 221 228 213 221 228 213 221 228 213 221 228 213 221 228 213 221 228 212 220 227 211 219 226 219 227 234 105 112 119 0 0 0 2 3 3 1 1 1 0 0 0 0 0 0 3 3 3 0 0 0 21 29 25 189 194 199 255 255 255 249 250 250 254 254 254 254 254 254 254 254 254 254 254 254 254 254 254 254 254 254 254 254 254 255 255 255 226 230 232 212 220 228 213 221 228 213 221 228 213 221 228 213 221 228 213 221 228 213 221 228 213 221 228 213 221 228 211 219 226 226 233 238 112 122 133 0 0 0 2 2 2 1 1 1 0 0 0 0 0 0 0 0 0 0 0 0 0 0 0 0 0 0 0 0 0 0 0 0 0 0 0 0 0 0 0 0 0 0 0 0 0 0 0 0 0 0 0 0 0 0 0 0 0 0 0 0 0 0 0 0 0 0 0 0 0 0 0 0 0 0 0 0 0 0 0 0
0 0 0 0 0 0 0 0 0 0 0 0 0 0 0 0 0 0 0 0 0 0 0 0 0 0 0 0 0 0 0 0 0 0 0 0 0 0 0 0 0 0 0 0 0 0 0 0 0 0 0 0 0 0 0 0 0 0 0 0 0 0 0 0 0 0 0 0 0 0 0 0 4 4 4 0 0 0 93 96 104 249 250 250 252 252 252 251 251 251 254 254 254 254 254 254 254 254 254 254 254 254 254 254 254 254 254 254 254 254 254 254 254 254 254 254 254 254 254 254 254 254 254 254 254 254 254 254 254 253 253 253 255 255 255 233 234 235 210 218 225 214 222 229 213 221 228 213 221 228 213 221 228 213 221 228 213 221 228 213 221 228 213 221 228 213 221 228 213 221 228 213 221 228 213 221 228 213 221 228 213 221 228 213 221 228 213 221 228 213 221 228 212 221 228 211 219 225 233 234 235 252 252 252 255 255 255 254 254 254 254 254 254 254 254 254 254 254 254 251 251 252 255 255 255 233 234 235 113 125 137 79 95 110 89 104 118 86 101 116 86 101 116 86 101 116 86 101 116 86 101 116 86 101 116 86 101 116 86 101 116 86 101 116 86 101 116 87 102 117 83 98 113 107 120 134 151 161 174 151 162 175 151 162 175 151 162 175 151 162 175 151 162 175 151 162 175 151 162 175 151 162 175 151 162 175 151 162 175 151 162 175 151 162 175 151 162 175 151 162 175 151 162 175 151 162 175 151 162 175 151 162 175 151 162 175 151 162 175 151 162 175 151 162 175 151 162 175 150 160 172 104 117 130 83 98 114 87 102 117 86 101 116 86 101 116 86 101 116 86 101 116 86 101 116 86 101 116 86 101 116 86 101 116 86 101 116 86 101 116 86 101 116 86 101 116 86 101 116 86 101 116 86 101 116 86 101 116 86 101 116 86 101 116 86 101 116 86 101 116 88 103 118 78 92 108 120 132 145 205 209 213 216 224 231 211 219 226 213 221 228 211 219 227 216 224 231 208 215 222 113 125 137 79 95 110 88 103 118 86 101 116 86 101 116 87 102 117 88 103 118 78 92 108 113 125 137 200 207 213 218 226 233 210 219 226 213 221 228 213 221 228 213 221 228 213 221 228 213 221 228 213 221 228 213 221 228 212 220 227 212 220 227 210 218 225 80 84 89 0 0 0 2 2 2 1 1 1 3 3 3 0 0 0 21 29 25 189 194 199 255 255 255 249 250 250 254 254 254 254 254 254 254 254 254 254 254 254 254 254 254 254 254 254 254 254 254 254 254 254 255 255 255 226 230 232 213 221 228 213 221 228 213 221 228 213 221 228 213 221 228 213 221 228 213 221 228 213 221 228 213 221 228 211 219 226 212 219 226 218 226 233 105 112 119 0 0 0 1 1 1 0 0 1 0 0 0 0 0 0 0 0 0 0 0 0 0 0 0 0 0 0 0 0 0 0 0 0 0 0 0 0 0 0 0 0 0 0 0 0 0 0 0 0 0 0 0 0 0 0 0 0 0 0 0 0 0 0 0 0 0 0 0 0 0 0 0 0 0 0 0 0 0
0 0 0 0 0 0 0 0 0 0 0 0 0 0 0 0 0 0 0 0 0 0 0 0 0 0 0 0 0 0 0 0 0 0 0 0 0 0 0 0 0 0 0 0 0 0 0 0 0 0 0 0 0 0 0 0 0 0 0 0 0 0 0 0 0 0 1 1 1 4 4 4 0 0 0 93 96 104 254 254 254 254 254 254 251 251 251 254 254 254 254 254 254 254 254 254 254 254 254 254 254 254 254 254 254 254 254 254 254 254 254 254 254 254 254 254 254 254 254 254 254 254 254 254 254 254 254 254 254 253 253 253 255 255 255 233 234 235 211 216 222 213 221 228 212 220 227 212 220 227 213 221 228 213 221 228 213 221 228 213 221 228 213 221 228 213 221 228 213 221 228 213 221 228 213 221 228 213 221 228 213 221 228 213 221 228 213 221 228 213 221 228 213 221 228 213 221 228 212 219 226 226 230 232 249 250 250 255 255 255 254 254 254 254 254 254 252 253 253 255 255 255 237 238 239 113 125 137 79 95 110 88 103 118 86 101 116 86 101 116 86 101 116 86 101 116 86 101 116 86 101 116 86 101 116 86 101 116 86 101 116 86 101 116 86 101 116 87 101 116 84 100 115 117 129 143 152 162 175 151 162 175 151 162 175 151 162 175 151 162 175 151 162 175 151 162 175 151 162 175 151 162 175 151 162 175 151 162 175 151 162 175 151 162 175 151 162 175 151 162 175 151 162 175 151 162 175 151 162 175 151 162 175 151 162 175 151 162 175 151 162 175 151 162 175 151 162 176 148 159 172 102 116 129 83 98 114 87 102 117 86 101 116 86 101 116 86 101 116 86 101 116 86 101 116 86 101 116 86 101 116 86 101 116 86 101 116 86 101 116 86 101 116 86 101 116 86 101 116 86 101 116 86 101 116 86 101 116 86 101 116 86 101 116 86 101 116 86 101 116 86 101 116 88 103 118 78 92 108 107 120 134 200 207 213 219 227 234 210 218 225 216 224 231 211 219 226 117 129 143 79 95 110 88 103 118 86 101 116 86 101 116 86 101 116 86 101 116 86 101 116 88 103 118 79 95 110 107 120 134 200 207 213 219 227 234 211 219 226 213 221 228 213 221 228 213 221 228 213 221 228 213 221 228 213 221 228 213 221 228 210 218 225 216 224 231 211 219 225 80 84 89 0 0 0 3 3 3 0 0 0 21 29 25 189 194 199 255 255 255 249 250 250 254 254 254 254 254 254 254 254 254 254 254 254 254 254 254 254 254 254 254 254 254 254 254 254 254 254 254 255 255 255 226 230 232 213 221 228 213 221 228 213 221 228 213 221 228 213 221 228 213 221 228 213 221 228 213 221 228 213 221 228 213 221 228 211 219 226 212 220 227 220 228 235 105 112 119 0 0 0 2 2 2 1 1 1 0 0 0 0 0 0 0 0 0 0 0 0 0 0 0 0 0 0 0 0 0 0 0 0 0 0 0 0 0 0 0 0 0 0 0 0 0 0 0 0 0 0 0 0 0 0 0 0 0 0 0 0 0 0 0 0 0 0 0 0 0 0 0 0 0 0
0 0 0 0 0 0 0 0 0 0 0 0 0 0 0 0 0 0 0 0 0 0 0 0 0 0 0 0 0 0 0 0 0 0 0 0 0 0 0 0 0 0 0 0 0 0 0 0 0 0 0 0 0 0 0 0 0 0 0 0 0 0 0 0 0 0 3 3 3 0 0 0 93 96 104 249 250 250 254 254 254 251 251 251 254 254 254 254 254 254 254 254 254 254 254 254 254 254 254 254 254 254 254 254 254 254 254 254 254 254 254 254 254 254 254 254 254 254 254 254 254 254 254 254 254 254 254 254 254 253 253 253 254 255 255 233 234 235 214 222 229 219 227 234 218 226 233 216 224 231 214 222 229 211 219 226 213 221 228 213 221 228 213 221 228 213 221 228 213 221 228 213 221 228 213 221 228 213 221 228 213 221 228 213 221 228 213 221 228 213 221 228 213 221 228 213 221 228 214 222 229 212 218 224 219 224 228 251 251 251 255 255 255 252 252 252 255 255 255 226 230 232 112 122 133 79 95 110 88 103 118 86 101 116 86 101 116 86 101 116 86 101 116 86 101 116 86 101 116 86 101 116 86 101 116 86 101 116 86 101 116 86 101 116 86 101 116 86 101 116 86 101 115 125 137 150 154 165 177 151 162 175 151 162 175 151 162 175 151 162 175 151 162 175 151 162 175 151 162 175 151 162 175 151 162 175 151 162 175 151 162 175 151 162 175 151 162 175 151 162 175 151 162 175 151 162 175 151 162 175 151 162 175 151 162 175 151 162 175 151 162 175 151 162 175 151 162 176 149 161 174 104 117 130 83 98 114 87 102 117 86 101 116 86 101 116 86 101 116 86 101 116 86 101 116 86 101 116 86 101 116 86 101 116 86 101 116 86 101 116 86 101 116 86 101 116 86 101 116 86 101 116 86 101 116 86 101 116 86 101 116 86 101 116 86 101 116 86 101 116 86 101 116 86 101 116 88 103 119 79 95 110 99 113 127 189 194 199 221 229 236 213 221 227 125 137 150 78 92 108 88 103 117 86 101 116 86 101 116 86 101 116 86 101 116 86 101 116 86 101 116 86 101 116 88 103 118 81 96 110 102 116 129 196 201 206 219 227 234 210 218 225 213 221 228 213 221 228 213 221 228 213 221 228 213 221 228 213 221 228 213 221 228 210 218 225 216 224 231 211 219 226 93 96 104 0 0 0 21 29 25 196 201 206 255 255 255 249 250 250 254 254 254 254 254 254 254 254 254 254 254 254 254 254 254 254 254 254 254 254 254 254 254 254 254 254 254 254 254 254 255 255 255 233 234 235 213 221 228 213 221 228 213 221 228 213 221 228 213 221 228 213 221 228 213 221 228 213 221 228 213 221 228 213 221 228 213 221 228 211 219 226 212 220 227 220 228 235 105 112 119 0 0 0 1 2 2 1 1 1 0 0 0 0 0 0 0 0 0 0 0 0 0 0 0 0 0 0 0 0 0 0 0 0 0 0 0 0 0 0 0 0 0 0 0 0 0 0 0 0 0 0 0 0 0 0 0 0 0 0 0 0 0 0 0 0 0 0 0 0 0 0 0
0 0 0 0 0 0 0 0 0 0 0 0 0 0 0 0 0 0 0 0 0 0 0 0 0 0 0 0 0 0 0 0 0 0 0 0 0 0 0 0 0 0 0 0 0 0 0 0 0 0 0 0 0 0 0 0 0 0 0 0 1 1 1 4 4 4 0 0 0 93 96 104 253 253 253 254 254 254 252 252 252 254 254 254 254 254 254 254 254 254 254 254 254 254 254 254 254 254 254 254 254 254 254 254 254 254 254 254 254 254 254 254 254 254 254 254 254 254 254 254 254 254 254 254 254 254 254 254 254 252 252 253 255 255 255 211 216 222 144 154 166 141 151 164 166 176 187 196 201 206 211 219 226 220 228 235 213 221 228 212 220 227 213 221 228 213 221 228 213 221 228 213 221 228 213 221 228 213 221 228 213 221 228 213 221 228 213 221 228 213 221 228 213 221 228 213 221 228 213 221 228 214 222 229 212 221 228 219 224 228 237 238 239 253 253 253 214 220 226 99 113 127 81 96 110 88 103 118 86 101 116 86 101 116 86 101 116 86 101 116 86 101 116 86 101 116 86 101 116 86 101 116 86 101 116 86 101 116 86 101 116 86 101 116 86 101 116 86 100 115 87 103 118 136 147 158 154 165 177 150 161 174 151 162 175 151 162 175 151 162 175 151 162 175 151 162 175 151 162 175 151 162 175 151 162 175 151 162 175 151 162 175 151 162 175 151 162 175 151 162 175 151 162 175 151 162 175 151 162 175 151 162 175 151 162 175 151 162 175 151 162 175 151 162 175 151 162 176 148 159 172 102 116 129 83 98 114 87 102 117 86 101 116 86 101 116 86 101 116 86 101 116 86 101 116 86 101 116 86 101 116 86 101 116 86 101 116 86 101 116 86 101 116 86 101 116 86 101 116 86 101 116 86 101 116 86 101 116 86 101 116 86 101 116 86 101 116 86 101 116 86 101 116 86 101 116 86 101 116 88 103 118 82 97 113 94 109 123 189 194 199 141 151 164 78 92 108 88 103 118 86 101 116 86 101 116 86 101 116 86 101 116 86 101 116 86 101 116 86 101 116 86 101 116 86 101 116 88 103 118 82 97 113 95 112 124 196 201 206 220 228 235 211 219 226 213 221 228 213 221 228 213 221 228 213 221 228 213 221 228 213 221 228 213 221 228 211 219 226 214 222 229 214 222 229 127 134 141 189 194 199 255 255 255 251 251 251 254 254 254 254 254 254 254 254 254 254 254 254 254 254 254 254 254 254 254 254 254 254 254 254 254 254 254 254 254 254 254 254 254 255 255 255 233 234 235 213 221 229 213 221 228 213 221 228 213 221 228 213 221 228 213 221 228 213 221 228 213 221 228 213 221 228 213 221 228 213 221 228 213 221 228 211 219 226 211 219 226 220 228 235 105 112 119 0 0 0 2 2 2 1 1 1 0 0 0 0 0 0 0 0 0 0 0 0 0 0 0 0 0 0 0 0 0 0 0 0 0 0 0 0 0 0 0 0 0 0 0 0 0 0 0 0 0 0 0 0 0 0 0 0 0 0 0 0 0 0 0 0 0 0 0 0
0 0 0 0 0 0 0 0 0 0 0 0 0 0 0 0 0 0 0 0 0 0 0 0 0 0 0 0 0 0 0 0 0 0 0 0 0 0 0 0 0 0 0 0 0 0 0 0 0 0 0 0 0 0 0 0 0 0 0 0 3 3 3 0 0 0 93 96 104 252 252 252 254 254 254 251 251 251 254 254 254 254 254 254 254 254 254 254 254 254 254 254 254 254 254 254 254 254 254 254 254 254 254 254 254 254 254 254 254 254 254 254 254 254 254 254 254 254 254 254 254 254 254 254 254 254 252 252 253 255 255 255 237 238 239 113 125 137 78 92 108 83 98 114 81 96 110 88 102 117 120 132 145 176 183 190 212 220 228 219 227 234 214 222 229 211 219 227 212 220 227 213 221 228 213 221 228 213 221 228 213 221 228 213 221 228 213 221 228 213 221 228 213 221 228 213 221 228 213 221 228 213 221 228 213 221 228 210 219 226 219 224 228 196 201 206 94 109 123 82 97 113 88 103 118 86 101 116 86 101 116 86 101 116 86 101 116 86 101 116 86 101 116 86 101 116 86 101 116 86 101 116 86 101 116 86 101 116 86 101 116 86 101 116 87 101 116 85 98 114 89 104 118 141 151 164 152 163 176 150 161 174 151 162 175 151 162 175 151 162 175 151 162 175 151 162 175 151 162 175 151 162 175 151 162 175 151 162 175 151 162 175 151 162 175 151 162 175 151 162 175 151 162 175 151 162 175 151 162 175 151 162 175 151 162 175 151 162 175 151 162 175 151 162 175 151 162 176 150 160 172 102 116 129 83 98 114 87 102 117 86 101 116 86 101 116 86 101 116 86 101 116 86 101 116 86 101 116 86 101 116 86 101 116 86 101 116 86 101 116 86 101 116 86 101 116 86 101 116 86 101 116 86 101 116 86 101 116 86 101 116 86 101 116 86 101 116 86 101 116 86 101 116 86 101 116 86 101 116 86 101 116 88 103 118 83 98 113 87 102 117 84 98 113 86 101 116 86 101 116 86 101 116 86 101 116 86 101 116 86 101 116 86 101 116 86 101 116 86 101 116 86 101 116 86 101 116 86 101 116 88 103 118 82 97 113 99 113 127 196 201 206 219 227 234 210 218 225 213 221 228 213 221 228 213 221 228 213 221 228 213 221 228 213 221 228 213 221 228 211 220 227 210 219 226 237 238 239 255 255 255 251 251 251 254 254 254 254 254 254 254 254 254 254 254 254 254 254 254 254 254 254 254 254 254 254 254 254 254 254 254 254 254 254 254 254 254 254 254 254 255 255 255 233 234 235 213 221 228 213 221 228 213 221 228 213 221 228 213 221 228 213 221 228 213 221 228 213 221 228 213 221 228 213 221 228 213 221 228 213 221 228 213 221 228 211 219 226 212 220 227 220 228 235 105 112 119 0 0 0 2 2 2 1 1 1 0 0 0 0 0 0 0 0 0 0 0 0 0 0 0 0 0 0 0 0 0 0 0 0 0 0 0 0 0 0 0 0 0 0 0 0 0 0 0 0 0 0 0 0 0 0 0 0 0 0 0 0 0 0 0 0 0
0 0 0 0 0 0 0 0 0 0 0 0 0 0 0 0 0 0 0 0 0 0 0 0 0 0 0 0 0 0 0 0 0 0 0 0 0 0 0 0 0 0 0 0 0 0 0 0 0 0 0 0 0 0 1 1 1 4 4 4 0 0 0 93 96 104 249 250 250 252 252 252 251 251 251 254 254 254 254 254 254 254 254 254 254 254 254 254 254 254 254 254 254 254 254 254 254 254 254 254 254 254 254 254 254 254 254 254 254 254 254 254 254 254 254 254 254 254 254 254 254 254 254 253 253 253 254 254 254 212 218 224 154 163 176 99 113 127 85 100 116 88 103 117 87 102 117 86 101 116 79 95 110 85 98 114 113 126 139 166 176 187 208 215 222 220 228 235 214 222 229 211 219 226 213 221 228 213 221 228 213 221 228 213 221 228 213 221 228 213 221 228 213 221 228 213 221 228 213 221 228 213 221 228 213 221 228 212 220 227 220 228 235 136 147 158 78 92 108 89 104 118 86 101 116 86 101 116 86 101 116 86 101 116 86 101 116 86 101 116 86 101 116 86 101 116 86 101 116 86 101 116 86 101 116 86 101 116 86 101 116 86 101 116 86 101 116 84 99 114 95 112 124 144 154 166 152 163 176 151 162 175 151 162 175 151 162 175 151 162 175 151 162 175 151 162 175 151 162 175 151 162 175 151 162 175 151 162 175 151 162 175 151 162 175 151 162 175 151 162 175 151 162 175 151 162 175 151 162 175 151 162 175 151 162 175 151 162 175 151 162 175 151 162 175 152 163 176 148 159 172 102 116 129 83 99 114 87 102 117 86 101 116 86 101 116 86 101 116 86 101 116 86 101 116 86 101 116 86 101 116 86 101 116 86 101 116 86 101 116 86 101 116 86 101 116 86 101 116 86 101 116 86 101 116 86 101 116 86 101 116 86 101 116 86 101 116 86 101 116 86 101 116 86 101 116 86 101 116 86 101 116 86 101 116 87 102 117 86 101 116 86 102 117 86 101 116 86 101 116 86 101 116 86 101 116 86 101 116 86 101 116 86 101 116 86 101 116 86 101 116 86 101 116 86 101 116 86 101 116 86 101 116 88 103 118 79 95 110 104 117 130 200 207 213 218 226 233 211 219 226 213 221 228 213 221 228 213 221 228 213 221 228 213 221 228 213 221 228 212 221 228 219 224 228 249 250 250 252 252 252 254 254 254 254 254 254 254 254 254 254 254 254 254 254 254 254 254 254 254 254 254 254 254 254 254 254 254 254 254 254 254 254 254 254 254 254 254 254 254 255 255 255 233 234 235 213 221 228 213 221 228 213 221 228 213 221 228 213 221 228 213 221 228 213 221 228 213 221 228 213 221 228 213 221 228 213 221 228 213 221 228 213 221 228 213 221 228 211 219 226 211 219 226 220 228 235 105 112 119 0 0 0 2 2 2 0 1 1 0 0 0 0 0 0 0 0 0 0 0 0 0 0 0 0 0 0 0 0 0 0 0 0 0 0 0 0 0 0 0 0 0 0 0 0 0 0 0 0 0 0 0 0 0 0 0 0 0 0 0 0 0 0
0 0 0 0 0 0 0 0 0 0 0 0 0 0 0 0 0 0 0 0 0 0 0 0 0 0 0 0 0 0 0 0 0 0 0 0 0 0 0 0 0 0 0 0 0 0 0 0 0 0 0 0 0 0 3 3 3 0 0 0 93 96 104 252 252 252 255 255 255 252 252 252 254 254 254 254 254 254 254 254 254 254 254 254 254 254 254 254 254 254 254 254 254 254 254 254 254 254 254 254 254 254 254 254 254 254 254 254 254 254 254 254 254 254 254 254 254 254 254 254 253 253 253 255 255 255 200 207 213 147 158 171 142 154 166 102 116 129 84 99 115 86 102 116 86 101 116 86 101 116 88 102 117 86 101 116 81 96 110 81 96 110 107 120 134 166 176 187 208 215 222 221 229 236 213 221 229 212 220 227 212 220 227 213 221 228 213 221 228 213 221 228 213 221 228 213 221 228 213 221 228 213 221 228 213 221 228 211 220 227 219 227 234 145 156 168 78 92 108 88 103 118 86 101 116 86 101 116 86 101 116 86 101 116 86 101 116 86 101 116 86 101 116 86 101 116 86 101 116 86 101 116 86 101 116 86 101 116 86 101 116 86 101 116 86 101 116 84 99 114 104 117 130 150 160 172 151 162 175 151 162 175 151 162 175 151 162 175 151 162 175 151 162 175 151 162 175 151 162 175 151 162 175 151 162 175 151 162 175 151 162 175 151 162 175 151 162 175 151 162 175 151 162 175 151 162 175 151 162 175 151 162 175 151 162 175 151 162 175 151 162 175 151 162 175 151 162 176 150 160 172 104 117 130 83 98 114 87 102 117 86 101 116 86 101 116 86 101 116 86 101 116 86 101 116 86 101 116 86 101 116 86 101 116 86 101 116 86 101 116 86 101 116 86 101 116 86 101 116 86 101 116 86 101 116 86 101 116 86 101 116 86 101 116 86 101 116 86 101 116 86 101 116 86 101 116 86 101 116 86 101 116 86 101 116 86 101 116 86 101 116 86 101 116 86 101 116 86 101 116 86 101 116 86 101 116 86 101 116 86 101 116 86 101 116 86 101 116 86 101 116 86 101 116 86 101 116 86 101 116 86 101 116 86 101 116 88 103 118 79 95 110 107 120 134 200 207 213 218 226 233 211 219 227 213 221 228 213 221 228 213 221 228 213 221 228 213 221 228 214 220 226 245 246 246 255 255 255 253 253 253 254 254 254 254 254 254 254 254 254 254 254 254 254 254 254 254 254 254 254 254 254 254 254 254 254 254 254 254 254 254 254 254 254 254 254 254 254 254 254 255 255 255 233 234 235 213 221 228 213 221 228 213 221 228 213 221 228 213 221 228 213 221 228 213 221 228 213 221 228 213 221 228 213 221 228 213 221 228 213 221 228 213 221 228 213 221 228 213 221 228 211 219 226 212 220 227 220 228 235 105 112 119 0 0 0 2 2 2 1 1 1 0 0 0 0 0 0 0 0 0 0 0 0 0 0 0 0 0 0 0 0 0 0 0 0 0 0 0 0 0 0 0 0 0 0 0 0 0 0 0 0 0 0 0 0 0 0 0 0 0 0 0
0 0 0 0 0 0 0 0 0 0 0 0 0 0 0 0 0 0 0 0 0 0 0 0 0 0 0 0 0 0 0 0 0 0 0 0 0 0 0 0 0 0 0 0 0 0 0 0 0 0 0 4 4 4 0 0 0 93 96 104 251 251 251 252 252 252 251 251 251 254 254 254 254 254 254 254 254 254 254 254 254 254 254 254 254 254 254 254 254 254 254 254 254 254 254 254 254 254 254 254 254 254 254 254 254 254 254 254 254 254 254 254 254 254 254 254 254 253 253 253 255 255 255 205 209 213 145 156 168 152 164 176 147 158 171 99 113 127 84 100 115 87 101 116 86 101 116 86 101 116 86 101 116 86 101 116 87 102 117 87 102 117 82 97 113 79 95 110 107 120 134 159 168 179 208 215 222 219 227 234 214 222 229 211 219 226 213 221 228 213 221 228 213 221 228 213 221 228 213 221 228 213 221 228 213 221 228 211 219 226 220 228 235 145 156 168 78 92 108 88 103 118 86 101 116 86 101 116 86 101 116 86 101 116 86 101 116 86 101 116 86 101 116 86 101 116 86 101 116 86 101 116 86 101 116 86 101 116 86 101 116 86 101 116 86 101 116 84 99 114 117 129 143 154 165 177 150 161 174 151 162 175 151 162 175 151 162 175 151 162 175 151 162 175 151 162 175 151 162 175 151 162 175 151 162 175 151 162 175 151 162 175 151 162 175 151 162 175 151 162 175 151 162 175 151 162 175 151 162 175 151 162 175 151 162 175 151 162 175 151 162 175 151 162 175 151 162 175 151 161 174 107 120 134 82 98 113 87 102 117 86 101 116 86 101 116 86 101 116 86 101 116 86 101 116 86 101 116 86 101 116 86 101 116 86 101 116 86 101 116 86 101 116 86 101 116 86 101 116 86 101 116 86 101 116 86 101 116 86 101 116 86 101 116 86 101 116 86 101 116 86 101 116 86 101 116 86 101 116 86 101 116 86 101 116 86 101 116 86 101 116 86 101 116 86 101 116 86 101 116 86 101 116 86 101 116 86 101 116 86 101 116 86 101 116 86 101 116 86 101 116 86 101 116 86 101 116 86 101 116 86 101 116 86 101 116 86 101 116 88 103 118 79 95 110 107 120 134 200 207 213 218 226 233 211 219 226 213 221 228 213 221 228 213 221 229 210 218 225 233 234 235 255 255 255 254 254 254 254 254 254 254 254 254 254 254 254 254 254 254 254 254 254 254 254 254 254 254 254 254 254 254 254 254 254 254 254 254 254 254 254 254 254 254 254 254 254 254 254 254 255 255 255 233 234 235 213 221 229 213 221 228 213 221 228 213 221 228 213 221 228 213 221 228 213 221 228 213 221 228 213 221 228 213 221 228 213 221 228 213 221 228 213 221 228 213 221 228 213 221 228 213 221 228 211 219 226 211 219 226 220 228 235 105 112 119 0 0 0 1 1 1 0 0 0 0 0 0 0 0 0 0 0 0 0 0 0 0 0 0 0 0 0 0 0 0 0 0 0 0 0 0 0 0 0 0 0 0 0 0 0 0 0 0 0 0 0 0 0 0 0 0 0
0 0 0 0 0 0 0 0 0 0 0 0 0 0 0 0 0 0 0 0 0 0 0 0 0 0 0 0 0 0 0 0 0 0 0 0 0 0 0 0 0 0 0 0 0 0 0 0 3 3 3 0 0 0 93 96 104 254 254 254 255 255 255 252 252 252 254 254 254 254 254 254 254 254 254 254 254 254 254 254 254 254 254 254 254 254 254 254 254 254 254 254 254 254 254 254 254 254 254 254 254 254 254 254 254 254 254 254 254 254 254 254 254 254 252 252 253 255 255 255 200 207 213 146 157 170 151 162 176 152 163 176 146 157 170 95 112 124 83 99 114 87 102 117 86 101 116 86 101 116 86 101 116 86 101 116 86 101 116 86 101 116 87 102 117 87 103 118 82 97 113 83 96 111 107 120 134 166 176 187 208 215 222 220 228 235 213 221 228 212 220 227 212 220 227 213 221 228 213 221 228 213 221 228 213 221 228 210 218 225 220 228 235 147 158 171 78 92 108 88 103 118 86 101 116 86 101 116 86 101 116 86 101 116 86 101 116 86 101 116 86 101 116 86 101 116 86 101 116 86 101 116 86 101 116 86 101 116 86 101 116 86 101 116 86 101 116 84 99 114 125 137 150 153 164 178 150 161 174 151 162 175 151 162 175 151 162 175 151 162 175 151 162 175 151 162 175 151 162 175 151 162 175 151 162 175 151 162 175 151 162 175 151 162 175 151 162 175 151 162 175 151 162 175 151 162 175 151 162 175 151 162 175 151 162 175 151 162 175 151 162 175 151 162 175 151 162 175 152 162 175 107 120 134 82 98 113 87 102 117 86 101 116 86 101 116 86 101 116 86 101 116 86 101 116 86 101 116 86 101 116 86 101 116 86 101 116 86 101 116 86 101 116 86 101 116 86 101 116 86 101 116 86 101 116 86 101 116 86 101 116 86 101 116 86 101 116 86 101 116 86 101 116 86 101 116 86 101 116 86 101 116 86 101 116 86 101 116 86 101 116 86 101 116 86 101 116 86 101 116 86 101 116 86 101 116 86 101 116 86 101 116 86 101 116 86 101 116 86 101 116 86 101 116 86 101 116 86 101 116 86 101 116 86 101 116 86 101 116 86 101 116 88 103 118 78 92 108 113 126 139 205 209 213 216 224 231 212 220 227 214 222 229 210 219 226 219 224 228 251 251 251 254 254 254 254 254 254 254 254 254 254 254 254 254 254 254 254 254 254 254 254 254 254 254 254 254 254 254 254 254 254 254 254 254 254 254 254 254 254 254 254 254 254 254 254 254 254 254 254 255 255 255 233 234 235 214 222 229 213 221 228 213 221 228 213 221 228 213 221 228 213 221 228 213 221 228 213 221 228 213 221 228 213 221 228 213 221 228 213 221 228 213 221 228 213 221 228 213 221 228 213 221 228 213 221 228 211 219 226 211 219 226 221 229 236 112 122 133 0 0 0 2 2 2 1 1 1 0 0 0 0 0 0 0 0 0 0 0 0 0 0 0 0 0 0 0 0 0 0 0 0 0 0 0 0 0 0 0 0 0 0 0 0 0 0 0 0 0 0 0 0 0
0 0 0 0 0 0 0 0 0 0 0 0 0 0 0 0 0 0 0 0 0 0 0 0 0 0 0 0 0 0 0 0 0 0 0 0 0 0 0 0 0 0 0 0 0 3 3 3 0 0 0 93 96 104 249 250 250 252 252 252 251 251 251 254 254 254 254 254 254 254 254 254 254 254 254 254 254 254 254 254 254 254 254 254 254 254 254 254 254 254 254 254 254 254 254 254 254 254 254 254 254 254 254 254 254 254 254 254 254 254 254 252 253 253 255 255 255 205 209 213 146 157 170 152 163 176 150 161 173 155 164 178 141 151 164 89 104 118 85 100 116 86 101 116 86 101 116 86 101 116 86 101 116 86 101 116 86 101 116 86 101 116 86 101 116 86 101 116 87 102 117 87 102 117 82 98 113 79 95 110 113 126 139 176 183 190 213 221 227 219 227 234 216 224 231 212 220 227 211 219 226 211 219 226 211 219 226 212 220 227 226 233 238 154 165 177 79 95 110 87 102 117 86 101 116 86 101 116 86 101 116 86 101 116 86 101 116 86 101 116 86 101 116 86 101 116 86 101 116 86 101 116 86 101 116 86 101 116 86 101 116 86 101 116 86 101 116 88 102 117 136 147 158 153 164 177 151 162 175 151 162 175 151 162 175 151 162 175 151 162 175 151 162 175 151 162 175 151 162 175 151 162 175 151 162 175 151 162 175 151 162 175 151 162 175 151 162 175 151 162 175 151 162 175 151 162 175 151 162 175 151 162 175 151 162 175 151 162 175 151 162 175 151 162 175 151 162 175 152 162 175 107 120 134 83 98 113 87 102 117 86 101 116 86 101 116 86 101 116 86 101 116 86 101 116 86 101 116 86 101 116 86 101 116 86 101 116 86 101 116 86 101 116 86 101 116 86 101 116 86 101 116 86 101 116 86 101 116 86 101 116 86 101 116 86 101 116 86 101 116 86 101 116 86 101 116 86 101 116 86 101 116 86 101 116 86 101 116 86 101 116 86 101 116 86 101 116 86 101 116 86 101 116 86 101 116 86 101 116 86 101 116 86 101 116 86 101 116 86 101 116 86 101 116 86 101 116 86 101 116 86 101 116 86 101 116 86 101 116 86 101 116 86 101 116 88 103 118 79 95 110 113 126 139 205 209 213 218 226 233 211 220 227 215 221 228 245 246 246 255 255 255 253 253 253 254 254 254 254 254 254 254 254 254 254 254 254 254 254 254 254 254 254 254 254 254 254 254 254 254 254 254 254 254 254 254 254 254 254 254 254 254 254 254 253 253 253 252 253 253 253 254 254 233 234 235 212 220 227 211 219 226 212 220 227 213 221 228 213 221 228 213 221 228 213 221 228 213 221 228 213 221 228 213 221 228 213 221 228 213 221 228 213 221 228 213 221 228 213 221 228 213 221 228 213 221 228 213 221 228 211 219 226 211 219 225 226 233 238 105 112 119 0 0 0 1 1 1 0 0 0 0 0 0 0 0 0 0 0 0 0 0 0 0 0 0 0 0 0 0 0 0 0 0 0 0 0 0 0 0 0 0 0 0 0 0 0 0 0 0 0 0 0
0 0 0 0 0 0 0 0 0 0 0 0 0 0 0 0 0 0 0 0 0 0 0 0 0 0 0 0 0 0 0 0 0 0 0 0 0 0 0 0 0 0 4 4 4 0 0 0 93 96 104 254 254 254 255 255 255 252 252 252 254 254 254 254 254 254 254 254 254 254 254 254 254 254 254 254 254 254 254 254 254 254 254 254 254 254 254 254 254 254 254 254 254 254 254 254 254 254 254 254 254 254 254 254 254 253 253 253 252 252 253 255 255 255 200 207 213 146 157 170 152 163 176 151 162 175 150 161 174 154 163 176 129 141 153 87 103 118 86 101 116 86 101 116 86 101 116 86 101 116 86 101 116 86 101 116 86 101 116 86 101 116 86 101 116 86 101 116 86 101 116 86 101 116 87 102 116 87 103 118 82 97 113 84 98 113 117 129 143 166 176 187 200 207 213 216 224 231 221 229 236 222 230 237 220 228 235 210 218 225 176 183 190 99 113 127 83 98 113 87 102 117 86 101 116 86 101 116 86 101 116 86 101 116 86 101 116 86 101 116 86 101 116 86 101 116 86 101 116 86 101 116 86 101 116 86 101 116 86 101 116 86 101 116 85 100 115 94 109 123 141 151 164 153 164 177 151 162 175 151 162 175 151 162 175 151 162 175 151 162 175 151 162 175 151 162 175 151 162 175 151 162 175 151 162 175 151 162 175 151 162 175 151 162 175 151 162 175 151 162 175 151 162 175 151 162 175 151 162 175 151 162 175 151 162 175 151 162 175 151 162 175 151 162 175 151 162 175 151 161 174 107 120 134 82 98 113 87 102 117 86 101 116 86 101 116 86 101 116 86 101 116 86 101 116 86 101 116 86 101 116 86 101 116 86 101 116 86 101 116 86 101 116 86 101 116 86 101 116 86 101 116 86 101 116 86 101 116 86 101 116 86 101 116 86 101 116 86 101 116 86 101 116 86 101 116 86 101 116 86 101 116 86 101 116 86 101 116 86 101 116 86 101 116 86 101 116 86 101 116 86 101 116 86 101 116 86 101 116 86 101 116 86 101 116 86 101 116 86 101 116 86 101 116 86 101 116 86 101 116 86 101 116 86 101 116 86 101 116 86 101 116 86 101 116 86 101 116 88 102 117 79 95 110 117 129 143 208 215 222 214 222 229 233 234 235 255 255 255 254 254 254 254 254 254 254 254 254 254 254 254 254 254 254 254 254 254 254 254 254 254 254 254 254 254 254 254 254 254 254 254 254 254 254 254 253 253 254 253 253 253 254 254 254 255 255 255 255 255 255 255 255 255 237 238 239 226 233 238 221 229 236 218 226 233 214 222 229 212 220 227 212 220 227 213 221 228 213 221 228 213 221 228 213 221 228 213 221 228 213 221 228 213 221 228 213 221 228 213 221 228 213 221 228 213 221 228 213 221 228 213 221 228 211 219 226 211 219 226 221 229 236 105 112 119 0 0 0 3 3 3 1 1 1 0 0 0 0 0 0 0 0 0 0 0 0 0 0 0 0 0 0 0 0 0 0 0 0 0 0 0 0 0 0 0 0 0 0 0 0 0 0 0
0 0 0 0 0 0 0 0 0 0 0 0 0 0 0 0 0 0 0 0 0 0 0 0 0 0 0 0 0 0 0 0 0 0 0 0 0 0 0 3 3 3 0 0 0 93 96 104 249 250 250 252 252 252 251 251 251 254 254 254 254 254 254 254 254 254 254 254 254 254 254 254 254 254 254 254 254 254 254 254 254 254 254 254 254 254 254 254 254 254 254 254 254 254 254 254 254 254 254 254 254 254 254 254 254 253 253 253 255 255 255 196 201 206 146 157 170 152 162 175 151 162 175 151 162 175 151 162 175 153 164 176 117 129 143 83 99 114 87 102 117 86 101 116 86 101 116 86 101 116 86 101 116 86 101 116 86 101 116 86 101 116 86 101 116 86 101 116 86 101 116 86 101 116 86 101 116 86 101 116 87 102 117 86 101 116 82 97 113 78 92 108 99 113 127 133 142 152 145 156 168 151 162 174 144 154 166 117 129 143 85 98 114 83 99 114 86 101 116 86 101 116 86 101 116 86 101 116 86 101 116 86 101 116 86 101 116 86 101 116 86 101 116 86 101 116 86 101 116 86 101 116 86 101 116 86 101 116 86 101 116 87 102 116 83 99 114 99 113 127 150 160 172 151 162 175 151 162 175 151 162 175 151 162 175 151 162 175 151 162 175 151 162 175 151 162 175 151 162 175 151 162 175 151 162 175 151 162 175 151 162 175 151 162 175 151 162 175 151 162 175 151 162 175 151 162 175 151 162 175 151 162 175 151 162 175 151 162 175 151 162 175 151 162 175 151 162 175 151 162 175 112 122 133 83 99 114 87 101 117 86 101 116 86 101 116 86 101 116 86 101 116 86 101 116 86 101 116 86 101 116 86 101 116 86 101 116 86 101 116 86 101 116 86 101 116 86 101 116 86 101 116 86 101 116 86 101 116 86 101 116 86 101 116 86 101 116 86 101 116 86 101 116 86 101 116 86 101 116 86 101 116 86 101 116 86 101 116 86 101 116 86 101 116 86 101 116 86 101 116 86 101 116 86 101 116 86 101 116 86 101 116 86 101 116 86 101 116 86 101 116 86 101 116 86 101 116 86 101 116 86 101 116 86 101 116 86 101 116 86 101 116 86 101 116 86 101 116 86 101 116 88 103 118 79 95 110 120 132 145 221 227 232 253 253 253 254 254 254 254 254 254 254 254 254 254 254 254 254 254 254 254 254 254 254 254 254 254 254 254 254 254 254 254 254 254 254 254 254 254 254 254 253 253 253 255 255 255 255 255 255 254 254 254 233 234 235 211 216 222 211 216 222 189 194 199 150 160 172 166 176 187 196 201 206 212 218 224 214 222 229 218 226 233 214 222 229 212 220 227 213 221 228 213 221 228 213 221 228 213 221 228 213 221 228 213 221 228 213 221 228 213 221 228 213 221 228 213 221 228 213 221 228 213 221 228 211 219 226 212 219 226 220 228 235 105 112 119 0 0 0 1 2 2 0 0 0 0 0 0 0 0 0 0 0 0 0 0 0 0 0 0 0 0 0 0 0 0 0 0 0 0 0 0 0 0 0 0 0 0 0 0 0
0 0 0 0 0 0 0 0 0 0 0 0 0 0 0 0 0 0 0 0 0 0 0 0 0 0 0 0 0 0 0 0 0 1 1 1 4 4 4 0 0 0 80 84 89 245 246 246 255 255 255 251 251 251 254 254 254 254 254 254 254 254 254 254 254 254 254 254 254 254 254 254 254 254 254 254 254 254 254 254 254 254 254 254 254 254 254 254 254 254 254 254 254 254 254 254 254 254 254 254 254 254 252 252 252 255 255 255 196 201 206 142 154 166 152 163 176 151 162 175 151 162 175 151 162 175 151 162 175 152 163 176 107 120 134 83 99 114 87 102 116 86 101 116 86 101 116 86 101 116 86 101 116 86 101 116 86 101 116 86 101 116 86 101 116 86 101 116 86 101 116 86 101 116 86 101 116 86 101 116 86 101 116 86 101 116 87 102 117 88 103 117 83 99 114 78 92 108 78 92 108 79 95 110 78 92 108 79 95 110 86 102 117 87 101 116 86 101 116 86 101 116 86 101 116 86 101 116 86 101 116 86 101 116 86 101 116 86 101 116 86 101 116 86 101 116 86 101 116 86 101 116 86 101 116 86 101 116 86 101 116 87 102 117 83 98 113 112 122 133 151 161 174 151 162 175 151 162 175 151 162 175 151 162 175 151 162 175 151 162 175 151 162 175 151 162 175 151 162 175 151 162 175 151 162 175 151 162 175 151 162 175 151 162 175 151 162 175 151 162 175 151 162 175 151 162 175 151 162 175 151 162 175 151 162 175 151 162 175 151 162 175 151 162 175 151 162 175 151 161 174 113 125 137 83 99 114 87 101 116 86 101 116 86 101 116 86 101 116 86 101 116 86 101 116 86 101 116 86 101 116 86 101 116 86 101 116 86 101 116 86 101 116 86 101 116 86 101 116 86 101 116 86 101 116 86 101 116 86 101 116 86 101 116 86 101 116 86 101 116 86 101 116 86 101 116 86 101 116 86 101 116 86 101 116 86 101 116 86 101 116 86 101 116 86 101 116 86 101 116 86 101 116 86 101 116 86 101 116 86 101 116 86 101 116 86 101 116 86 101 116 86 101 116 86 101 116 86 101 116 86 101 116 86 101 116 86 101 116 86 101 116 86 101 116 86 101 116 86 101 116 87 102 117 82 98 113 102 116 129 237 238 239 254 255 255 253 253 253 254 254 254 254 254 254 254 254 254 254 254 254 254 254 254 254 254 254 254 254 254 254 254 254 254 254 254 254 254 254 253 253 253 255 255 255 245 246 246 205 209 213 166 176 187 154 165 177 150 160 172 151 162 174 120 132 145 78 92 108 85 98 114 94 109 123 99 113 127 129 141 153 189 194 199 211 219 226 214 222 229 211 219 227 213 221 228 213 221 228 213 221 228 213 221 228 213 221 228 213 221 228 213 221 228 213 221 228 213 221 228 213 221 228 213 221 228 213 221 228 211 219 226 211 219 226 221 229 236 105 112 119 0 0 0 2 3 3 1 1 1 0 0 0 0 0 0 0 0 0 0 0 0 0 0 0 0 0 0 0 0 0 0 0 0 0 0 0 0 0 0 0 0 0
0 0 0 0 0 0 0 0 0 0 0 0 0 0 0 0 0 0 0 0 0 0 0 0 0 0 0 0 0 0 0 0 0 3 3 3 0 0 0 63 66 68 233 234 235 255 255 255 251 251 251 254 254 254 254 254 254 254 254 254 254 254 254 254 254 254 254 254 254 254 254 254 254 254 254 254 254 254 254 254 254 254 254 254 254 254 254 254 254 254 254 254 254 254 254 254 254 254 254 253 253 253 255 255 255 196 201 206 142 154 166 153 164 177 151 162 175 151 162 175 151 162 175 151 162 175 152 163 176 145 156 168 95 112 124 85 100 115 86 101 116 86 101 116 86 101 116 86 101 116 86 101 116 86 101 116 86 101 116 86 101 116 86 101 116 86 101 116 86 101 116 86 101 116 86 101 116 86 101 116 86 101 116 86 101 116 86 101 116 86 101 116 87 102 117 88 103 118 88 103 118 87 102 117 88 103 118 88 103 117 86 101 116 86 101 116 86 101 116 86 101 116 86 101 116 86 101 116 86 101 116 86 101 116 86 101 116 86 101 116 86 101 116 86 101 116 86 101 116 86 101 116 86 101 116 86 101 116 86 101 116 87 101 116 85 98 114 117 129 143 151 162 176 151 162 175 151 162 175 151 162 175 151 162 175 151 162 175 151 162 175 151 162 175 151 162 175 151 162 175 151 162 175 151 162 175 151 162 175 151 162 175 151 162 175 151 162 175 151 162 175 151 162 175 151 162 175 151 162 175 151 162 175 151 162 175 151 162 175 151 162 175 151 162 175 151 162 175 152 163 175 117 129 143 83 98 113 87 102 117 86 101 116 86 101 116 86 101 116 86 101 116 86 101 116 86 101 116 86 101 116 86 101 116 86 101 116 86 101 116 86 101 116 86 101 116 86 101 116 86 101 116 86 101 116 86 101 116 86 101 116 86 101 116 86 101 116 86 101 116 86 101 116 86 101 116 86 101 116 86 101 116 86 101 116 86 101 116 86 101 116 86 101 116 86 101 116 86 101 116 86 101 116 86 101 116 86 101 116 86 101 116 86 101 116 86 101 116 86 101 116 86 101 116 86 101 116 86 101 116 86 101 116 86 101 116 86 101 116 86 101 116 86 101 116 86 101 116 86 101 116 87 102 117 82 97 113 200 207 213 255 255 255 252 253 253 254 254 254 254 254 254 254 254 254 254 254 254 254 254 254 254 254 254 254 254 254 254 254 254 254 254 254 254 254 254 253 253 253 255 255 255 226 230 232 166 176 187 145 156 168 148 159 172 150 161 174 151 162 176 153 164 178 129 141 153 89 104 118 86 101 117 84 99 114 82 98 113 81 96 110 85 98 114 120 132 145 211 216 222 221 229 236 210 218 225 213 221 228 213 221 228 213 221 228 213 221 228 213 221 228 213 221 228 213 221 228 213 221 228 213 221 228 213 221 228 213 221 228 213 221 228 211 219 226 212 220 227 221 229 236 105 112 119 0 0 0 2 2 2 0 0 0 0 0 0 0 0 0 0 0 0 0 0 0 0 0 0 0 0 0 0 0 0 0 0 0 0 0 0 0 0 0
0 0 0 0 0 0 0 0 0 0 0 0 0 0 0 0 0 0 0 0 0 0 0 0 0 0 0 0 0 0 3 3 3 0 0 0 63 66 68 233 234 235 255 255 255 251 251 251 254 254 254 254 254 254 254 254 254 254 254 254 254 254 254 254 254 254 254 254 254 254 254 254 254 254 254 254 254 254 254 254 254 254 254 254 254 254 254 254 254 254 254 254 254 254 254 254 252 252 252 255 255 255 196 201 206 142 154 166 154 163 176 151 162 175 151 162 175 151 162 175 151 162 175 151 162 175 153 164 177 136 147 158 87 101 117 86 101 116 86 101 116 86 101 116 86 101 116 86 101 116 86 101 116 86 101 116 86 101 116 86 101 116 86 101 116 86 101 116 86 101 116 86 101 116 86 101 116 86 101 116 86 101 116 86 101 116 86 101 116 86 101 116 86 101 116 86 101 116 86 101 116 86 101 116 86 101 116 86 101 116 86 101 116 86 101 116 86 101 116 86 101 116 86 101 116 86 101 116 86 101 116 86 101 116 86 101 116 86 101 116 86 101 116 86 101 116 86 101 116 86 101 116 86 101 116 86 101 116 86 101 116 86 101 116 87 101 116 129 141 153 153 164 176 150 161 174 151 162 175 151 162 175 151 162 175 151 162 175 151 162 175 151 162 175 151 162 175 151 162 175 151 162 175 151 162 175 151 162 175 151 162 175 151 162 175 151 162 175 151 162 175 151 162 175 151 162 175 151 162 175 151 162 175 151 162 175 151 162 175 151 162 175 151 162 175 151 162 175 152 162 175 117 129 143 83 99 114 87 102 117 86 101 116 86 101 116 86 101 116 86 101 116 86 101 116 86 101 116 86 101 116 86 101 116 86 101 116 86 101 116 86 101 116 86 101 116 86 101 116 86 101 116 86 101 116 86 101 116 86 101 116 86 101 116 86 101 116 86 101 116 86 101 116 86 101 116 86 101 116 86 101 116 86 101 116 86 101 116 86 101 116 86 101 116 86 101 116 86 101 116 86 101 116 86 101 116 86 101 116 86 101 116 86 101 116 86 101 116 86 101 116 86 101 116 86 101 116 86 101 116 86 101 116 86 101 116 86 101 116 86 101 116 86 101 116 86 101 116 89 104 118 78 92 108 159 168 179 255 255 255 252 252 252 254 254 254 254 254 254 254 254 254 254 254 254 254 254 254 254 254 254 254 254 254 254 254 254 254 254 254 254 254 254 253 253 253 255 255 255 212 218 224 151 162 174 147 158 171 154 163 176 152 162 175 151 162 175 151 162 175 153 164 177 142 154 166 89 104 118 85 100 115 87 102 116 87 102 117 87 102 117 87 102 117 78 92 108 113 125 137 214 220 226 221 229 236 210 218 225 213 221 228 213 221 228 213 221 228 213 221 228 213 221 228 213 221 228 213 221 228 213 221 228 213 221 228 213 221 228 213 221 228 213 221 228 211 219 226 211 219 226 222 230 237 105 112 119 0 0 0 2 2 2 1 1 1 0 0 0 0 0 0 0 0 0 0 0 0 0 0 0 0 0 0 0 0 0 0 0 0 0 0 0
0 0 0 0 0 0 0 0 0 0 0 0 0 0 0 0 0 0 0 0 0 0 0 0 0 0 0 3 3 3 0 0 0 63 66 68 233 234 235 255 255 255 251 251 251 254 254 254 254 254 254 254 254 254 254 254 254 254 254 254 254 254 254 254 254 254 254 254 254 254 254 254 254 254 254 254 254 254 254 254 254 254 254 254 254 254 254 254 254 254 254 254 254 253 253 254 255 255 255 196 201 206 142 154 166 152 163 177 151 162 175 151 162 175 151 162 175 151 162 175 151 162 175 150 161 174 155 164 178 125 137 150 83 98 113 86 101 116 86 101 116 86 101 116 86 101 116 86 101 116 86 101 116 86 101 116 86 101 116 86 101 116 86 101 116 86 101 116 86 101 116 86 101 116 86 101 116 86 101 116 86 101 116 86 101 116 86 101 116 86 101 116 86 101 116 86 101 116 86 101 116 86 101 116 86 101 116 86 101 116 86 101 116 86 101 116 86 101 116 86 101 116 86 101 116 86 101 116 86 101 116 86 101 116 86 101 116 86 101 116 86 101 116 86 101 116 86 101 116 86 101 116 86 101 116 86 101 116 86 101 116 85 101 116 88 104 119 141 151 164 154 165 177 150 161 174 151 162 175 151 162 175 151 162 175 151 162 175 151 162 175 151 162 175 151 162 175 151 162 175 151 162 175 151 162 175 151 162 175 151 162 175 151 162 175 151 162 175 151 162 175 151 162 175 151 162 175 151 162 175 151 162 175 151 162 175 151 162 175 151 162 175 151 162 175 151 162 175 152 163 176 117 129 143 84 99 114 86 101 116 86 101 116 86 101 116 86 101 116 86 101 116 86 101 116 86 101 116 86 101 116 86 101 116 86 101 116 86 101 116 86 101 116 86 101 116 86 101 116 86 101 116 86 101 116 86 101 116 86 101 116 86 101 116 86 101 116 86 101 116 86 101 116 86 101 116 86 101 116 86 101 116 86 101 116 86 101 116 86 101 116 86 101 116 86 101 116 86 101 116 86 101 116 86 101 116 86 101 116 86 101 116 86 101 116 86 101 116 86 101 116 86 101 116 86 101 116 86 101 116 86 101 116 86 101 116 86 101 116 86 101 116 86 101 116 88 103 118 79 95 110 112 122 133 237 238 239 253 253 253 253 253 253 254 254 254 254 254 254 254 254 254 254 254 254 254 254 254 254 254 254 254 254 254 254 254 254 253 253 253 254 254 254 255 255 255 205 209 213 145 156 168 151 162 176 152 163 176 151 162 175 151 162 175 151 162 175 151 162 175 153 164 177 141 151 164 89 104 118 85 100 115 86 101 116 86 101 116 86 101 116 86 101 116 88 103 118 79 95 110 112 122 133 214 220 226 221 229 236 211 219 226 213 221 228 213 221 228 213 221 228 213 221 228 213 221 228 213 221 228 213 221 228 213 221 228 213 221 228 213 221 228 213 221 228 213 221 228 211 219 226 212 220 227 221 229 236 105 112 119 0 0 0 2 2 2 1 1 1 0 0 0 0 0 0 0 0 0 0 0 0 0 0 0 0 0 0 0 0 0 0 0 0
0 0 0 0 0 0 0 0 0 0 0 0 0 0 0 0 0 0 0 0 0 0 0 0 3 3 3 0 0 0 63 66 68 237 238 239 255 255 255 251 251 251 254 254 254 254 254 254 254 254 254 254 254 254 254 254 254 254 254 254 254 254 254 254 254 254 254 254 254 254 254 254 254 254 254 254 254 254 254 254 254 254 254 254 254 254 254 253 254 254 252 253 253 255 255 255 200 207 213 145 156 168 152 164 176 151 162 175 151 162 175 151 162 175 151 162 175 151 162 175 151 162 175 150 162 175 153 164 177 113 126 139 83 99 114 87 102 117 86 101 116 86 101 116 86 101 116 86 101 116 86 101 116 86 101 116 86 101 116 86 101 116 86 101 116 86 101 116 86 101 116 86 101 116 86 101 116 86 101 116 86 101 116 86 101 116 86 101 116 86 101 116 86 101 116 86 101 116 86 101 116 86 101 116 86 101 116 86 101 116 86 101 116 86 101 116 86 101 116 86 101 116 86 101 116 86 101 116 86 101 116 86 101 116 86 101 116 86 101 116 86 101 116 86 101 116 86 101 116 86 101 116 86 101 116 86 101 116 87 102 117 84 99 114 94 109 123 145 156 168 152 163 176 151 162 175 151 162 175 151 162 175 151 162 175 151 162 175 151 162 175 151 162 175 151 162 175 151 162 175 151 162 175 151 162 175 151 162 175 151 162 175 151 162 175 151 162 175 151 162 175 151 162 175 151 162 175 151 162 175 151 162 175 151 162 175 151 162 175 151 162 175 151 162 175 151 162 175 151 162 174 113 125 137 84 99 114 87 101 116 86 101 116 86 101 116 86 101 116 86 101 116 86 101 116 86 101 116 86 101 116 86 101 116 86 101 116 86 101 116 86 101 116 86 101 116 86 101 116 86 101 116 86 101 116 86 101 116 86 101 116 86 101 116 86 101 116 86 101 116 86 101 116 86 101 116 86 101 116 86 101 116 86 101 116 86 101 116 86 101 116 86 101 116 86 101 116 86 101 116 86 101 116 86 101 116 86 101 116 86 101 116 86 101 116 86 101 116 86 101 116 86 101 116 86 101 116 86 101 116 86 101 116 86 101 116 86 101 116 86 101 116 87 102 117 82 97 113 107 120 134 211 216 222 255 255 255 252 252 252 254 254 254 254 254 254 254 254 254 254 254 254 254 254 254 254 254 254 254 254 254 254 254 254 253 253 253 255 255 255 252 252 252 196 201 206 144 154 166 152 163 175 152 163 176 151 162 175 151 162 175 151 162 175 151 162 175 151 162 175 153 164 177 133 142 152 89 104 118 85 100 116 86 101 116 86 101 116 86 101 116 86 101 116 86 101 116 88 103 118 81 96 110 105 115 128 189 194 199 218 226 233 211 219 227 213 221 228 213 221 228 213 221 228 213 221 228 213 221 228 213 221 228 213 221 228 213 221 228 213 221 228 213 221 228 213 221 228 213 221 228 211 219 226 211 219 226 221 229 236 105 112 119 0 0 0 3 3 3 0 1 1 0 0 0 0 0 0 0 0 0 0 0 0 0 0 0 0 0 0 0 0 0
0 0 0 0 0 0 0 0 0 0 0 0 0 0 0 0 0 0 0 0 0 2 2 2 0 0 0 63 66 68 233 234 235 255 255 255 251 251 251 254 254 254 254 254 254 254 254 254 254 254 254 254 254 254 254 254 254 253 253 253 253 253 253 253 253 253 253 253 253 253 253 253 253 253 253 253 253 253 253 253 253 253 253 253 253 253 253 254 254 254 255 255 255 205 209 213 146 157 170 152 163 176 151 162 175 151 162 175 151 162 175 151 162 175 151 162 175 151 162 175 151 162 175 151 162 176 148 159 172 102 116 129 84 99 114 87 102 117 86 101 116 86 101 116 86 101 116 86 101 116 86 101 116 86 101 116 86 101 116 86 101 116 86 101 116 86 101 116 86 101 116 86 101 116 86 101 116 86 101 116 86 101 116 86 101 116 86 101 116 86 101 116 86 101 116 86 101 116 86 101 116 86 101 116 86 101 116 86 101 116 86 101 116 86 101 116 86 101 116 86 101 116 86 101 116 86 101 116 86 101 116 86 101 116 86 101 116 86 101 116 86 101 116 86 101 116 86 101 116 86 101 116 86 101 116 86 101 116 87 101 116 84 99 114 102 116 129 146 157 170 152 163 176 151 162 175 151 162 175 151 162 175 151 162 175 151 162 175 151 162 175 151 162 175 151 162 175 151 162 175 151 162 175 151 162 175 151 162 175 151 162 175 151 162 175 151 162 175 151 162 175 151 162 175 151 162 175 151 162 175 151 162 175 151 162 175 151 162 175 151 162 175 151 162 175 151 162 175 151 161 174 112 122 133 84 99 114 87 102 116 86 101 116 86 101 116 86 101 116 86 101 116 86 101 116 86 101 116 86 101 116 86 101 116 86 101 116 86 101 116 86 101 116 86 101 116 86 101 116 86 101 116 86 101 116 86 101 116 86 101 116 86 101 116 86 101 116 86 101 116 86 101 116 86 101 116 86 101 116 86 101 116 86 101 116 86 101 116 86 101 116 86 101 116 86 101 116 86 101 116 86 101 116 86 101 116 86 101 116 86 101 116 86 101 116 86 101 116 86 101 116 86 101 116 86 101 116 86 101 116 86 101 116 86 101 116 86 101 116 87 102 117 82 97 113 107 120 134 145 156 168 196 201 206 255 255 255 253 253 253 253 253 253 253 253 253 253 253 253 253 253 253 253 253 253 253 253 253 253 253 253 254 254 254 255 255 255 245 246 246 176 183 190 142 154 166 152 163 177 151 162 175 151 162 175 151 162 175 151 162 175 151 162 175 151 162 175 151 162 175 153 164 177 129 141 153 89 104 118 86 100 115 86 101 116 86 101 116 86 101 116 86 101 116 86 101 116 86 101 116 88 103 118 82 97 113 88 103 117 176 183 190 219 227 234 211 219 226 213 221 228 213 221 228 213 221 228 213 221 228 213 221 228 213 221 228 213 221 228 213 221 228 213 221 228 213 221 228 213 221 228 213 221 228 211 219 226 212 220 226 220 228 235 105 112 119 0 0 0 2 3 3 0 0 0 0 0 0 0 0 0 0 0 0 0 0 0 0 0 0 0 0 0
0 0 0 0 0 0 0 0 0 0 0 0 0 0 0 0 0 0 3 3 3 0 0 0 63 66 68 233 234 235 255 255 255 251 251 251 254 254 254 254 254 254 254 254 254 254 254 254 254 254 254 254 254 254 253 253 253 255 255 255 255 255 255 255 255 255 255 255 255 255 255 255 255 255 255 255 255 255 255 255 255 255 255 255 255 255 255 253 253 251 200 207 213 146 157 170 152 163 176 151 162 175 151 162 175 151 162 175 151 162 175 151 162 175 151 162 175 151 162 175 150 161 174 153 164 177 142 154 166 94 109 123 85 100 115 86 101 116 86 101 116 86 101 116 86 101 116 86 101 116 86 101 116 86 101 116 86 101 116 86 101 116 86 101 116 86 101 116 86 101 116 86 101 116 86 101 116 86 101 116 86 101 116 86 101 116 86 101 116 86 101 116 86 101 116 86 101 116 86 101 116 86 101 116 86 101 116 86 101 116 86 101 116 86 101 116 86 101 116 86 101 116 86 101 116 86 101 116 86 101 116 86 101 116 86 101 116 86 101 116 86 101 116 86 101 116 86 101 116 86 101 116 86 101 116 86 101 116 87 102 117 83 98 113 113 126 139 153 164 177 150 161 175 151 162 175 151 162 175 151 162 175 151 162 175 151 162 175 151 162 175 151 162 175 151 162 175 151 162 175 151 162 175 151 162 175 151 162 175 151 162 175 151 162 175 151 162 175 151 162 175 151 162 175 151 162 175 151 162 175 151 162 175 151 162 175 151 162 175 151 162 175 151 162 175 151 162 175 151 162 174 107 120 134 82 98 113 87 102 117 86 101 116 86 101 116 86 101 116 86 101 116 86 101 116 86 101 116 86 101 116 86 101 116 86 101 116 86 101 116 86 101 116 86 101 116 86 101 116 86 101 116 86 101 116 86 101 116 86 101 116 86 101 116 86 101 116 86 101 116 86 101 116 86 101 116 86 101 116 86 101 116 86 101 116 86 101 116 86 101 116 86 101 116 86 101 116 86 101 116 86 101 116 86 101 116 86 101 116 86 101 116 86 101 116 86 101 116 86 101 116 86 101 116 86 101 116 86 101 116 86 101 116 86 101 116 87 102 117 82 97 113 107 120 134 150 161 173 150 162 175 150 161 173 226 230 232 254 254 254 255 255 255 255 255 255 255 255 255 255 255 255 255 255 255 255 255 255 255 255 255 253 253 251 212 218 224 159 168 179 145 156 168 153 164 177 151 162 175 151 162 175 151 162 175 151 162 175 151 162 175 151 162 175 151 162 175 151 162 175 153 164 177 129 141 153 87 102 118 86 101 116 86 101 116 86 101 116 86 101 116 86 101 116 86 101 116 86 101 116 86 101 116 88 103 118 83 98 113 89 104 118 176 183 190 219 227 234 212 220 227 213 221 228 213 221 228 213 221 228 213 221 228 213 221 228 213 221 228 213 221 228 213 221 228 213 221 228 213 221 228 213 221 228 213 221 228 211 219 226 211 219 226 222 230 237 93 96 104 0 0 0 4 4 4 0 0 0 0 0 0 0 0 0 0 0 0 0 0 0 0 0 0
0 0 0 0 0 0 0 0 0 0 0 0 0 0 0 3 3 3 0 0 0 63 66 68 226 230 232 255 255 255 251 251 251 254 254 254 254 254 254 254 254 254 254 254 254 254 254 254 253 254 254 254 254 254 255 255 255 245 246 246 219 224 228 214 220 226 219 224 228 226 230 232 226 230 232 226 230 232 226 230 232 221 227 232 208 215 222 166 176 187 146 157 170 152 163 176 151 162 175 151 162 175 151 162 175 151 162 175 151 162 175 151 162 175 151 162 175 151 162 175 150 161 174 153 164 177 136 147 158 86 102 116 85 101 116 86 101 116 86 101 116 86 101 116 86 101 116 86 101 116 86 101 116 86 101 116 86 101 116 86 101 116 86 101 116 86 101 116 86 101 116 86 101 116 86 101 116 86 101 116 86 101 116 86 101 116 86 101 116 86 101 116 86 101 116 86 101 116 86 101 116 86 101 116 86 101 116 86 101 116 86 101 116 86 101 116 86 101 116 86 101 116 86 101 116 86 101 116 86 101 116 86 101 116 86 101 116 86 101 116 86 101 116 86 101 116 86 101 116 86 101 116 86 101 116 86 101 116 86 101 116 83 98 113 120 132 145 155 164 178 150 161 174 151 162 175 151 162 175 151 162 175 151 162 175 151 162 175 151 162 175 151 162 175 151 162 175 151 162 175 151 162 175 151 162 175 151 162 175 151 162 175 151 162 175 151 162 175 151 162 175 151 162 175 151 162 175 151 162 175 151 162 175 151 162 175 151 162 175 151 162 175 151 162 175 152 163 176 149 161 174 99 113 127 83 99 114 87 102 117 86 101 116 86 101 116 86 101 116 86 101 116 86 101 116 86 101 116 86 101 116 86 101 116 86 101 116 86 101 116 86 101 116 86 101 116 86 101 116 86 101 116 86 101 116 86 101 116 86 101 116 86 101 116 86 101 116 86 101 116 86 101 116 86 101 116 86 101 116 86 101 116 86 101 116 86 101 116 86 101 116 86 101 116 86 101 116 86 101 116 86 101 116 86 101 116 86 101 116 86 101 116 86 101 116 86 101 116 86 101 116 86 101 116 86 101 116 86 101 116 86 101 116 87 102 117 82 98 113 107 120 134 150 161 173 152 163 176 150 161 174 150 162 175 150 160 172 189 194 199 219 224 228 226 230 232 233 234 235 233 234 235 233 234 235 219 224 228 205 209 213 166 176 187 146 157 170 148 159 172 153 164 176 151 162 175 151 162 175 151 162 175 151 162 175 151 162 175 151 162 175 151 162 175 151 162 175 151 162 175 153 164 177 129 141 153 87 103 118 86 101 116 86 101 116 86 101 116 86 101 116 86 101 116 86 101 116 86 101 116 86 101 116 86 101 116 88 103 117 83 98 114 88 103 117 176 183 190 216 224 231 210 219 226 213 221 228 213 221 228 213 221 228 213 221 228 213 221 228 213 221 228 213 221 228 213 221 228 213 221 228 213 221 228 213 221 228 213 221 228 211 219 226 212 220 227 216 224 231 80 84 89 0 0 0 3 3 3 0 0 0 0 0 0 0 0 0 0 0 0 0 0 0
0 0 0 0 0 0 0 0 0 0 0 0 2 2 2 0 0 0 34 52 45 205 209 213 255 255 255 249 250 250 254 254 254 254 254 254 254 254 254 254 254 254 254 254 254 254 254 254 255 255 255 254 254 254 211 216 222 159 168 179 145 156 168 142 154 166 145 156 168 146 157 170 146 157 170 150 160 172 147 158 171 145 156 168 142 154 166 149 161 174 152 163 176 151 162 175 151 162 175 151 162 175 151 162 175 151 162 175 151 162 175 151 162 175 151 162 175 151 162 175 151 162 175 151 162 176 120 132 145 85 100 115 86 101 116 86 101 116 86 101 116 86 101 116 86 101 116 86 101 116 86 101 116 86 101 116 86 101 116 86 101 116 86 101 116 86 101 116 86 101 116 86 101 116 86 101 116 86 101 116 86 101 116 86 101 116 86 101 116 86 101 116 86 101 116 86 101 116 86 101 116 86 101 116 86 101 116 86 101 116 86 101 116 86 101 116 86 101 116 86 101 116 86 101 116 86 101 116 86 101 116 86 101 116 86 101 116 86 101 116 86 101 116 86 101 116 86 101 116 86 101 116 86 101 116 86 101 116 86 101 116 85 100 114 129 141 153 154 165 177 150 161 174 151 162 175 151 162 175 151 162 175 151 162 175 151 162 175 151 162 175 151 162 175 151 162 175 151 162 175 151 162 175 151 162 175 151 162 175 151 162 175 151 162 175 151 162 175 151 162 175 151 162 175 151 162 175 151 162 175 151 162 175 151 162 175 151 162 175 151 162 175 151 162 175 153 164 177 136 147 158 88 102 117 85 101 116 86 101 116 86 101 116 86 101 116 86 101 116 86 101 116 86 101 116 86 101 116 86 101 116 86 101 116 86 101 116 86 101 116 86 101 116 86 101 116 86 101 116 86 101 116 86 101 116 86 101 116 86 101 116 86 101 116 86 101 116 86 101 116 86 101 116 86 101 116 86 101 116 86 101 116 86 101 116 86 101 116 86 101 116 86 101 116 86 101 116 86 101 116 86 101 116 86 101 116 86 101 116 86 101 116 86 101 116 86 101 116 86 101 116 86 101 116 86 101 116 86 101 116 87 101 116 82 98 113 113 125 137 151 161 174 152 163 176 150 162 175 151 162 175 151 162 175 151 162 176 146 157 170 142 154 166 150 160 172 154 165 177 154 165 177 152 163 175 144 154 166 142 154 166 149 161 174 152 162 175 152 163 176 151 162 175 151 162 175 151 162 175 151 162 175 151 162 175 151 162 175 151 162 175 151 162 175 151 162 175 151 162 175 153 164 177 129 141 153 86 102 116 86 101 116 86 101 116 86 101 116 86 101 116 86 101 116 86 101 116 86 101 116 86 101 116 86 101 116 86 101 116 88 103 118 83 98 114 88 103 117 200 207 213 222 230 237 210 218 225 213 221 228 213 221 228 213 221 228 213 221 228 213 221 228 213 221 228 213 221 228 213 221 228 213 221 228 213 221 228 213 221 228 213 221 228 210 218 225 214 222 229 213 221 228 63 66 68 0 0 0 3 3 3 0 0 0 0 0 0 0 0 0 0 0 0
0 0 0 0 0 0 0 0 0 2 2 2 0 0 0 34 52 45 205 209 213 255 255 255 251 251 251 254 254 254 254 254 254 254 254 254 254 254 254 254 254 254 253 253 253 254 254 254 249 250 250 189 194 199 145 156 168 148 159 172 153 164 177 153 164 177 152 164 176 152 163 176 152 163 176 152 163 176 152 163 176 152 163 176 153 164 177 152 162 175 151 162 175 151 162 175 151 162 175 151 162 175 151 162 175 151 162 175 151 162 175 151 162 175 151 162 175 151 162 175 151 162 175 151 162 175 113 125 137 82 97 113 87 102 117 86 101 116 86 101 116 86 101 116 86 101 116 86 101 116 86 101 116 86 101 116 86 101 116 86 101 116 86 101 116 86 101 116 86 101 116 86 101 116 86 101 116 86 101 116 86 101 116 86 101 116 86 101 116 86 101 116 86 101 116 86 101 116 86 101 116 86 101 116 86 101 116 86 101 116 86 101 116 86 101 116 86 101 116 86 101 116 86 101 116 86 101 116 86 101 116 86 101 116 86 101 116 86 101 116 86 101 116 86 101 116 86 101 116 86 101 116 86 101 116 86 101 116 86 101 116 86 101 116 136 147 158 153 164 177 151 162 175 151 162 175 151 162 175 151 162 175 151 162 175 151 162 175 151 162 175 151 162 175 151 162 175 151 162 175 151 162 175 151 162 175 151 162 175 151 162 175 151 162 175 151 162 175 151 162 175 151 162 175 151 162 175 151 162 175 151 162 175 151 162 175 151 162 175 151 162 175 150 162 175 152 162 175 113 125 137 84 99 114 86 101 116 86 101 116 86 101 116 86 101 116 86 101 116 86 101 116 86 101 116 86 101 116 86 101 116 86 101 116 86 101 116 86 101 116 86 101 116 86 101 116 86 101 116 86 101 116 86 101 116 86 101 116 86 101 116 86 101 116 86 101 116 86 101 116 86 101 116 86 101 116 86 101 116 86 101 116 86 101 116 86 101 116 86 101 116 86 101 116 86 101 116 86 101 116 86 101 116 86 101 116 86 101 116 86 101 116 86 101 116 86 101 116 86 101 116 86 101 116 86 101 116 87 102 117 83 98 114 113 125 137 151 161 174 152 163 176 150 162 175 151 162 175 151 162 175 151 162 175 151 162 175 152 163 176 153 164 177 151 162 176 150 161 175 150 161 175 151 162 175 153 164 177 153 164 177 151 162 175 151 162 175 151 162 175 151 162 175 151 162 175 151 162 175 151 162 175 151 162 175 151 162 175 151 162 175 151 162 175 151 162 175 151 162 175 153 164 177 125 137 150 86 101 116 86 101 116 86 101 116 86 101 116 86 101 116 86 101 116 86 101 116 86 101 116 86 101 116 86 101 116 86 101 116 86 101 116 88 103 117 82 97 113 99 113 127 200 207 213 222 230 237 211 219 226 213 221 228 213 221 228 213 221 228 213 221 228 213 221 228 213 221 228 213 221 228 213 221 228 213 221 228 213 221 228 213 221 228 213 221 228 210 218 225 216 224 231 200 207 213 63 66 68 0 0 0 3 3 3 0 0 0 0 0 0 0 0 0
0 0 0 0 0 0 2 2 2 0 0 0 21 29 25 205 209 213 255 255 255 249 250 250 254 254 254 254 254 254 254 254 254 254 254 254 254 254 254 252 252 252 255 255 255 249 250 250 176 183 190 145 156 168 152 163 176 152 163 176 151 162 175 151 162 175 151 162 175 151 162 175 151 162 175 151 162 175 151 162 175 151 162 175 151 162 175 151 162 175 151 162 175 151 162 175 151 162 175 151 162 175 151 162 175 151 162 175 151 162 175 151 162 175 151 162 175 151 162 175 152 163 176 150 160 172 102 116 129 84 99 114 86 101 116 86 101 116 86 101 116 86 101 116 86 101 116 86 101 116 86 101 116 86 101 116 86 101 116 86 101 116 86 101 116 86 101 116 86 101 116 86 101 116 86 101 116 86 101 116 86 101 116 86 101 116 86 101 116 86 101 116 86 101 116 86 101 116 86 101 116 86 101 116 86 101 116 86 101 116 86 101 116 86 101 116 86 101 116 86 101 116 86 101 116 86 101 116 86 101 116 86 101 116 86 101 116 86 101 116 86 101 116 86 101 116 86 101 116 86 101 116 86 101 116 86 101 116 85 100 115 89 104 118 136 147 158 153 164 177 151 162 175 151 162 175 151 162 175 151 162 175 151 162 175 151 162 175 151 162 175 151 162 175 151 162 175 151 162 175 151 162 175 151 162 175 151 162 175 151 162 175 151 162 175 151 162 175 151 162 175 151 162 175 151 162 175 151 162 175 151 162 175 151 162 175 151 162 175 150 161 174 153 164 177 136 147 158 89 104 118 86 101 116 86 101 116 86 101 116 86 101 116 86 101 116 86 101 116 86 101 116 86 101 116 86 101 116 86 101 116 86 101 116 86 101 116 86 101 116 86 101 116 86 101 116 86 101 116 86 101 116 86 101 116 86 101 116 86 101 116 86 101 116 86 101 116 86 101 116 86 101 116 86 101 116 86 101 116 86 101 116 86 101 116 86 101 116 86 101 116 86 101 116 86 101 116 86 101 116 86 101 116 86 101 116 86 101 116 86 101 116 86 101 116 86 101 116 86 101 116 86 101 116 86 101 116 84 99 114 113 125 137 151 161 174 152 163 176 151 162 175 151 162 175 151 162 175 151 162 175 151 162 175 151 162 175 151 162 175 151 162 175 151 162 175 152 162 175 152 162 175 151 162 175 151 162 175 151 162 175 151 162 175 151 162 175 151 162 175 151 162 175 151 162 175 151 162 175 151 162 175 151 162 175 151 162 175 151 162 175 151 162 175 151 162 175 151 162 175 153 164 177 125 137 150 85 101 116 86 101 116 86 101 116 86 101 116 86 101 116 86 101 116 86 101 116 86 101 116 86 101 116 86 101 116 86 101 116 86 101 116 86 101 116 88 103 117 81 96 110 94 109 123 176 183 190 216 224 231 212 221 228 213 221 228 213 221 228 213 221 228 213 221 228 213 221 228 213 221 228 213 221 228 213 221 228 213 221 228 213 221 228 213 221 228 213 221 228 210 218 225 218 226 233 196 201 206 34 52 45 0 0 0 4 4 4 0 0 0 0 0 0
0 0 0 2 2 2 0 0 0 13 18 16 176 183 190 255 255 255 249 250 250 254 254 254 254 254 254 254 254 254 254 254 254 254 254 254 253 253 253 255 255 255 245 246 246 166 176 187 146 157 170 153 164 176 151 162 175 151 162 175 151 162 175 151 162 175 151 162 175 151 162 175 151 162 175 151 162 175 151 162 175 151 162 175 151 162 175 151 162 175 151 162 175 151 162 175 151 162 175 151 162 175 151 162 175 151 162 175 151 162 175 151 162 175 151 162 175 151 162 175 152 163 176 141 151 164 94 109 123 85 100 115 86 101 116 86 101 116 86 101 116 86 101 116 86 101 116 86 101 116 86 101 116 86 101 116 86 101 116 86 101 116 86 101 116 86 101 116 86 101 116 86 101 116 86 101 116 86 101 116 86 101 116 86 101 116 86 101 116 86 101 116 86 101 116 86 101 116 86 101 116 86 101 116 86 101 116 86 101 116 86 101 116 86 101 116 86 101 116 86 101 116 86 101 116 86 101 116 86 101 116 86 101 116 86 101 116 86 101 116 86 101 116 86 101 116 86 101 116 86 101 116 86 101 116 86 101 116 85 100 115 94 109 123 141 151 164 153 164 177 151 162 175 151 162 175 151 162 175 151 162 175 151 162 175 151 162 175 151 162 175 151 162 175 151 162 175 151 162 175 151 162 175 151 162 175 151 162 175 151 162 175 151 162 175 151 162 175 151 162 175 151 162 175 151 162 175 151 162 175 151 162 175 151 162 175 151 162 175 151 162 175 148 159 172 104 117 130 83 98 113 87 102 117 86 101 116 86 101 116 86 101 116 86 101 116 86 101 116 86 101 116 86 101 116 86 101 116 86 101 116 86 101 116 86 101 116 86 101 116 86 101 116 86 101 116 86 101 116 86 101 116 86 101 116 86 101 116 86 101 116 86 101 116 86 101 116 86 101 116 86 101 116 86 101 116 86 101 116 86 101 116 86 101 116 86 101 116 86 101 116 86 101 116 86 101 116 86 101 116 86 101 116 86 101 116 86 101 116 86 101 116 86 101 116 86 101 116 86 101 116 86 101 116 84 100 115 113 126 139 150 161 174 152 163 176 151 162 175 151 162 175 151 162 175 151 162 175 151 162 175 151 162 175 151 162 175 151 162 175 151 162 175 151 162 175 151 162 175 151 162 175 151 162 175 151 162 175 151 162 175 151 162 175 151 162 175 151 162 175 151 162 175 151 162 175 151 162 175 151 162 175 151 162 175 151 162 175 151 162 175 151 162 175 151 162 175 151 162 175 154 165 177 125 137 150 83 98 114 87 102 116 86 101 116 86 101 116 86 101 116 86 101 116 86 101 116 86 101 116 86 101 116 86 101 116 86 101 116 86 101 116 86 101 116 86 101 116 88 102 117 83 98 114 83 96 111 166 176 187 218 226 233 211 219 226 213 221 228 213 221 228 213 221 228 213 221 228 213 221 228 213 221 228 213 221 228 213 221 228 213 221 228 213 221 228 213 221 228 213 221 228 210 218 225 218 226 233 176 183 190 34 52 45 0 0 0 2 3 3 1 1 1
2 2 2 0 0 0 13 18 16 176 183 190 255 255 255 249 250 250 254 254 254 254 254 254 254 254 254 254 254 254 254 254 254 253 253 253 255 255 255 233 234 235 166 176 187 146 157 170 153 164 177 151 162 175 151 162 175 151 162 175 151 162 175 151 162 175 151 162 175 151 162 175 151 162 175 151 162 175 151 162 175 151 162 175 151 162 175 151 162 175 151 162 175 151 162 175 151 162 175 151 162 175 151 162 175 151 162 175 151 162 175 151 162 175 151 162 175 151 162 175 153 164 177 133 142 152 87 102 117 86 101 116 86 101 116 86 101 116 86 101 116 86 101 116 86 101 116 86 101 116 86 101 116 86 101 116 86 101 116 86 101 116 86 101 116 86 101 116 86 101 116 86 101 116 86 101 116 86 101 116 86 101 116 86 101 116 86 101 116 86 101 116 86 101 116 86 101 116 86 101 116 86 101 116 86 101 116 86 101 116 86 101 116 86 101 116 86 101 116 86 101 116 86 101 116 86 101 116 86 101 116 86 101 116 86 101 116 86 101 116 86 101 116 86 101 116 86 101 116 86 101 116 86 101 116 86 101 116 84 99 114 99 113 127 151 162 175 151 162 175 151 162 175 151 162 175 151 162 175 151 162 175 151 162 175 151 162 175 151 162 175 151 162 175 151 162 175 151 162 175 151 162 175 151 162 175 151 162 175 151 162 175 151 162 175 151 162 175 151 162 175 151 162 175 151 162 175 151 162 175 151 162 175 151 162 175 151 162 175 152 162 175 117 129 143 86 100 115 86 101 116 86 101 116 86 101 116 86 101 116 86 101 116 86 101 116 86 101 116 86 101 116 86 101 116 86 101 116 86 101 116 86 101 116 86 101 116 86 101 116 86 101 116 86 101 116 86 101 116 86 101 116 86 101 116 86 101 116 86 101 116 86 101 116 86 101 116 86 101 116 86 101 116 86 101 116 86 101 116 86 101 116 86 101 116 86 101 116 86 101 116 86 101 116 86 101 116 86 101 116 86 101 116 86 101 116 86 101 116 86 101 116 86 101 116 86 101 116 86 101 116 85 100 115 113 125 137 149 161 174 152 163 176 151 162 175 151 162 175 151 162 175 151 162 175 151 162 175 151 162 175 151 162 175 151 162 175 151 162 175 151 162 175 151 162 175 151 162 175 151 162 175 151 162 175 151 162 175 151 162 175 151 162 175 151 162 175 151 162 175 151 162 175 151 162 175 151 162 175 151 162 175 151 162 175 151 162 175 151 162 175 151 162 175 151 162 175 151 162 175 154 165 177 120 132 145 83 98 113 87 102 117 86 101 116 86 101 116 86 101 116 86 101 116 86 101 116 86 101 116 86 101 116 86 101 116 86 101 116 86 101 116 86 101 116 86 101 116 86 101 116 88 103 118 84 100 115 88 103 117 189 194 199 222 230 237 210 219 226 213 221 228 213 221 228 213 221 228 213 221 228 213 221 228 213 221 228 213 221 228 213 221 228 213 221 228 213 221 228 213 221 228 213 221 228 210 218 225 219 227 234 196 201 206 63 66 68 0 0 0 0 0 0
0 0 0 13 18 16 176 183 190 255 255 255 249 250 250 254 254 254 254 254 254 254 254 254 254 254 254 253 253 253 253 253 253 255 255 255 219 224 228 153 164 176 147 158 171 153 164 176 151 162 175 151 162 175 151 162 175 151 162 175 151 162 175 151 162 175 151 162 175 151 162 175 151 162 175 151 162 175 151 162 175 151 162 175 151 162 175 151 162 175 151 162 175 151 162 175 151 162 175 151 162 175 151 162 175 151 162 175 151 162 175 151 162 175 151 162 175 150 161 174 155 164 178 125 137 150 84 99 114 86 101 116 86 101 116 86 101 116 86 101 116 86 101 116 86 101 116 86 101 116 86 101 116 86 101 116 86 101 116 86 101 116 86 101 116 86 101 116 86 101 116 86 101 116 86 101 116 86 101 116 86 101 116 86 101 116 86 101 116 86 101 116 86 101 116 86 101 116 86 101 116 86 101 116 86 101 116 86 101 116 86 101 116 86 101 116 86 101 116 86 101 116 86 101 116 86 101 116 86 101 116 86 101 116 86 101 116 86 101 116 86 101 116 86 101 116 86 101 116 86 101 116 86 101 116 87 102 116 83 98 114 107 120 134 152 163 175 151 162 175 151 162 175 151 162 175 151 162 175 151 162 175 151 162 175 151 162 175 151 162 175 151 162 175 151 162 175 151 162 175 151 162 175 151 162 175 151 162 175 151 162 175 151 162 175 151 162 175 151 162 175 151 162 175 151 162 175 151 162 175 151 162 175 150 161 174 152 163 176 136 147 158 88 103 119 85 100 115 86 101 116 86 101 116 86 101 116 86 101 116 86 101 116 86 101 116 86 101 116 86 101 116 86 101 116 86 101 116 86 101 116 86 101 116 86 101 116 86 101 116 86 101 116 86 101 116 86 101 116 86 101 116 86 101 116 86 101 116 86 101 116 86 101 116 86 101 116 86 101 116 86 101 116 86 101 116 86 101 116 86 101 116 86 101 116 86 101 116 86 101 116 86 101 116 86 101 116 86 101 116 86 101 116 86 101 116 86 101 116 86 101 116 86 101 116 86 101 116 85 100 115 117 129 143 150 161 174 152 163 176 151 162 175 151 162 175 151 162 175 151 162 175 151 162 175 151 162 175 151 162 175 151 162 175 151 162 175 151 162 175 151 162 175 151 162 175 151 162 175 151 162 175 151 162 175 151 162 175 151 162 175 151 162 175 151 162 175 151 162 175 151 162 175 151 162 175 151 162 175 151 162 175 151 162 175 151 162 175 151 162 175 151 162 175 151 162 175 150 162 175 154 165 177 125 137 150 83 98 113 87 102 117 86 101 116 86 101 116 86 101 116 86 101 116 86 101 116 86 101 116 86 101 116 86 101 116 86 101 116 86 101 116 86 101 116 86 101 116 86 101 116 86 101 116 87 102 117 82 98 113 94 109 123 189 194 199 218 226 233 212 220 227 213 221 228 213 221 228 213 221 228 213 221 228 213 221 228 213 221 228 213 221 228 213 221 228 213 221 228 213 221 228 213 221 228 213 221 228 210 218 225 218 226 233 205 209 213 93 96 104 9 10 10
9 10 10 176 183 190 255 255 255 249 250 250 254 254 254 254 254 254 254 254 254 254 254 254 253 253 253 255 255 255 255 255 255 205 209 213 147 158 171 148 159 172 153 164 177 151 162 175 151 162 175 151 162 175 151 162 175 151 162 175 151 162 175 151 162 175 151 162 175 151 162 175 151 162 175 151 162 175 151 162 175 151 162 175 151 162 175 151 162 175 151 162 175 151 162 175 151 162 175 151 162 175 151 162 175 151 162 175 151 162 175 151 162 175 151 162 175 150 162 175 151 162 176 113 125 137 83 98 114 87 102 116 86 101 116 86 101 116 86 101 116 86 101 116 86 101 116 86 101 116 86 101 116 86 101 116 86 101 116 86 101 116 86 101 116 86 101 116 86 101 116 86 101 116 86 101 116 86 101 116 86 101 116 86 101 116 86 101 116 86 101 116 86 101 116 86 101 116 86 101 116 86 101 116 86 101 116 86 101 116 86 101 116 86 101 116 86 101 116 86 101 116 86 101 116 86 101 116 86 101 116 86 101 116 86 101 116 86 101 116 86 101 116 86 101 116 86 101 116 86 101 116 86 101 116 87 102 117 84 99 114 113 126 139 154 163 176 151 162 175 151 162 175 151 162 175 151 162 175 151 162 175 151 162 175 151 162 175 151 162 175 151 162 175 151 162 175 151 162 175 151 162 175 151 162 175 151 162 175 151 162 175 151 162 175 151 162 175 151 162 175 151 162 175 151 162 175 151 162 175 151 162 175 152 163 176 146 157 170 99 113 127 84 99 115 86 101 116 86 101 116 86 101 116 86 101 116 86 101 116 86 101 116 86 101 116 86 101 116 86 101 116 86 101 116 86 101 116 86 101 116 86 101 116 86 101 116 86 101 116 86 101 116 86 101 116 86 101 116 86 101 116 86 101 116 86 101 116 86 101 116 86 101 116 86 101 116 86 101 116 86 101 116 86 101 116 86 101 116 86 101 116 86 101 116 86 101 116 86 101 116 86 101 116 86 101 116 86 101 116 86 101 116 86 101 116 86 101 116 86 101 116 86 101 116 85 100 115 117 129 143 152 163 175 151 162 176 151 162 175 151 162 175 151 162 175 151 162 175 151 162 175 151 162 175 151 162 175 151 162 175 151 162 175 151 162 175 151 162 175 151 162 175 151 162 175 151 162 175 151 162 175 151 162 175 151 162 175 151 162 175 151 162 175 151 162 175 151 162 175 151 162 175 151 162 175 151 162 175 151 162 175 151 162 175 151 162 175 151 162 175 151 162 175 151 162 175 150 162 175 154 165 177 120 132 145 83 98 113 87 102 117 86 101 116 86 101 116 86 101 116 86 101 116 86 101 116 86 101 116 86 101 116 86 101 116 86 101 116 86 101 116 86 101 116 86 101 116 86 101 116 86 101 116 86 101 116 88 102 117 83 98 114 85 98 114 166 176 187 220 228 235 210 218 225 213 221 228 213 221 228 213 221 228 213 221 228 213 221 228 213 221 228 213 221 228 213 221 228 213 221 228 213 221 228 213 221 228 213 221 228 210 218 225 216 224 231 219 227 234 176 183 190
13 18 16 196 201 206 253 253 253 249 250 250 254 254 254 254 254 254 254 254 254 252 252 253 255 255 255 245 246 246 189 194 199 146 157 170 152 162 175 152 163 175 151 162 175 151 162 175 151 162 175 151 162 175 151 162 175 151 162 175 151 162 175 151 162 175 151 162 175 151 162 175 151 162 175 151 162 175 151 162 175 151 162 175 151 162 175 151 162 175 151 162 175 151 162 175 151 162 175 151 162 175 151 162 175 151 162 175 151 162 175 151 162 175 151 162 175 152 163 176 144 154 166 95 112 124 84 99 114 87 101 116 86 101 116 86 101 116 86 101 116 86 101 116 86 101 116 86 101 116 86 101 116 86 101 116 86 101 116 86 101 116 86 101 116 86 101 116 86 101 116 86 101 116 86 101 116 86 101 116 86 101 116 86 101 116 86 101 116 86 101 116 86 101 116 86 101 116 86 101 116 86 101 116 86 101 116 86 101 116 86 101 116 86 101 116 86 101 116 86 101 116 86 101 116 86 101 116 86 101 116 86 101 116 86 101 116 86 101 116 86 101 116 86 101 116 86 101 116 86 101 116 86 101 116 85 100 115 89 104 118 129 141 153 152 163 176 150 161 175 151 162 175 151 162 175 151 162 175 151 162 175 151 162 175 151 162 175 151 162 175 151 162 175 151 162 175 151 162 175 151 162 175 151 162 175 151 162 175 151 162 175 151 162 175 151 162 175 151 162 175 151 162 175 151 162 175 151 162 175 150 162 175 153 164 177 120 132 145 84 99 114 87 102 117 86 101 116 86 101 116 86 101 116 86 101 116 86 101 116 86 101 116 86 101 116 86 101 116 86 101 116 86 101 116 86 101 116 86 101 116 86 101 116 86 101 116 86 101 116 86 101 116 86 101 116 86 101 116 86 101 116 86 101 116 86 101 116 86 101 116 86 101 116 86 101 116 86 101 116 86 101 116 86 101 116 86 101 116 86 101 116 86 101 116 86 101 116 86 101 116 86 101 116 86 101 116 86 101 116 86 101 116 86 101 116 86 101 116 85 100 116 85 98 114 120 132 145 152 162 175 152 163 176 151 162 175 151 162 175 151 162 175 151 162 175 151 162 175 151 162 175 151 162 175 151 162 175 151 162 175 151 162 175 151 162 175 151 162 175 151 162 175 151 162 175 151 162 175 151 162 175 151 162 175 151 162 175 151 162 175 151 162 175 151 162 175 151 162 175 151 162 175 151 162 175 151 162 175 151 162 175 151 162 175 151 162 175 151 162 175 151 162 175 151 162 175 151 161 174 154 165 177 120 132 145 83 98 113 87 102 117 86 101 116 86 101 116 86 101 116 86 101 116 86 101 116 86 101 116 86 101 116 86 101 116 86 101 116 86 101 116 86 101 116 86 101 116 86 101 116 86 101 116 86 101 116 86 101 116 88 103 117 84 99 114 84 98 113 166 176 187 220 228 235 212 220 227 213 221 228 213 221 228 213 221 228 213 221 228 213 221 228 213 221 228 213 221 228 213 221 228 213 221 228 213 221 228 213 221 228 213 221 228 210 218 225 216 224 231 211 216 222
4 4 4 189 194 199 255 255 255 249 250 250 254 254 254 254 254 254 253 253 253 255 255 255 233 234 235 159 168 179 145 156 168 152 163 176 151 162 175 151 162 175 151 162 175 151 162 175 151 162 175 151 162 175 151 162 175 151 162 175 151 162 175 151 162 175 151 162 175 151 162 175 151 162 175 151 162 175 151 162 175 151 162 175 151 162 175 151 162 175 151 162 175 151 162 175 151 162 175 151 162 175 151 162 175 151 162 175 151 162 175 151 162 175 150 161 174 154 165 177 136 147 158 89 104 118 85 100 115 86 101 116 86 101 116 86 101 116 86 101 116 86 101 116 86 101 116 86 101 116 86 101 116 86 101 116 86 101 116 86 101 116 86 101 116 86 101 116 86 101 116 86 101 116 86 101 116 86 101 116 86 101 116 86 101 116 86 101 116 86 101 116 86 101 116 86 101 116 86 101 116 86 101 116 86 101 116 86 101 116 86 101 116 86 101 116 86 101 116 86 101 116 86 101 116 86 101 116 86 101 116 86 101 116 86 101 116 86 101 116 86 101 116 86 101 116 86 101 116 86 101 116 87 102 116 83 99 114 102 116 129 148 159 172 152 163 176 150 162 175 151 162 175 151 162 175 151 162 175 151 162 175 151 162 175 151 162 175 151 162 175 151 162 175 151 162 175 151 162 175 151 162 175 151 162 175 151 162 175 151 162 175 151 162 175 151 162 175 151 162 175 151 162 175 151 162 175 150 161 174 155 164 178 136 147 158 89 104 118 85 100 115 86 101 116 86 101 116 86 101 116 86 101 116 86 101 116 86 101 116 86 101 116 86 101 116 86 101 116 86 101 116 86 101 116 86 101 116 86 101 116 86 101 116 86 101 116 86 101 116 86 101 116 86 101 116 86 101 116 86 101 116 86 101 116 86 101 116 86 101 116 86 101 116 86 101 116 86 101 116 86 101 116 86 101 116 86 101 116 86 101 116 86 101 116 86 101 116 86 101 116 86 101 116 86 101 116 86 101 116 86 101 116 86 101 116 86 101 116 86 101 116 120 132 145 152 162 175 151 162 176 151 162 175 151 162 175 151 162 175 151 162 175 151 162 175 151 162 175 151 162 175 151 162 175 151 162 175 151 162 175 151 162 175 151 162 175 151 162 175 151 162 175 151 162 175 151 162 175 151 162 175 151 162 175 151 162 175 151 162 175 151 162 175 151 162 175 151 162 175 151 162 175 151 162 175 151 162 175 151 162 175 151 162 175 151 162 175 151 162 175 151 162 175 151 162 175 151 161 174 154 165 177 120 132 145 83 98 113 87 102 117 86 101 116 86 101 116 86 101 116 86 101 116 86 101 116 86 101 116 86 101 116 86 101 116 86 101 116 86 101 116 86 101 116 86 101 116 86 101 116 86 101 116 86 101 116 86 101 116 86 101 116 88 103 117 84 100 115 83 96 111 166 176 187 220 228 235 211 219 226 213 221 228 213 221 228 213 221 228 213 221 228 213 221 228 213 221 228 213 221 228 213 221 228 213 221 228 213 221 228 213 221 228 211 219 226 218 226 233 205 209 213
9 10 10 189 194 199 255 255 255 249 250 250 253 253 253 254 254 254 255 255 255 219 224 228 154 163 176 146 157 170 153 164 177 151 162 175 151 162 175 151 162 175 151 162 175 151 162 175 151 162 175 151 162 175 151 162 175 151 162 175 151 162 175 151 162 175 151 162 175 151 162 175 151 162 175 151 162 175 151 162 175 151 162 175 151 162 175 151 162 175 151 162 175 151 162 175 151 162 175 151 162 175 151 162 175 151 162 175 151 162 175 151 162 175 151 162 175 153 164 177 125 137 150 85 100 115 86 101 116 86 101 116 86 101 116 86 101 116 86 101 116 86 101 116 86 101 116 86 101 116 86 101 116 86 101 116 86 101 116 86 101 116 86 101 116 86 101 116 86 101 116 86 101 116 86 101 116 86 101 116 86 101 116 86 101 116 86 101 116 86 101 116 86 101 116 86 101 116 86 101 116 86 101 116 86 101 116 86 101 116 86 101 116 86 101 116 86 101 116 86 101 116 86 101 116 86 101 116 86 101 116 86 101 116 86 101 116 86 101 116 86 101 116 86 101 116 86 101 116 86 101 116 85 100 115 89 104 118 136 147 158 153 164 177 151 162 175 151 162 175 151 162 175 151 162 175 151 162 175 151 162 175 151 162 175 151 162 175 151 162 175 151 162 175 151 162 175 151 162 175 151 162 175 151 162 175 151 162 175 151 162 175 151 162 175 151 162 175 151 162 175 151 162 175 151 162 175 151 162 175 152 162 175 107 120 134 83 99 114 87 102 117 86 101 116 86 101 116 86 101 116 86 101 116 86 101 116 86 101 116 86 101 116 86 101 116 86 101 116 86 101 116 86 101 116 86 101 116 86 101 116 86 101 116 86 101 116 86 101 116 86 101 116 86 101 116 86 101 116 86 101 116 86 101 116 86 101 116 86 101 116 86 101 116 86 101 116 86 101 116 86 101 116 86 101 116 86 101 116 86 101 116 86 101 116 86 101 116 86 101 116 86 101 116 86 101 116 86 101 116 86 101 116 85 100 115 86 101 116 120 132 145 151 162 175 151 162 176 151 162 175 151 162 175 151 162 175 151 162 175 151 162 175 151 162 175 151 162 175 151 162 175 151 162 175 151 162 175 151 162 175 151 162 175 151 162 175 151 162 175 151 162 175 151 162 175 151 162 175 151 162 175 151 162 175 151 162 175 151 162 175 151 162 175 151 162 175 151 162 175 151 162 175 151 162 175 151 162 175 151 162 175 151 162 175 151 162 175 151 162 175 151 162 175 151 162 175 150 162 175 154 165 177 120 132 145 83 98 113 87 102 117 86 101 116 86 101 116 86 101 116 86 101 116 86 101 116 86 101 116 86 101 116 86 101 116 86 101 116 86 101 116 86 101 116 86 101 116 86 101 116 86 101 116 86 101 116 86 101 116 86 101 116 86 101 116 88 103 117 84 100 115 83 96 111 166 176 187 220 228 235 212 220 227 213 221 228 213 221 228 213 221 228 213 221 228 213 221 228 213 221 228 213 221 228 213 221 228 213 221 228 213 221 228 211 219 226 218 226 233 205 209 213
4 4 4 189 194 199 255 255 255 249 250 250 255 255 255 249 250 250 196 201 206 146 157 170 150 161 174 152 163 176 151 162 175 151 162 175 151 162 175 151 162 175 151 162 175 151 162 175 151 162 175 151 162 175 151 162 175 151 162 175 151 162 175 151 162 175 151 162 175 151 162 175 151 162 175 151 162 175 151 162 175 151 162 175 151 162 175 151 162 175 151 162 175 151 162 175 151 162 175 151 162 175 151 162 175 151 162 175 151 162 175 151 162 175 151 162 175 151 161 174 112 122 133 83 99 114 87 102 116 86 101 116 86 101 116 86 101 116 86 101 116 86 101 116 86 101 116 86 101 116 86 101 116 86 101 116 86 101 116 86 101 116 86 101 116 86 101 116 86 101 116 86 101 116 86 101 116 86 101 116 86 101 116 86 101 116 86 101 116 86 101 116 86 101 116 86 101 116 86 101 116 86 101 116 86 101 116 86 101 116 86 101 116 86 101 116 86 101 116 86 101 116 86 101 116 86 101 116 86 101 116 86 101 116 86 101 116 86 101 116 86 101 116 86 101 116 86 101 116 87 102 117 83 99 114 120 132 145 154 165 177 151 162 175 151 162 175 151 162 175 151 162 175 151 162 175 151 162 175 151 162 175 151 162 175 151 162 175 151 162 175 151 162 175 151 162 175 151 162 175 151 162 175 151 162 175 151 162 175 151 162 175 151 162 175 151 162 175 151 162 175 151 162 175 150 161 174 154 165 177 129 141 153 85 100 114 86 101 117 86 101 116 86 101 116 86 101 116 86 101 116 86 101 116 86 101 116 86 101 116 86 101 116 86 101 116 86 101 116 86 101 116 86 101 116 86 101 116 86 101 116 86 101 116 86 101 116 86 101 116 86 101 116 86 101 116 86 101 116 86 101 116 86 101 116 86 101 116 86 101 116 86 101 116 86 101 116 86 101 116 86 101 116 86 101 116 86 101 116 86 101 116 86 101 116 86 101 116 86 101 116 86 101 116 86 101 116 86 101 116 85 100 115 87 102 118 120 132 145 150 161 174 151 162 176 151 162 175 151 162 175 151 162 175 151 162 175 151 162 175 151 162 175 151 162 175 151 162 175 151 162 175 151 162 175 151 162 175 151 162 175 151 162 175 151 162 175 151 162 175 151 162 175 151 162 175 151 162 175 151 162 175 151 162 175 151 162 175 151 162 175 151 162 175 151 162 175 151 162 175 151 162 175 151 162 175 151 162 175 151 162 175 151 162 175 151 162 175 151 162 175 151 162 175 151 162 175 151 162 175 154 165 177 125 137 150 84 99 114 87 102 117 86 101 116 86 101 116 86 101 116 86 101 116 86 101 116 86 101 116 86 101 116 86 101 116 86 101 116 86 101 116 86 101 116 86 101 116 86 101 116 86 101 116 86 101 116 86 101 116 86 101 116 86 101 116 86 101 116 87 102 117 85 98 114 83 96 111 159 168 179 219 227 234 211 219 226 213 221 228 213 221 228 213 221 228 213 221 228 213 221 228 213 221 228 213 221 228 213 221 228 213 221 228 211 219 226 218 226 233 205 209 213
4 4 4 189 194 199 254 254 254 253 253 253 237 238 239 176 183 190 145 156 168 151 162 176 152 163 175 151 162 175 151 162 175 151 162 175 151 162 175 151 162 175 151 162 175 151 162 175 151 162 175 151 162 175 151 162 175 151 162 175 151 162 175 151 162 175 151 162 175 151 162 175 151 162 175 151 162 175 151 162 175 151 162 175 151 162 175 151 162 175 151 162 175 151 162 175 151 162 175 151 162 175 151 162 175 151 162 175 151 162 175 151 162 175 152 163 176 148 159 172 99 113 127 84 99 115 86 101 116 86 101 116 86 101 116 86 101 116 86 101 116 86 101 116 86 101 116 86 101 116 86 101 116 86 101 116 86 101 116 86 101 116 86 101 116 86 101 116 86 101 116 86 101 116 86 101 116 86 101 116 86 101 116 86 101 116 86 101 116 86 101 116 86 101 116 86 101 116 86 101 116 86 101 116 86 101 116 86 101 116 86 101 116 86 101 116 86 101 116 86 101 116 86 101 116 86 101 116 86 101 116 86 101 116 86 101 116 86 101 116 86 101 116 86 101 116 87 102 117 84 99 114 102 116 129 147 158 171 152 162 175 151 162 175 151 162 175 151 162 175 151 162 175 151 162 175 151 162 175 151 162 175 151 162 175 151 162 175 151 162 175 151 162 175 151 162 175 151 162 175 151 162 175 151 162 175 151 162 175 151 162 175 151 162 175 151 162 175 151 162 175 151 162 175 154 163 176 145 156 168 99 113 127 84 99 114 87 101 116 86 101 116 86 101 116 86 101 116 86 101 116 86 101 116 86 101 116 86 101 116 86 101 116 86 101 116 86 101 116 86 101 116 86 101 116 86 101 116 86 101 116 86 101 116 86 101 116 86 101 116 86 101 116 86 101 116 86 101 116 86 101 116 86 101 116 86 101 116 86 101 116 86 101 116 86 101 116 86 101 116 86 101 116 86 101 116 86 101 116 86 101 116 86 101 116 86 101 116 86 101 116 86 101 116 86 101 116 85 100 115 88 102 117 129 141 153 154 165 177 151 162 176 151 162 175 151 162 175 151 162 175 151 162 175 151 162 175 151 162 175 151 162 175 151 162 175 151 162 175 151 162 175 151 162 175 151 162 175 151 162 175 151 162 175 151 162 175 151 162 175 151 162 175 151 162 175 151 162 175 151 162 175 151 162 175 151 162 175 151 162 175 151 162 175 151 162 175 151 162 175 151 162 175 151 162 175 151 162 175 151 162 175 151 162 175 151 162 175 151 162 175 151 162 175 151 162 175 151 162 175 153 164 177 125 137 150 85 101 116 86 101 116 86 101 116 86 101 116 86 101 116 86 101 116 86 101 116 86 101 116 86 101 116 86 101 116 86 101 116 86 101 116 86 101 116 86 101 116 86 101 116 86 101 116 86 101 116 86 101 116 86 101 116 86 101 116 86 101 116 86 101 116 88 102 117 84 100 115 81 96 110 159 168 179 219 227 234 212 220 227 213 221 228 213 221 228 213 221 228 213 221 228 213 221 228 213 221 228 213 221 228 213 221 228 211 219 226 218 226 233 205 209 213
4 4 4 189 194 199 255 255 255 211 216 222 154 165 177 146 157 170 154 163 176 151 162 175 151 162 175 151 162 175 151 162 175 151 162 175 151 162 175 151 162 175 151 162 175 151 162 175 151 162 175 151 162 175 151 162 175 151 162 175 151 162 175 151 162 175 151 162 175 151 162 175 151 162 175 151 162 175 151 162 175 151 162 175 151 162 175 151 162 175 151 162 175 151 162 175 151 162 175 151 162 175 151 162 175 151 162 175 151 162 175 151 162 175 153 164 177 136 147 158 89 104 118 85 100 115 86 101 116 86 101 116 86 101 116 86 101 116 86 101 116 86 101 116 86 101 116 86 101 116 86 101 116 86 101 116 86 101 116 86 101 116 86 101 116 86 101 116 86 101 116 86 101 116 86 101 116 86 101 116 86 101 116 86 101 116 86 101 116 86 101 116 86 101 116 86 101 116 86 101 116 86 101 116 86 101 116 86 101 116 86 101 116 86 101 116 86 101 116 86 101 116 86 101 116 86 101 116 86 101 116 86 101 116 86 101 116 86 101 116 86 101 116 86 101 116 86 101 116 88 102 117 136 147 158 154 165 177 150 161 174 151 162 175 151 162 175 151 162 175 151 162 175 151 162 175 151 162 175 151 162 175 151 162 175 151 162 175 151 162 175 151 162 175 151 162 175 151 162 175 151 162 175 151 162 175 151 162 175 151 162 175 151 162 175 151 162 175 151 162 175 150 161 174 154 165 177 117 129 143 84 99 114 87 102 116 86 101 116 86 101 116 86 101 116 86 101 116 86 101 116 86 101 116 86 101 116 86 101 116 86 101 116 86 101 116 86 101 116 86 101 116 86 101 116 86 101 116 86 101 116 86 101 116 86 101 116 86 101 116 86 101 116 86 101 116 86 101 116 86 101 116 86 101 116 86 101 116 86 101 116 86 101 116 86 101 116 86 101 116 86 101 116 86 101 116 86 101 116 86 101 116 86 101 116 86 101 116 86 101 116 86 101 116 85 100 115 88 103 117 129 141 153 154 163 176 151 162 175 151 162 175 151 162 175 151 162 175 151 162 175 151 162 175 151 162 175 151 162 175 151 162 175 151 162 175 151 162 175 151 162 175 151 162 175 151 162 175 151 162 175 151 162 175 151 162 175 151 162 175 151 162 175 151 162 175 151 162 175 151 162 175 151 162 175 151 162 175 151 162 175 151 162 175 151 162 175 151 162 175 151 162 175 151 162 175 151 162 175 151 162 175 151 162 175 151 162 175 151 162 175 151 162 175 151 162 175 151 162 175 153 164 177 129 141 153 87 103 118 86 101 116 86 101 116 86 101 116 86 101 116 86 101 116 86 101 116 86 101 116 86 101 116 86 101 116 86 101 116 86 101 116 86 101 116 86 101 116 86 101 116 86 101 116 86 101 116 86 101 116 86 101 116 86 101 116 86 101 116 86 101 116 86 101 116 87 102 117 85 101 116 83 98 112 159 168 179 218 226 233 212 220 227 212 221 228 213 221 228 213 221 228 213 221 228 213 221 228 213 221 228 213 221 228 211 219 226 219 227 234 205 209 213
3 3 3 176 183 190 211 216 222 142 154 166 150 160 172 153 164 177 151 162 175 151 162 175 151 162 175 151 162 175 151 162 175 151 162 175 151 162 175 151 162 175 151 162 175 151 162 175 151 162 175 151 162 175 151 162 175 151 162 175 151 162 175 151 162 175 151 162 175 151 162 175 151 162 175 151 162 175 151 162 175 151 162 175 151 162 175 151 162 175 151 162 175 151 162 175 151 162 175 151 162 175 151 162 175 151 162 175 151 162 175 150 161 174 154 165 177 125 137 150 85 100 115 86 101 116 86 101 116 86 101 116 86 101 116 86 101 116 86 101 116 86 101 116 86 101 116 86 101 116 86 101 116 86 101 116 86 101 116 86 101 116 86 101 116 86 101 116 86 101 116 86 101 116 86 101 116 86 101 116 86 101 116 86 101 116 86 101 116 86 101 116 86 101 116 86 101 116 86 101 116 86 101 116 86 101 116 86 101 116 86 101 116 86 101 116 86 101 116 86 101 116 86 101 116 86 101 116 86 101 116 86 101 116 86 101 116 86 101 116 86 101 116 86 101 116 83 99 114 113 126 139 151 162 174 151 162 175 151 162 175 151 162 175 151 162 175 151 162 175 151 162 175 151 162 175 151 162 175 151 162 175 151 162 175 151 162 175 151 162 175 151 162 175 151 162 175 151 162 175 151 162 175 151 162 175 151 162 175 151 162 175 151 162 175 151 162 175 150 161 174 154 165 177 141 151 164 89 104 118 85 100 115 86 101 116 86 101 116 86 101 116 86 101 116 86 101 116 86 101 116 86 101 116 86 101 116 86 101 116 86 101 116 86 101 116 86 101 116 86 101 116 86 101 116 86 101 116 86 101 116 86 101 116 86 101 116 86 101 116 86 101 116 86 101 116 86 101 116 86 101 116 86 101 116 86 101 116 86 101 116 86 101 116 86 101 116 86 101 116 86 101 116 86 101 116 86 101 116 86 101 116 86 101 116 86 101 116 87 101 116 85 100 115 88 104 119 129 141 153 153 164 177 151 162 175 151 162 175 151 162 175 151 162 175 151 162 175 151 162 175 151 162 175 151 162 175 151 162 175 151 162 175 151 162 175 151 162 175 151 162 175 151 162 175 151 162 175 151 162 175 151 162 175 151 162 175 151 162 175 151 162 175 151 162 175 151 162 175 151 162 175 151 162 175 151 162 175 151 162 175 151 162 175 151 162 175 151 162 175 151 162 175 151 162 175 151 162 175 151 162 175 151 162 175 151 162 175 151 162 175 151 162 175 151 162 175 151 162 175 153 164 177 141 151 164 89 104 118 85 100 116 86 101 116 86 101 116 86 101 116 86 101 116 86 101 116 86 101 116 86 101 116 86 101 116 86 101 116 86 101 116 86 101 116 86 101 116 86 101 116 86 101 116 86 101 116 86 101 116 86 101 116 86 101 116 86 101 116 86 101 116 86 101 116 86 101 116 87 102 117 86 101 116 81 96 110 189 194 199 226 233 238 210 219 226 213 221 228 213 221 228 213 221 228 213 221 228 213 221 228 213 221 228 211 219 226 219 227 234 205 209 213
21 29 25 150 160 172 148 159 172 150 161 175 152 162 175 151 162 175 151 162 175 151 162 175 151 162 175 151 162 175 151 162 175 151 162 175 151 162 175 151 162 175 151 162 175 151 162 175 151 162 175 151 162 175 151 162 175 151 162 175 151 162 175 151 162 175 151 162 175 151 162 175 151 162 175 151 162 175 151 162 175 151 162 175 151 162 175 151 162 175 151 162 175 151 162 175 151 162 175 151 162 175 151 162 175 151 162 175 151 162 175 150 161 174 152 163 176 113 125 137 83 99 114 87 101 116 86 101 116 86 101 116 86 101 116 86 101 116 86 101 116 86 101 116 86 101 116 86 101 116 86 101 116 86 101 116 86 101 116 86 101 116 86 101 116 86 101 116 86 101 116 86 101 116 86 101 116 86 101 116 86 101 116 86 101 116 86 101 116 86 101 116 86 101 116 86 101 116 86 101 116 86 101 116 86 101 116 86 101 116 86 101 116 86 101 116 86 101 116 86 101 116 86 101 116 86 101 116 86 101 116 86 101 116 86 101 116 86 101 116 87 101 116 84 99 114 95 112 124 146 157 170 152 163 177 151 162 175 151 162 175 151 162 175 151 162 175 151 162 175 151 162 175 151 162 175 151 162 175 151 162 175 151 162 175 151 162 175 151 162 175 151 162 175 151 162 175 151 162 175 151 162 175 151 162 175 151 162 175 151 162 175 151 162 175 151 162 175 151 162 175 151 161 174 107 120 134 83 98 113 87 102 117 86 101 116 86 101 116 86 101 116 86 101 116 86 101 116 86 101 116 86 101 116 86 101 116 86 101 116 86 101 116 86 101 116 86 101 116 86 101 116 86 101 116 86 101 116 86 101 116 86 101 116 86 101 116 86 101 116 86 101 116 86 101 116 86 101 116 86 101 116 86 101 116 86 101 116 86 101 116 86 101 116 86 101 116 86 101 116 86 101 116 86 101 116 86 101 116 86 101 116 86 101 116 86 101 116 86 101 116 87 101 116 129 141 153 153 164 176 150 161 174 151 162 175 151 162 175 151 162 175 151 162 175 151 162 175 151 162 175 151 162 175 151 162 175 151 162 175 151 162 175 151 162 175 151 162 175 151 162 175 151 162 175 151 162 175 151 162 175 151 162 175 151 162 175 151 162 175 151 162 175 151 162 175 151 162 175 151 162 175 151 162 175 151 162 175 151 162 175 151 162 175 151 162 175 151 162 175 151 162 175 151 162 175 151 162 175 151 162 175 151 162 175 151 162 175 151 162 175 151 162 175 151 162 175 151 162 175 152 163 176 147 158 171 99 113 127 84 99 114 87 101 116 86 101 116 86 101 116 86 101 116 86 101 116 86 101 116 86 101 116 86 101 116 86 101 116 86 101 116 86 101 116 86 101 116 86 101 116 86 101 116 86 101 116 86 101 116 86 101 116 86 101 116 86 101 116 86 101 116 86 101 116 86 101 116 86 101 116 87 102 117 84 100 115 89 104 118 176 183 190 218 226 233 212 221 228 213 221 228 213 221 228 213 221 228 213 221 228 213 221 228 211 219 226 221 227 232 205 209 213
63 66 68 166 176 187 147 158 171 151 162 175 151 162 175 151 162 175 151 162 175 151 162 175 151 162 175 151 162 175 151 162 175 151 162 175 151 162 175 151 162 175 151 162 175 151 162 175 151 162 175 151 162 175 151 162 175 151 162 175 151 162 175 151 162 175 151 162 175 151 162 175 151 162 175 151 162 175 151 162 175 151 162 175 151 162 175 151 162 175 151 162 175 151 162 175 151 162 175 151 162 175 151 162 175 151 162 175 151 162 175 153 164 177 144 154 166 95 112 124 85 100 115 86 101 116 86 101 116 86 101 116 86 101 116 86 101 116 86 101 116 86 101 116 86 101 116 86 101 116 86 101 116 86 101 116 86 101 116 86 101 116 86 101 116 86 101 116 86 101 116 86 101 116 86 101 116 86 101 116 86 101 116 86 101 116 86 101 116 86 101 116 86 101 116 86 101 116 86 101 116 86 101 116 86 101 116 86 101 116 86 101 116 86 101 116 86 101 116 86 101 116 86 101 116 86 101 116 86 101 116 86 101 116 86 101 116 86 101 116 84 99 115 94 109 123 136 147 158 152 163 175 151 162 175 151 162 175 151 162 175 151 162 175 151 162 175 151 162 175 151 162 175 151 162 175 151 162 175 151 162 175 151 162 175 151 162 175 151 162 175 151 162 175 151 162 175 151 162 175 151 162 175 151 162 175 151 162 175 151 162 175 151 162 175 150 161 174 154 165 177 129 141 153 86 101 116 86 101 116 86 101 116 86 101 116 86 101 116 86 101 116 86 101 116 86 101 116 86 101 116 86 101 116 86 101 116 86 101 116 86 101 116 86 101 116 86 101 116 86 101 116 86 101 116 86 101 116 86 101 116 86 101 116 86 101 116 86 101 116 86 101 116 86 101 116 86 101 116 86 101 116 86 101 116 86 101 116 86 101 116 86 101 116 86 101 116 86 101 116 86 101 116 86 101 116 86 101 116 86 101 116 86 101 116 86 101 116 86 101 116 85 100 115 113 126 139 148 159 172 153 164 177 151 162 175 150 161 174 151 162 175 151 162 175 151 162 175 151 162 175 151 162 175 151 162 175 151 162 175 151 162 175 151 162 175 151 162 175 151 162 175 151 162 175 151 162 175 151 162 175 151 162 175 151 162 175 151 162 175 151 162 175 151 162 175 151 162 175 151 162 175 151 162 175 151 162 175 151 162 175 151 162 175 151 162 175 151 162 175 151 162 175 151 162 175 151 162 175 151 162 175 151 162 175 151 162 175 151 162 175 151 162 175 151 162 175 151 162 175 150 162 175 152 163 175 113 126 139 84 98 113 87 102 117 86 101 116 86 101 116 86 101 116 86 101 116 86 101 116 86 101 116 86 101 116 86 101 116 86 101 116 86 101 116 86 101 116 86 101 116 86 101 116 86 101 116 86 101 116 86 101 116 86 101 116 86 101 116 86 101 116 86 101 116 86 101 116 86 101 116 86 101 116 87 102 117 83 99 114 83 98 112 159 168 179 220 228 235 212 221 228 213 221 228 213 221 228 213 221 228 213 221 228 211 219 226 219 227 234 205 209 213
63 66 68 166 176 187 146 157 170 151 162 175 151 162 175 151 162 175 151 162 175 151 162 175 151 162 175 151 162 175 151 162 175 151 162 175 151 162 175 151 162 175 151 162 175 151 162 175 151 162 175 151 162 175 151 162 175 151 162 175 151 162 175 151 162 175 151 162 175 151 162 175 151 162 175 151 162 175 151 162 175 151 162 175 151 162 175 151 162 175 151 162 175 151 162 175 151 162 175 151 162 175 151 162 175 151 162 175 150 161 174 153 164 178 136 147 158 89 104 118 85 100 115 86 101 116 86 101 116 86 101 116 86 101 116 86 101 116 86 101 116 86 101 116 86 101 116 86 101 116 86 101 116 86 101 116 86 101 116 86 101 116 86 101 116 86 101 116 86 101 116 86 101 116 86 101 116 86 101 116 86 101 116 86 101 116 86 101 116 86 101 116 86 101 116 86 101 116 86 101 116 86 101 116 86 101 116 86 101 116 86 101 116 86 101 116 86 101 116 86 101 116 86 101 116 86 101 116 86 101 116 86 101 116 86 101 116 84 99 115 94 109 123 136 147 158 152 163 175 151 162 175 151 162 175 151 162 175 151 162 175 151 162 175 151 162 175 151 162 175 151 162 175 151 162 175 151 162 175 151 162 175 151 162 175 151 162 175 151 162 175 151 162 175 151 162 175 151 162 175 151 162 175 151 162 175 151 162 175 151 162 175 151 162 175 152 163 176 146 157 170 99 113 127 84 99 114 86 101 116 86 101 116 86 101 116 86 101 116 86 101 116 86 101 116 86 101 116 86 101 116 86 101 116 86 101 116 86 101 116 86 101 116 86 101 116 86 101 116 86 101 116 86 101 116 86 101 116 86 101 116 86 101 116 86 101 116 86 101 116 86 101 116 86 101 116 86 101 116 86 101 116 86 101 116 86 101 116 86 101 116 86 101 116 86 101 116 86 101 116 86 101 116 86 101 116 86 101 116 86 101 116 86 101 116 86 101 116 86 101 116 85 100 116 84 99 114 107 120 134 141 151 164 152 162 175 153 164 177 151 162 175 151 162 175 151 162 175 151 162 175 151 162 175 151 162 175 151 162 175 151 162 175 151 162 175 151 162 175 151 162 175 151 162 175 151 162 175 151 162 175 151 162 175 151 162 175 151 162 175 151 162 175 151 162 175 151 162 175 151 162 175 151 162 175 151 162 175 151 162 175 151 162 175 151 162 175 151 162 175 151 162 175 151 162 175 151 162 175 151 162 175 151 162 175 151 162 175 151 162 175 151 162 175 151 162 175 151 162 175 150 161 174 153 164 177 129 141 153 87 101 116 86 101 116 86 101 116 86 101 116 86 101 116 86 101 116 86 101 116 86 101 116 86 101 116 86 101 116 86 101 116 86 101 116 86 101 116 86 101 116 86 101 116 86 101 116 86 101 116 86 101 116 86 101 116 86 101 116 86 101 116 86 101 116 86 101 116 86 101 116 86 101 116 86 101 116 87 102 117 85 100 115 83 96 111 154 165 177 218 226 233 213 221 228 212 220 227 213 221 228 213 221 228 210 219 226 219 227 234 205 209 213
63 66 68 166 176 187 146 157 170 151 162 175 151 162 175 151 162 175 151 162 175 151 162 175 151 162 175 151 162 175 151 162 175 151 162 175 151 162 175 151 162 175 151 162 175 151 162 175 151 162 175 151 162 175 151 162 175 151 162 175 151 162 175 151 162 175 151 162 175 151 162 175 151 162 175 151 162 175 151 162 175 151 162 175 151 162 175 151 162 175 151 162 175 151 162 175 151 162 175 151 162 175 151 162 175 151 162 175 150 161 174 155 164 178 129 141 153 86 100 115 86 101 116 86 101 116 86 101 116 86 101 116 86 101 116 86 101 116 86 101 116 86 101 116 86 101 116 86 101 116 86 101 116 86 101 116 86 101 116 86 101 116 86 101 116 86 101 116 86 101 116 86 101 116 86 101 116 86 101 116 86 101 116 86 101 116 86 101 116 86 101 116 86 101 116 86 101 116 86 101 116 86 101 116 86 101 116 86 101 116 86 101 116 86 101 116 86 101 116 86 101 116 86 101 116 86 101 116 86 101 116 87 102 117 83 98 114 95 112 124 136 147 158 152 163 176 151 162 175 151 162 175 151 162 175 151 162 175 151 162 175 151 162 175 151 162 175 151 162 175 151 162 175 151 162 175 151 162 175 151 162 175 151 162 175 151 162 175 151 162 175 151 162 175 151 162 175 151 162 175 151 162 175 151 162 175 151 162 175 151 162 175 150 161 175 154 165 177 120 132 145 84 99 114 87 102 117 86 101 116 86 101 116 86 101 116 86 101 116 86 101 116 86 101 116 86 101 116 86 101 116 86 101 116 86 101 116 86 101 116 86 101 116 86 101 116 86 101 116 86 101 116 86 101 116 86 101 116 86 101 116 86 101 116 86 101 116 86 101 116 86 101 116 86 101 116 86 101 116 86 101 116 86 101 116 86 101 116 86 101 116 86 101 116 86 101 116 86 101 116 86 101 116 86 101 116 86 101 116 86 101 116 86 101 116 86 101 116 86 101 116 86 101 116 86 101 116 83 99 114 89 104 118 117 129 143 141 151 164 152 163 176 153 164 177 150 161 175 151 162 175 151 162 175 151 162 175 151 162 175 151 162 175 151 162 175 151 162 175 151 162 175 151 162 175 151 162 175 151 162 175 151 162 175 151 162 175 151 162 175 151 162 175 151 162 175 151 162 175 151 162 175 151 162 175 151 162 175 151 162 175 151 162 175 151 162 175 151 162 175 151 162 175 151 162 175 151 162 175 151 162 175 151 162 175 151 162 175 151 162 175 151 162 175 151 162 175 151 162 175 151 162 174 153 164 177 142 154 166 94 109 123 85 100 115 86 101 116 86 101 116 86 101 116 86 101 116 86 101 116 86 101 116 86 101 116 86 101 116 86 101 116 86 101 116 86 101 116 86 101 116 86 101 116 86 101 116 86 101 116 86 101 116 86 101 116 86 101 116 86 101 116 86 101 116 86 101 116 86 101 116 86 101 116 86 101 116 86 101 116 87 102 117 86 101 116 79 95 110 149 157 167 218 226 233 212 220 227 212 220 227 213 221 228 210 219 226 219 227 234 200 207 213
63 66 68 166 176 187 146 157 170 151 162 175 151 162 175 151 162 175 151 162 175 151 162 175 151 162 175 151 162 175 151 162 175 151 162 175 151 162 175 151 162 175 151 162 175 151 162 175 151 162 175 151 162 175 151 162 175 151 162 175 151 162 175 151 162 175 151 162 175 151 162 175 151 162 175 151 162 175 151 162 175 151 162 175 151 162 175 151 162 175 151 162 175 151 162 175 151 162 175 151 162 175 151 162 175 151 162 175 150 161 174 154 165 177 125 137 150 85 100 115 86 101 116 86 101 116 86 101 116 86 101 116 86 101 116 86 101 116 86 101 116 86 101 116 86 101 116 86 101 116 86 101 116 86 101 116 86 101 116 86 101 116 86 101 116 86 101 116 86 101 116 86 101 116 86 101 116 86 101 116 86 101 116 86 101 116 86 101 116 86 101 116 86 101 116 86 101 116 86 101 116 86 101 116 86 101 116 86 101 116 86 101 116 86 101 116 86 101 116 86 101 116 86 101 116 86 101 116 87 102 116 83 98 113 99 113 127 141 151 164 153 164 177 151 162 175 151 162 175 151 162 175 151 162 175 151 162 175 151 162 175 151 162 175 151 162 175 151 162 175 151 162 175 151 162 175 151 162 175 151 162 175 151 162 175 151 162 175 151 162 175 151 162 175 151 162 175 151 162 175 151 162 175 151 162 175 151 162 175 151 162 175 153 164 177 141 151 164 94 109 123 84 99 114 86 101 116 86 101 116 86 101 116 86 101 116 86 101 116 86 101 116 86 101 116 86 101 116 86 101 116 86 101 116 86 101 116 86 101 116 86 101 116 86 101 116 86 101 116 86 101 116 86 101 116 86 101 116 86 101 116 86 101 116 86 101 116 86 101 116 86 101 116 86 101 116 86 101 116 86 101 116 86 101 116 86 101 116 86 101 116 86 101 116 86 101 116 86 101 116 86 101 116 86 101 116 86 101 116 86 101 116 86 101 116 86 101 116 86 101 116 86 101 116 86 101 116 87 101 116 85 100 115 84 100 115 94 109 123 120 132 145 145 156 168 154 165 177 152 163 176 150 161 174 151 162 175 151 162 175 151 162 175 151 162 175 151 162 175 151 162 175 151 162 175 151 162 175 151 162 175 151 162 175 151 162 175 151 162 175 151 162 175 151 162 175 151 162 175 151 162 175 151 162 175 151 162 175 151 162 175 151 162 175 151 162 175 151 162 175 151 162 175 151 162 175 151 162 175 151 162 175 151 162 175 151 162 175 151 162 175 151 162 175 151 162 175 151 162 175 151 162 175 150 161 174 154 163 176 113 126 139 83 98 114 86 101 116 86 101 116 86 101 116 86 101 116 86 101 116 86 101 116 86 101 116 86 101 116 86 101 116 86 101 116 86 101 116 86 101 116 86 101 116 86 101 116 86 101 116 86 101 116 86 101 116 86 101 116 86 101 116 86 101 116 86 101 116 86 101 116 86 101 116 86 101 116 86 101 116 86 101 116 87 102 117 86 101 116 78 92 108 149 157 167 220 228 235 213 221 228 212 220 227 210 219 226 219 227 234 196 201 206
63 66 68 166 176 187 146 157 170 151 162 175 151 162 175 151 162 175 151 162 175 151 162 175 151 162 175 151 162 175 151 162 175 151 162 175 151 162 175 151 162 175 151 162 175 151 162 175 151 162 175 151 162 175 151 162 175 151 162 175 151 162 175 151 162 175 151 162 175 151 162 175 151 162 175 151 162 175 151 162 175 151 162 175 151 162 175 151 162 175 151 162 175 151 162 175 151 162 175 151 162 175 151 162 175 151 162 175 151 162 175 151 162 174 113 125 137 84 99 114 86 101 116 86 101 116 86 101 116 86 101 116 86 101 116 86 101 116 86 101 116 86 101 116 86 101 116 86 101 116 86 101 116 86 101 116 86 101 116 86 101 116 86 101 116 86 101 116 86 101 116 86 101 116 86 101 116 86 101 116 86 101 116 86 101 116 86 101 116 86 101 116 86 101 116 86 101 116 86 101 116 86 101 116 86 101 116 86 101 116 86 101 116 86 101 116 86 101 116 86 101 116 86 101 116 87 102 117 82 98 113 104 117 130 144 154 166 152 163 177 151 162 175 151 162 175 151 162 175 151 162 175 151 162 175 151 162 175 151 162 175 151 162 175 151 162 175 151 162 175 151 162 175 151 162 175 151 162 175 151 162 175 151 162 175 151 162 175 151 162 175 151 162 175 151 162 175 151 162 175 151 162 175 151 162 175 151 162 175 150 161 175 151 161 174 112 122 133 84 99 114 86 101 116 86 101 116 86 101 116 86 101 116 86 101 116 86 101 116 86 101 116 86 101 116 86 101 116 86 101 116 86 101 116 86 101 116 86 101 116 86 101 116 86 101 116 86 101 116 86 101 116 86 101 116 86 101 116 86 101 116 86 101 116 86 101 116 86 101 116 86 101 116 86 101 116 86 101 116 86 101 116 86 101 116 86 101 116 86 101 116 86 101 116 86 101 116 86 101 116 86 101 116 86 101 116 86 101 116 86 101 116 86 101 116 86 101 116 86 101 116 86 101 116 86 101 116 86 101 116 86 101 116 86 101 116 85 100 115 84 99 114 94 109 123 125 137 150 148 159 172 154 165 177 150 162 175 150 162 175 151 162 175 151 162 175 151 162 175 151 162 175 151 162 175 151 162 175 151 162 175 151 162 175 151 162 175 151 162 175 151 162 175 151 162 175 151 162 175 151 162 175 151 162 175 151 162 175 151 162 175 151 162 175 151 162 175 151 162 175 151 162 175 151 162 175 151 162 175 151 162 175 151 162 175 151 162 175 151 162 175 151 162 175 151 162 175 151 162 175 151 162 175 150 162 175 154 165 177 133 142 152 86 101 117 86 101 116 86 101 116 86 101 116 86 101 116 86 101 116 86 101 116 86 101 116 86 101 116 86 101 116 86 101 116 86 101 116 86 101 116 86 101 116 86 101 116 86 101 116 86 101 116 86 101 116 86 101 116 86 101 116 86 101 116 86 101 116 86 101 116 86 101 116 86 101 116 86 101 116 86 101 116 86 101 116 86 101 116 86 102 117 78 92 108 149 157 167 219 227 234 212 220 227 210 218 225 219 227 234 196 201 206
63 66 68 166 176 187 146 157 170 151 162 175 151 162 175 151 162 175 151 162 175 151 162 175 151 162 175 151 162 175 151 162 175 151 162 175 151 162 175 151 162 175 151 162 175 151 162 175 151 162 175 151 162 175 151 162 175 151 162 175 151 162 175 151 162 175 151 162 175 151 162 175 151 162 175 151 162 175 151 162 175 151 162 175 151 162 175 151 162 175 151 162 175 151 162 175 151 162 175 151 162 175 151 162 175 151 162 175 153 164 177 141 151 164 94 109 123 84 99 115 86 101 116 86 101 116 86 101 116 86 101 116 86 101 116 86 101 116 86 101 116 86 101 116 86 101 116 86 101 116 86 101 116 86 101 116 86 101 116 86 101 116 86 101 116 86 101 116 86 101 116 86 101 116 86 101 116 86 101 116 86 101 116 86 101 116 86 101 116 86 101 116 86 101 116 86 101 116 86 101 116 86 101 116 86 101 116 86 101 116 86 101 116 86 101 116 86 101 116 86 101 116 87 102 117 82 97 113 104 117 130 147 158 171 153 164 177 150 161 174 151 162 175 151 162 175 151 162 175 151 162 175 151 162 175 151 162 175 151 162 175 151 162 175 151 162 175 151 162 175 151 162 175 151 162 175 151 162 175 151 162 175 151 162 175 151 162 175 151 162 175 151 162 175 151 162 175 151 162 175 151 162 175 151 162 175 150 161 175 153 164 177 129 141 153 87 102 117 86 101 116 86 101 116 86 101 116 86 101 116 86 101 116 86 101 116 86 101 116 86 101 116 86 101 116 86 101 116 86 101 116 86 101 116 86 101 116 86 101 116 86 101 116 86 101 116 86 101 116 86 101 116 86 101 116 86 101 116 86 101 116 86 101 116 86 101 116 86 101 116 86 101 116 86 101 116 86 101 116 86 101 116 86 101 116 86 101 116 86 101 116 86 101 116 86 101 116 86 101 116 86 101 116 86 101 116 86 101 116 86 101 116 86 101 116 86 101 116 86 101 116 86 101 116 86 101 116 86 101 116 86 101 116 86 101 116 86 101 116 86 101 116 84 99 114 83 98 113 102 116 129 133 142 152 151 162 175 153 164 177 150 161 174 151 162 175 151 162 175 151 162 175 151 162 175 151 162 175 151 162 175 151 162 175 151 162 175 151 162 175 151 162 175 151 162 175 151 162 175 151 162 175 151 162 175 151 162 175 151 162 175 151 162 175 151 162 175 151 162 175 151 162 175 151 162 175 151 162 175 151 162 175 151 162 175 151 162 175 151 162 175 151 162 175 151 162 175 151 162 175 151 162 175 151 162 175 151 162 176 146 157 170 99 113 127 84 99 114 87 102 117 86 101 116 86 101 116 86 101 116 86 101 116 86 101 116 86 101 116 86 101 116 86 101 116 86 101 116 86 101 116 86 101 116 86 101 116 86 101 116 86 101 116 86 101 116 86 101 116 86 101 116 86 101 116 86 101 116 86 101 116 86 101 116 86 101 116 86 101 116 86 101 116 86 101 116 86 101 116 87 102 117 86 101 116 79 95 110 142 154 166 219 227 234 211 219 226 219 227 234 196 201 206
63 66 68 166 176 187 146 157 170 151 162 175 151 162 175 151 162 175 151 162 175 151 162 175 151 162 175 151 162 175 151 162 175 151 162 175 151 162 175 151 162 175 151 162 175 151 162 175 151 162 175 151 162 175 151 162 175 151 162 175 151 162 175 151 162 175 151 162 175 151 162 175 151 162 175 151 162 175 151 162 175 151 162 175 151 162 175 151 162 175 151 162 175 151 162 175 151 162 175 151 162 175 150 161 174 151 162 176 150 160 172 104 117 130 83 99 114 87 101 116 86 101 116 86 101 116 86 101 116 86 101 116 86 101 116 86 101 116 86 101 116 86 101 116 86 101 116 86 101 116 86 101 116 86 101 116 86 101 116 86 101 116 86 101 116 86 101 116 86 101 116 86 101 116 86 101 116 86 101 116 86 101 116 86 101 116 86 101 116 86 101 116 86 101 116 86 101 116 86 101 116 86 101 116 86 101 116 86 101 116 86 101 116 86 101 116 86 101 116 87 102 117 82 98 113 104 117 130 148 159 172 152 163 176 150 161 174 151 162 175 151 162 175 151 162 175 151 162 175 151 162 175 151 162 175 151 162 175 151 162 175 151 162 175 151 162 175 151 162 175 151 162 175 151 162 175 151 162 175 151 162 175 151 162 175 151 162 175 151 162 175 151 162 175 151 162 175 151 162 175 151 162 175 151 162 175 151 162 175 148 159 172 102 116 129 83 98 113 87 102 117 86 101 116 86 101 116 86 101 116 86 101 116 86 101 116 86 101 116 86 101 116 86 101 116 86 101 116 86 101 116 86 101 116 86 101 116 86 101 116 86 101 116 86 101 116 86 101 116 86 101 116 86 101 116 86 101 116 86 101 116 86 101 116 86 101 116 86 101 116 86 101 116 86 101 116 86 101 116 86 101 116 86 101 116 86 101 116 86 101 116 86 101 116 86 101 116 86 101 116 86 101 116 86 101 116 86 101 116 86 101 116 86 101 116 86 101 116 86 101 116 86 101 116 86 101 116 86 101 116 86 101 116 86 101 116 86 101 116 86 101 116 86 101 116 86 101 116 84 99 114 87 101 116 113 126 139 142 154 166 154 165 177 152 163 176 150 161 174 151 162 175 151 162 175 151 162 175 151 162 175 151 162 175 151 162 175 151 162 175 151 162 175 151 162 175 151 162 175 151 162 175 151 162 175 151 162 175 151 162 175 151 162 175 151 162 175 151 162 175 151 162 175 151 162 175 151 162 175 151 162 175 151 162 175 151 162 175 151 162 175 151 162 175 151 162 175 151 162 175 151 162 175 151 162 175 151 162 175 153 164 176 117 129 143 84 99 114 86 101 116 86 101 116 86 101 116 86 101 116 86 101 116 86 101 116 86 101 116 86 101 116 86 101 116 86 101 116 86 101 116 86 101 116 86 101 116 86 101 116 86 101 116 86 101 116 86 101 116 86 101 116 86 101 116 86 101 116 86 101 116 86 101 116 86 101 116 86 101 116 86 101 116 86 101 116 86 101 116 86 101 116 86 101 116 87 102 117 78 92 108 141 151 164 216 224 231 220 228 235 196 201 206
63 66 68 166 176 187 146 157 170 151 162 175 151 162 175 151 162 175 151 162 175 151 162 175 151 162 175 151 162 175 151 162 175 151 162 175 151 162 175 151 162 175 151 162 175 151 162 175 151 162 175 151 162 175 151 162 175 151 162 175 151 162 175 151 162 175 151 162 175 151 162 175 151 162 175 151 162 175 151 162 175 151 162 175 151 162 175 151 162 175 151 162 175 151 162 175 151 162 175 151 162 175 150 162 175 154 163 176 113 126 139 83 98 113 87 102 117 86 101 116 86 101 116 86 101 116 86 101 116 86 101 116 86 101 116 86 101 116 86 101 116 86 101 116 86 101 116 86 101 116 86 101 116 86 101 116 86 101 116 86 101 116 86 101 116 86 101 116 86 101 116 86 101 116 86 101 116 86 101 116 86 101 116 86 101 116 86 101 116 86 101 116 86 101 116 86 101 116 86 101 116 86 101 116 86 101 116 86 101 116 86 101 116 86 101 116 87 102 117 82 97 113 104 117 130 148 159 172 153 164 177 150 161 174 151 162 175 151 162 175 151 162 175 151 162 175 151 162 175 151 162 175 151 162 175 151 162 175 151 162 175 151 162 175 151 162 175 151 162 175 151 162 175 151 162 175 151 162 175 151 162 175 151 162 175 151 162 175 151 162 175 151 162 175 151 162 175 151 162 175 151 162 175 150 162 175 154 165 177 120 132 145 84 99 115 87 102 116 86 101 116 86 101 116 86 101 116 86 101 116 86 101 116 86 101 116 86 101 116 86 101 116 86 101 116 86 101 116 86 101 116 86 101 116 86 101 116 86 101 116 86 101 116 86 101 116 86 101 116 86 101 116 86 101 116 86 101 116 86 101 116 86 101 116 86 101 116 86 101 116 86 101 116 86 101 116 86 101 116 86 101 116 86 101 116 86 101 116 86 101 116 86 101 116 86 101 116 86 101 116 86 101 116 86 101 116 86 101 116 86 101 116 86 101 116 86 101 116 86 101 116 86 101 116 86 101 116 86 101 116 86 101 116 86 101 116 86 101 116 86 101 116 86 101 116 86 101 116 87 102 117 86 101 116 83 98 114 94 109 123 125 137 150 146 157 170 153 164 177 152 163 176 151 162 175 151 162 175 151 162 175 151 162 175 151 162 175 151 162 175 151 162 175 151 162 175 151 162 175 151 162 175 151 162 175 151 162 175 151 162 175 151 162 175 151 162 175 151 162 175 151 162 175 151 162 175 151 162 175 151 162 175 151 162 175 151 162 175 151 162 175 151 162 175 151 162 175 151 162 175 151 162 175 151 162 175 150 161 174 154 165 177 141 151 164 88 104 119 85 100 115 86 101 116 86 101 116 86 101 116 86 101 116 86 101 116 86 101 116 86 101 116 86 101 116 86 101 116 86 101 116 86 101 116 86 101 116 86 101 116 86 101 116 86 101 116 86 101 116 86 101 116 86 101 116 86 101 116 86 101 116 86 101 116 86 101 116 86 101 116 86 101 116 86 101 116 86 101 116 86 101 116 86 101 116 87 102 116 87 102 117 81 96 110 141 151 164 226 233 238 196 201 206
63 66 68 166 176 187 147 158 171 151 162 175 151 162 175 151 162 175 151 162 175 151 162 175 151 162 175 151 162 175 151 162 175 151 162 175 151 162 175 151 162 175 151 162 175 151 162 175 151 162 175 151 162 175 151 162 175 151 162 175 151 162 175 151 162 175 151 162 175 151 162 175 151 162 175 151 162 175 151 162 175 151 162 175 151 162 175 151 162 175 151 162 175 151 162 175 151 162 175 151 162 175 152 163 177 117 129 143 84 99 113 86 101 117 86 101 116 86 101 116 86 101 116 86 101 116 86 101 116 86 101 116 86 101 116 86 101 116 86 101 116 86 101 116 86 101 116 86 101 116 86 101 116 86 101 116 86 101 116 86 101 116 86 101 116 86 101 116 86 101 116 86 101 116 86 101 116 86 101 116 86 101 116 86 101 116 86 101 116 86 101 116 86 101 116 86 101 116 86 101 116 86 101 116 86 101 116 86 101 116 86 101 116 87 102 117 82 97 113 107 120 134 148 159 172 152 163 176 151 162 175 151 162 175 151 162 175 151 162 175 151 162 175 151 162 175 151 162 175 151 162 175 151 162 175 151 162 175 151 162 175 151 162 175 151 162 175 151 162 175 151 162 175 151 162 175 151 162 175 151 162 175 151 162 175 151 162 175 151 162 175 151 162 175 151 162 175 151 162 175 151 162 175 153 164 177 142 154 166 94 109 123 85 100 115 86 101 116 86 101 116 86 101 116 86 101 116 86 101 116 86 101 116 86 101 116 86 101 116 86 101 116 86 101 116 86 101 116 86 101 116 86 101 116 86 101 116 86 101 116 86 101 116 86 101 116 86 101 116 86 101 116 86 101 116 86 101 116 86 101 116 86 101 116 86 101 116 86 101 116 86 101 116 86 101 116 86 101 116 86 101 116 86 101 116 86 101 116 86 101 116 86 101 116 86 101 116 86 101 116 86 101 116 86 101 116 86 101 116 86 101 116 86 101 116 86 101 116 86 101 116 86 101 116 86 101 116 86 101 116 86 101 116 86 101 116 86 101 116 86 101 116 86 101 116 86 101 116 86 101 116 86 101 116 87 102 117 84 99 115 84 99 113 99 113 127 129 141 153 150 161 174 153 164 177 151 162 175 151 162 175 151 162 175 151 162 175 151 162 175 151 162 175 151 162 175 151 162 175 151 162 175 151 162 175 151 162 175 151 162 175 151 162 175 151 162 175 151 162 175 151 162 175 151 162 175 151 162 175 151 162 175 151 162 175 151 162 175 151 162 175 151 162 175 151 162 175 151 162 175 151 162 175 151 162 175 151 162 175 151 162 175 150 161 174 107 120 134 84 99 114 87 101 116 86 101 116 86 101 116 86 101 116 86 101 116 86 101 116 86 101 116 86 101 116 86 101 116 86 101 116 86 101 116 86 101 116 86 101 116 86 101 116 86 101 116 86 101 116 86 101 116 86 101 116 86 101 116 86 101 116 86 101 116 86 101 116 86 101 116 86 101 116 86 101 116 86 101 116 86 101 116 86 101 116 86 101 116 86 101 116 87 102 117 78 92 108 150 160 172 205 209 213
63 66 68 166 176 187 146 157 170 151 162 175 151 162 175 151 162 175 151 162 175 151 162 175 151 162 175 151 162 175 151 162 175 151 162 175 151 162 175 151 162 175 151 162 175 151 162 175 151 162 175 151 162 175 151 162 175 151 162 175 151 162 175 151 162 175 151 162 175 151 162 175 151 162 175 151 162 175 151 162 175 151 162 175 151 162 175 151 162 175 151 162 175 150 161 174 151 162 175 154 163 176 117 129 143 83 98 114 86 101 116 86 101 116 86 101 116 86 101 116 86 101 116 86 101 116 86 101 116 86 101 116 86 101 116 86 101 116 86 101 116 86 101 116 86 101 116 86 101 116 86 101 116 86 101 116 86 101 116 86 101 116 86 101 116 86 101 116 86 101 116 86 101 116 86 101 116 86 101 116 86 101 116 86 101 116 86 101 116 86 101 116 86 101 116 86 101 116 86 101 116 86 101 116 86 101 116 86 101 116 87 102 117 82 97 113 107 120 134 150 161 174 154 163 176 150 161 174 151 162 175 151 162 175 151 162 175 151 162 175 151 162 175 151 162 175 151 162 175 151 162 175 151 162 175 151 162 175 151 162 175 151 162 175 151 162 175 151 162 175 151 162 175 151 162 175 151 162 175 151 162 175 151 162 175 151 162 175 151 162 175 151 162 175 151 162 175 151 162 175 150 161 175 152 163 177 113 125 137 83 98 113 87 102 117 86 101 116 86 101 116 86 101 116 86 101 116 86 101 116 86 101 116 86 101 116 86 101 116 86 101 116 86 101 116 86 101 116 86 101 116 86 101 116 86 101 116 86 101 116 86 101 116 86 101 116 86 101 116 86 101 116 86 101 116 86 101 116 86 101 116 86 101 116 86 101 116 86 101 116 86 101 116 86 101 116 86 101 116 86 101 116 86 101 116 86 101 116 86 101 116 86 101 116 86 101 116 86 101 116 86 101 116 86 101 116 86 101 116 86 101 116 86 101 116 86 101 116 86 101 116 86 101 116 86 101 116 86 101 116 86 101 116 86 101 116 86 101 116 86 101 116 86 101 116 86 101 116 86 101 116 86 101 116 86 101 116 87 102 116 86 101 116 84 99 114 87 101 117 104 117 130 136 147 158 151 161 174 153 164 177 151 162 175 150 161 174 151 162 175 151 162 175 151 162 175 151 162 175 151 162 175 151 162 175 151 162 175 151 162 175 151 162 175 151 162 175 151 162 175 151 162 175 151 162 175 151 162 175 151 162 175 151 162 175 151 162 175 151 162 175 151 162 175 151 162 175 151 162 175 151 162 175 151 162 175 151 162 175 150 161 174 154 165 177 129 141 153 86 101 115 86 101 116 86 101 116 86 101 116 86 101 116 86 101 116 86 101 116 86 101 116 86 101 116 86 101 116 86 101 116 86 101 116 86 101 116 86 101 116 86 101 116 86 101 116 86 101 116 86 101 116 86 101 116 86 101 116 86 101 116 86 101 116 86 101 116 86 101 116 86 101 116 86 101 116 86 101 116 86 101 116 86 101 116 86 101 116 86 101 116 87 102 117 87 101 116 84 99 115 133 142 152
63 66 68 166 176 187 147 158 171 151 162 175 151 162 175 151 162 175 151 162 175 151 162 175 151 162 175 151 162 175 151 162 175 151 162 175 151 162 175 151 162 175 151 162 175 151 162 175 151 162 175 151 162 175 151 162 175 151 162 175 151 162 175 151 162 175 151 162 175 151 162 175 151 162 175 151 162 175 151 162 175 151 162 175 151 162 175 151 162 175 150 161 174 153 164 177 152 162 175 113 125 137 83 98 113 86 101 116 86 101 116 86 101 116 86 101 116 86 101 116 86 101 116 86 101 116 86 101 116 86 101 116 86 101 116 86 101 116 86 101 116 86 101 116 86 101 116 86 101 116 86 101 116 86 101 116 86 101 116 86 101 116 86 101 116 86 101 116 86 101 116 86 101 116 86 101 116 86 101 116 86 101 116 86 101 116 86 101 116 86 101 116 86 101 116 86 101 116 86 101 116 86 101 116 86 101 116 87 102 117 82 97 113 107 120 134 150 161 173 152 163 176 151 162 174 151 162 175 151 162 175 151 162 175 151 162 175 151 162 175 151 162 175 151 162 175 151 162 175 151 162 175 151 162 175 151 162 175 151 162 175 151 162 175 151 162 175 151 162 175 151 162 175 151 162 175 151 162 175 151 162 175 151 162 175 151 162 175 151 162 175 151 162 175 151 162 175 151 162 175 154 165 177 129 141 153 87 102 117 86 101 116 86 101 116 86 101 116 86 101 116 86 101 116 86 101 116 86 101 116 86 101 116 86 101 116 86 101 116 86 101 116 86 101 116 86 101 116 86 101 116 86 101 116 86 101 116 86 101 116 86 101 116 86 101 116 86 101 116 86 101 116 86 101 116 86 101 116 86 101 116 86 101 116 86 101 116 86 101 116 86 101 116 86 101 116 86 101 116 86 101 116 86 101 116 86 101 116 86 101 116 86 101 116 86 101 116 86 101 116 86 101 116 86 101 116 86 101 116 86 101 116 86 101 116 86 101 116 86 101 116 86 101 116 86 101 116 86 101 116 86 101 116 86 101 116 86 101 116 86 101 116 86 101 116 86 101 116 86 101 116 86 101 116 86 101 116 86 101 116 86 101 116 87 101 116 86 101 116 83 99 114 88 103 117 112 122 133 141 151 164 154 163 176 154 165 177 151 162 175 151 162 175 151 162 175 151 162 175 151 162 175 151 162 175 151 162 175 151 162 175 151 162 175 151 162 175 151 162 175 151 162 175 151 162 175 151 162 175 151 162 175 151 162 175 151 162 175 151 162 175 151 162 175 151 162 175 151 162 175 151 162 175 151 162 175 151 162 175 151 162 175 152 163 176 147 158 171 99 113 127 84 99 114 86 101 116 86 101 116 86 101 116 86 101 116 86 101 116 86 101 116 86 101 116 86 101 116 86 101 116 86 101 116 86 101 116 86 101 116 86 101 116 86 101 116 86 101 116 86 101 116 86 101 116 86 101 116 86 101 116 86 101 116 86 101 116 86 101 116 86 101 116 86 101 116 86 101 116 86 101 116 86 101 116 86 101 116 86 101 116 86 101 116 86 101 116 84 100 115 99 113 127
63 66 68 166 176 187 146 157 170 151 162 175 151 162 175 151 162 175 151 162 175 151 162 175 151 162 175 151 162 175 151 162 175 151 162 175 151 162 175 151 162 175 151 162 175 151 162 175 151 162 175 151 162 175 151 162 175 151 162 175 151 162 175 151 162 175 151 162 175 151 162 175 151 162 175 151 162 175 151 162 175 151 162 175 151 162 175 151 162 175 152 163 176 146 157 170 107 120 134 82 98 113 86 101 116 86 101 116 86 101 116 86 101 116 86 101 116 86 101 116 86 101 116 86 101 116 86 101 116 86 101 116 86 101 116 86 101 116 86 101 116 86 101 116 86 101 116 86 101 116 86 101 116 86 101 116 86 101 116 86 101 116 86 101 116 86 101 116 86 101 116 86 101 116 86 101 116 86 101 116 86 101 116 86 101 116 86 101 116 86 101 116 86 101 116 86 101 116 86 101 116 86 101 116 86 101 116 83 98 113 113 125 137 150 161 174 152 163 176 151 162 175 151 162 175 151 162 175 151 162 175 151 162 175 151 162 175 151 162 175 151 162 175 151 162 175 151 162 175 151 162 175 151 162 175 151 162 175 151 162 175 151 162 175 151 162 175 151 162 175 151 162 175 151 162 175 151 162 175 151 162 175 151 162 175 151 162 175 151 162 175 151 162 175 151 162 175 152 163 176 146 157 170 99 113 127 84 99 114 87 101 116 86 101 116 86 101 116 86 101 116 86 101 116 86 101 116 86 101 116 86 101 116 86 101 116 86 101 116 86 101 116 86 101 116 86 101 116 86 101 116 86 101 116 86 101 116 86 101 116 86 101 116 86 101 116 86 101 116 86 101 116 86 101 116 86 101 116 86 101 116 86 101 116 86 101 116 86 101 116 86 101 116 86 101 116 86 101 116 86 101 116 86 101 116 86 101 116 86 101 116 86 101 116 86 101 116 86 101 116 86 101 116 86 101 116 86 101 116 86 101 116 86 101 116 86 101 116 86 101 116 86 101 116 86 101 116 86 101 116 86 101 116 86 101 116 86 101 116 86 101 116 86 101 116 86 101 116 86 101 116 86 101 116 86 101 116 86 101 116 86 101 116 86 101 116 86 101 116 87 102 117 85 100 116 84 99 114 89 104 118 117 129 143 141 151 164 152 163 176 153 164 177 151 162 175 150 161 174 151 162 175 151 162 175 151 162 175 151 162 175 151 162 175 151 162 175 151 162 175 151 162 175 151 162 175 151 162 175 151 162 175 151 162 175 151 162 175 151 162 175 151 162 175 151 162 175 151 162 175 151 162 175 151 162 175 151 162 175 151 162 175 150 162 175 153 164 177 120 132 145 84 99 114 87 102 117 86 101 116 86 101 116 86 101 116 86 101 116 86 101 116 86 101 116 86 101 116 86 101 116 86 101 116 86 101 116 86 101 116 86 101 116 86 101 116 86 101 116 86 101 116 86 101 116 86 101 116 86 101 116 86 101 116 86 101 116 86 101 116 86 101 116 86 101 116 86 101 116 86 101 116 86 101 116 86 101 116 86 101 116 86 101 116 86 101 116 84 99 115 105 115 128
63 66 68 166 176 187 147 158 171 151 162 175 151 162 175 151 162 175 151 162 175 151 162 175 151 162 175 151 162 175 151 162 175 151 162 175 151 162 175 151 162 175 151 162 175 151 162 175 151 162 175 151 162 175 151 162 175 151 162 175 151 162 175 151 162 175 151 162 175 151 162 175 151 162 175 151 162 175 151 162 175 151 162 175 151 162 175 153 164 177 146 157 170 104 117 130 82 98 113 87 101 116 86 101 116 86 101 116 86 101 116 86 101 116 86 101 116 86 101 116 86 101 116 86 101 116 86 101 116 86 101 116 86 101 116 86 101 116 86 101 116 86 101 116 86 101 116 86 101 116 86 101 116 86 101 116 86 101 116 86 101 116 86 101 116 86 101 116 86 101 116 86 101 116 86 101 116 86 101 116 86 101 116 86 101 116 86 101 116 86 101 116 86 101 116 86 101 116 86 101 116 87 102 117 83 98 113 113 126 139 152 162 175 152 163 176 151 162 175 151 162 175 151 162 175 151 162 175 151 162 175 151 162 175 151 162 175 151 162 175 151 162 175 151 162 175 151 162 175 151 162 175 151 162 175 151 162 175 151 162 175 151 162 175 151 162 175 151 162 175 151 162 175 151 162 175 151 162 175 151 162 175 151 162 175 151 162 175 151 162 175 151 162 175 151 162 175 152 162 175 113 126 139 83 99 114 86 101 116 86 101 116 86 101 116 86 101 116 86 101 116 86 101 116 86 101 116 86 101 116 86 101 116 86 101 116 86 101 116 86 101 116 86 101 116 86 101 116 86 101 116 86 101 116 86 101 116 86 101 116 86 101 116 86 101 116 86 101 116 86 101 116 86 101 116 86 101 116 86 101 116 86 101 116 86 101 116 86 101 116 86 101 116 86 101 116 86 101 116 86 101 116 86 101 116 86 101 116 86 101 116 86 101 116 86 101 116 86 101 116 86 101 116 86 101 116 86 101 116 86 101 116 86 101 116 86 101 116 86 101 116 86 101 116 86 101 116 86 101 116 86 101 116 86 101 116 86 101 116 86 101 116 86 101 116 86 101 116 86 101 116 86 101 116 86 101 116 86 101 116 86 101 116 86 101 116 86 101 116 86 101 116 86 101 116 87 101 116 85 100 115 84 99 114 89 104 118 113 126 139 141 151 164 152 163 175 153 164 177 150 162 175 151 162 175 151 162 175 151 162 175 151 162 175 151 162 175 151 162 175 151 162 175 151 162 175 151 162 175 151 162 175 151 162 175 151 162 175 151 162 175 151 162 175 151 162 175 151 162 175 151 162 175 151 162 175 151 162 175 151 162 175 150 161 174 154 165 177 141 151 164 88 104 119 85 100 115 86 101 116 86 101 116 86 101 116 86 101 116 86 101 116 86 101 116 86 101 116 86 101 116 86 101 116 86 101 116 86 101 116 86 101 116 86 101 116 86 101 116 86 101 116 86 101 116 86 101 116 86 101 116 86 101 116 86 101 116 86 101 116 86 101 116 86 101 116 86 101 116 86 101 116 86 101 116 86 101 116 86 101 116 86 101 116 86 101 116 84 99 115 105 115 128
63 66 68 166 176 187 147 158 171 151 162 175 151 162 175 151 162 175 151 162 175 151 162 175 151 162 175 151 162 175 151 162 175 151 162 175 151 162 175 151 162 175 151 162 175 151 162 175 151 162 175 151 162 175 151 162 175 151 162 175 151 162 175 151 162 175 151 162 175 151 162 175 151 162 175 151 162 175 151 162 175 150 161 174 153 164 177 144 154 166 104 117 130 84 99 114 87 101 116 86 101 116 86 101 116 86 101 116 86 101 116 86 101 116 86 101 116 86 101 116 86 101 116 86 101 116 86 101 116 86 101 116 86 101 116 86 101 116 86 101 116 86 101 116 86 101 116 86 101 116 86 101 116 86 101 116 86 101 116 86 101 116 86 101 116 86 101 116 86 101 116 86 101 116 86 101 116 86 101 116 86 101 116 86 101 116 86 101 116 86 101 116 86 101 116 86 101 116 86 101 116 84 99 113 113 126 139 150 161 174 152 163 176 151 162 175 151 162 175 151 162 175 151 162 175 151 162 175 151 162 175 151 162 175 151 162 175 151 162 175 151 162 175 151 162 175 151 162 175 151 162 175 151 162 175 151 162 175 151 162 175 151 162 175 151 162 175 151 162 175 151 162 175 151 162 175 151 162 175 151 162 175 151 162 175 151 162 175 151 162 175 150 161 174 154 165 177 129 141 153 86 100 115 86 101 116 86 101 116 86 101 116 86 101 116 86 101 116 86 101 116 86 101 116 86 101 116 86 101 116 86 101 116 86 101 116 86 101 116 86 101 116 86 101 116 86 101 116 86 101 116 86 101 116 86 101 116 86 101 116 86 101 116 86 101 116 86 101 116 86 101 116 86 101 116 86 101 116 86 101 116 86 101 116 86 101 116 86 101 116 86 101 116 86 101 116 86 101 116 86 101 116 86 101 116 86 101 116 86 101 116 86 101 116 86 101 116 86 101 116 86 101 116 86 101 116 86 101 116 86 101 116 86 101 116 86 101 116 86 101 116 86 101 116 86 101 116 86 101 116 86 101 116 86 101 116 86 101 116 86 101 116 86 101 116 86 101 116 86 101 116 86 101 116 86 101 116 86 101 116 86 101 116 86 101 116 86 101 116 86 101 116 86 101 116 86 101 116 86 101 116 87 102 116 85 100 115 84 99 114 89 104 118 113 126 139 141 151 164 154 165 177 152 163 176 150 161 174 151 162 175 151 162 175 151 162 175 151 162 175 151 162 175 151 162 175 151 162 175 151 162 175 151 162 175 151 162 175 151 162 175 151 162 175 151 162 175 151 162 175 151 162 175 151 162 175 151 162 175 151 162 175 151 162 175 151 162 175 150 161 174 107 120 134 84 99 114 87 101 116 86 101 116 86 101 116 86 101 116 86 101 116 86 101 116 86 101 116 86 101 116 86 101 116 86 101 116 86 101 116 86 101 116 86 101 116 86 101 116 86 101 116 86 101 116 86 101 116 86 101 116 86 101 116 86 101 116 86 101 116 86 101 116 86 101 116 86 101 116 86 101 116 86 101 116 86 101 116 86 101 116 86 101 116 86 101 116 84 99 115 104 117 130
63 66 68 166 176 187 147 158 171 151 162 175 151 162 175 151 162 175 151 162 175 151 162 175 151 162 175 151 162 175 151 162 175 151 162 175 151 162 175 151 162 175 151 162 175 151 162 175 151 162 175 151 162 175 151 162 175 151 162 175 151 162 175 151 162 175 151 162 175 151 162 175 151 162 175 151 162 175 151 162 175 153 164 177 145 156 168 99 113 127 83 98 113 86 101 116 86 101 116 86 101 116 86 101 116 86 101 116 86 101 116 86 101 116 86 101 116 86 101 116 86 101 116 86 101 116 86 101 116 86 101 116 86 101 116 86 101 116 86 101 116 86 101 116 86 101 116 86 101 116 86 101 116 86 101 116 86 101 116 86 101 116 86 101 116 86 101 116 86 101 116 86 101 116 86 101 116 86 101 116 86 101 116 86 101 116 86 101 116 86 101 116 86 101 116 85 100 116 84 100 115 113 126 139 151 162 174 152 163 176 151 162 175 151 162 175 151 162 175 151 162 175 151 162 175 151 162 175 151 162 175 151 162 175 151 162 175 151 162 175 151 162 175 151 162 175 151 162 175 151 162 175 151 162 175 151 162 175 151 162 175 151 162 175 151 162 175 151 162 175 151 162 175 151 162 175 151 162 175 151 162 175 151 162 175 151 162 175 151 162 175 152 163 176 145 156 168 99 113 127 83 99 114 86 101 116 86 101 116 86 101 116 86 101 116 86 101 116 86 101 116 86 101 116 86 101 116 86 101 116 86 101 116 86 101 116 86 101 116 86 101 116 86 101 116 86 101 116 86 101 116 86 101 116 86 101 116 86 101 116 86 101 116 86 101 116 86 101 116 86 101 116 86 101 116 86 101 116 86 101 116 86 101 116 86 101 116 86 101 116 86 101 116 86 101 116 86 101 116 86 101 116 86 101 116 86 101 116 86 101 116 86 101 116 86 101 116 86 101 116 86 101 116 86 101 116 86 101 116 86 101 116 86 101 116 86 101 116 86 101 116 86 101 116 86 101 116 86 101 116 86 101 116 86 101 116 86 101 116 86 101 116 86 101 116 86 101 116 86 101 116 86 101 116 86 101 116 86 101 116 86 101 116 86 101 116 86 101 116 86 101 116 86 101 116 86 101 116 86 101 116 86 101 116 86 101 116 86 101 116 85 100 115 84 99 114 94 109 123 117 129 143 145 156 168 154 165 177 150 162 175 151 162 175 151 162 175 151 162 175 151 162 175 151 162 175 151 162 175 151 162 175 151 162 175 151 162 175 151 162 175 151 162 175 151 162 175 151 162 175 151 162 175 151 162 175 151 162 175 151 162 175 151 162 175 150 161 175 154 165 177 133 142 152 86 101 116 86 101 116 86 101 116 86 101 116 86 101 116 86 101 116 86 101 116 86 101 116 86 101 116 86 101 116 86 101 116 86 101 116 86 101 116 86 101 116 86 101 116 86 101 116 86 101 116 86 101 116 86 101 116 86 101 116 86 101 116 86 101 116 86 101 116 86 101 116 86 101 116 86 101 116 86 101 116 86 101 116 86 101 116 86 101 116 86 101 116 85 100 115 99 113 127
63 66 68 166 176 187 147 158 171 151 162 175 151 162 175 151 162 175 151 162 175 151 162 175 151 162 175 151 162 175 151 162 175 151 162 175 151 162 175 151 162 175 151 162 175 151 162 175 151 162 175 151 162 175 151 162 175 151 162 175 151 162 175 151 162 175 151 162 175 151 162 175 151 162 175 150 161 174 153 164 177 144 154 166 99 113 127 83 98 113 86 102 117 86 101 116 86 101 116 86 101 116 86 101 116 86 101 116 86 101 116 86 101 116 86 101 116 86 101 116 86 101 116 86 101 116 86 101 116 86 101 116 86 101 116 86 101 116 86 101 116 86 101 116 86 101 116 86 101 116 86 101 116 86 101 116 86 101 116 86 101 116 86 101 116 86 101 116 86 101 116 86 101 116 86 101 116 86 101 116 86 101 116 86 101 116 86 101 116 86 101 116 85 101 116 85 100 115 117 129 143 150 161 174 152 163 176 151 162 175 151 162 175 151 162 175 151 162 175 151 162 175 151 162 175 151 162 175 151 162 175 151 162 175 151 162 175 151 162 175 151 162 175 151 162 175 151 162 175 151 162 175 151 162 175 151 162 175 151 162 175 151 162 175 151 162 175 151 162 175 151 162 175 151 162 175 151 162 175 151 162 175 151 162 175 151 162 175 150 161 174 153 164 177 125 137 150 84 99 114 87 101 116 86 101 116 86 101 116 86 101 116 86 101 116 86 101 116 86 101 116 86 101 116 86 101 116 86 101 116 86 101 116 86 101 116 86 101 116 86 101 116 86 101 116 86 101 116 86 101 116 86 101 116 86 101 116 86 101 116 86 101 116 86 101 116 86 101 116 86 101 116 86 101 116 86 101 116 86 101 116 86 101 116 86 101 116 86 101 116 86 101 116 86 101 116 86 101 116 86 101 116 86 101 116 86 101 116 86 101 116 86 101 116 86 101 116 86 101 116 86 101 116 86 101 116 86 101 116 86 101 116 86 101 116 86 101 116 86 101 116 86 101 116 86 101 116 86 101 116 86 101 116 86 101 116 86 101 116 86 101 116 86 101 116 86 101 116 86 101 116 86 101 116 86 101 116 86 101 116 86 101 116 86 101 116 86 101 116 86 101 116 86 101 116 86 101 116 86 101 116 86 101 116 86 101 116 86 101 116 86 101 116 86 101 116 85 100 115 83 98 113 102 116 129 136 147 158 154 165 177 151 162 175 151 162 175 151 162 175 151 162 175 151 162 175 151 162 175 151 162 175 151 162 175 151 162 175 151 162 175 151 162 175 151 162 175 151 162 175 151 162 175 151 162 175 151 162 175 151 162 175 151 162 175 151 162 175 151 162 175 147 158 171 99 113 127 84 99 115 86 101 116 86 101 116 86 101 116 86 101 116 86 101 116 86 101 116 86 101 116 86 101 116 86 101 116 86 101 116 86 101 116 86 101 116 86 101 116 86 101 116 86 101 116 86 101 116 86 101 116 86 101 116 86 101 116 86 101 116 86 101 116 86 101 116 86 101 116 86 101 116 86 101 116 86 101 116 86 101 116 86 101 116 86 101 116 85 100 115 95 112 124
63 66 68 166 176 187 147 158 171 151 162 175 151 162 175 151 162 175 151 162 175 151 162 175 151 162 175 151 162 175 151 162 175 151 162 175 151 162 175 151 162 175 151 162 175 151 162 175 151 162 175 151 162 175 151 162 175 151 162 175 151 162 175 151 162 175 151 162 175 151 162 175 151 162 175 152 163 177 145 156 168 99 113 127 83 98 113 87 102 117 86 101 116 86 101 116 86 101 116 86 101 116 86 101 116 86 101 116 86 101 116 86 101 116 86 101 116 86 101 116 86 101 116 86 101 116 86 101 116 86 101 116 86 101 116 86 101 116 86 101 116 86 101 116 86 101 116 86 101 116 86 101 116 86 101 116 86 101 116 86 101 116 86 101 116 86 101 116 86 101 116 86 101 116 86 101 116 86 101 116 86 101 116 86 101 116 86 101 116 85 100 115 86 100 115 120 132 145 152 162 175 151 162 176 151 162 175 151 162 175 151 162 175 151 162 175 151 162 175 151 162 175 151 162 175 151 162 175 151 162 175 151 162 175 151 162 175 151 162 175 151 162 175 151 162 175 151 162 175 151 162 175 151 162 175 151 162 175 151 162 175 151 162 175 151 162 175 151 162 175 151 162 175 151 162 175 151 162 175 151 162 175 151 162 175 150 161 174 153 164 177 145 156 168 94 109 123 84 100 115 87 101 116 86 101 116 86 101 116 86 101 116 86 101 116 86 101 116 86 101 116 86 101 116 86 101 116 86 101 116 86 101 116 86 101 116 86 101 116 86 101 116 86 101 116 86 101 116 86 101 116 86 101 116 86 101 116 86 101 116 86 101 116 86 101 116 86 101 116 86 101 116 86 101 116 86 101 116 86 101 116 86 101 116 86 101 116 86 101 116 86 101 116 86 101 116 86 101 116 86 101 116 86 101 116 86 101 116 86 101 116 86 101 116 86 101 116 86 101 116 86 101 116 86 101 116 86 101 116 86 101 116 86 101 116 86 101 116 86 101 116 86 101 116 86 101 116 86 101 116 86 101 116 86 101 116 86 101 116 86 101 116 86 101 116 86 101 116 86 101 116 86 101 116 86 101 116 86 101 116 86 101 116 86 101 116 86 101 116 86 101 116 86 101 116 86 101 116 86 101 116 86 101 116 86 101 116 86 101 116 86 101 116 86 101 116 86 101 116 86 101 116 84 99 114 89 104 118 129 141 153 152 163 176 151 162 175 151 162 175 151 162 175 151 162 175 151 162 175 151 162 175 151 162 175 151 162 175 151 162 175 151 162 175 151 162 175 151 162 175 151 162 175 151 162 175 151 162 175 151 162 175 151 162 175 151 162 175 151 162 175 152 163 176 120 132 145 84 100 115 86 101 116 86 101 116 86 101 116 86 101 116 86 101 116 86 101 116 86 101 116 86 101 116 86 101 116 86 101 116 86 101 116 86 101 116 86 101 116 86 101 116 86 101 116 86 101 116 86 101 116 86 101 116 86 101 116 86 101 116 86 101 116 86 101 116 86 101 116 86 101 116 86 101 116 86 101 116 86 101 116 86 101 116 86 101 116 85 100 115 95 112 124
63 66 68 166 176 187 147 158 171 151 162 175 151 162 175 151 162 175 151 162 175 151 162 175 151 162 175 151 162 175 151 162 175 151 162 175 151 162 175 151 162 175 151 162 175 151 162 175 151 162 175 151 162 175 151 162 175 151 162 175 151 162 175 151 162 175 151 162 175 150 161 174 153 164 177 144 154 166 102 116 129 83 98 113 86 101 116 86 101 116 86 101 116 86 101 116 86 101 116 86 101 116 86 101 116 86 101 116 86 101 116 86 101 116 86 101 116 86 101 116 86 101 116 86 101 116 86 101 116 86 101 116 86 101 116 86 101 116 86 101 116 86 101 116 86 101 116 86 101 116 86 101 116 86 101 116 86 101 116 86 101 116 86 101 116 86 101 116 86 101 116 86 101 116 86 101 116 86 101 116 86 101 116 86 102 116 84 100 115 87 102 116 125 137 150 151 162 176 150 162 175 149 161 174 150 162 175 150 162 175 151 162 175 151 162 175 151 162 175 151 162 175 151 162 175 151 162 175 151 162 175 151 162 175 151 162 175 151 162 175 151 162 175 151 162 175 151 162 175 151 162 175 151 162 175 151 162 175 151 162 175 151 162 175 151 162 175 151 162 175 151 162 175 151 162 175 151 162 175 151 162 175 151 162 175 150 161 174 152 163 176 133 142 152 87 102 117 85 101 116 86 101 116 86 101 116 86 101 116 86 101 116 86 101 116 86 101 116 86 101 116 86 101 116 86 101 116 86 101 116 86 101 116 86 101 116 86 101 116 86 101 116 86 101 116 86 101 116 86 101 116 86 101 116 86 101 116 86 101 116 86 101 116 86 101 116 86 101 116 86 101 116 86 101 116 86 101 116 86 101 116 86 101 116 86 101 116 86 101 116 86 101 116 86 101 116 86 101 116 86 101 116 86 101 116 86 101 116 86 101 116 86 101 116 86 101 116 86 101 116 86 101 116 86 101 116 86 101 116 86 101 116 86 101 116 86 101 116 86 101 116 86 101 116 86 101 116 86 101 116 86 101 116 86 101 116 86 101 116 86 101 116 86 101 116 86 101 116 86 101 116 86 101 116 86 101 116 86 101 116 86 101 116 86 101 116 86 101 116 86 101 116 86 101 116 86 101 116 86 101 116 86 101 116 86 101 116 86 101 116 86 101 116 86 101 116 86 101 116 86 101 116 87 102 117 85 100 114 87 102 117 129 141 153 152 162 175 151 162 175 151 162 175 151 162 175 151 162 175 151 162 175 151 162 175 151 162 175 151 162 175 151 162 175 151 162 175 151 162 175 151 162 175 151 162 175 151 162 175 151 162 175 151 162 175 151 162 175 150 161 174 153 164 177 141 151 164 89 104 118 85 100 115 86 101 116 86 101 116 86 101 116 86 101 116 86 101 116 86 101 116 86 101 116 86 101 116 86 101 116 86 101 116 86 101 116 86 101 116 86 101 116 86 101 116 86 101 116 86 101 116 86 101 116 86 101 116 86 101 116 86 101 116 86 101 116 86 101 116 86 101 116 86 101 116 86 101 116 86 101 116 86 101 116 86 101 116 85 100 115 95 112 124
63 66 68 166 176 187 147 158 171 151 162 175 151 162 175 151 162 175 151 162 175 151 162 175 151 162 175 151 162 175 151 162 175 151 162 175 151 162 175 151 162 175 151 162 175 151 162 175 151 162 175 151 162 175 151 162 175 151 162 175 151 162 175 151 162 175 150 161 174 154 165 177 145 156 168 99 113 127 83 98 113 87 102 117 86 101 116 86 101 116 86 101 116 86 101 116 86 101 116 86 101 116 86 101 116 86 101 116 86 101 116 86 101 116 86 101 116 86 101 116 86 101 116 86 101 116 86 101 116 86 101 116 86 101 116 86 101 116 86 101 116 86 101 116 86 101 116 86 101 116 86 101 116 86 101 116 86 101 116 86 101 116 86 101 116 85 102 116 85 102 116 86 102 116 86 102 117 87 101 117 88 99 116 88 99 116 88 102 117 125 137 150 159 168 179 155 164 178 155 164 178 155 164 178 155 164 178 152 162 175 151 162 175 149 161 174 149 161 174 151 162 175 151 162 175 151 162 175 151 162 175 151 162 175 151 162 175 151 162 175 151 162 175 151 162 175 151 162 175 151 162 175 151 162 175 151 162 175 151 162 175 151 162 175 151 162 175 151 162 175 151 162 175 151 162 175 151 162 175 151 162 175 151 162 175 151 162 175 151 161 174 117 129 143 86 101 116 86 101 116 86 101 116 86 101 116 86 101 116 86 101 116 86 101 116 86 101 116 86 101 116 86 101 116 86 101 116 86 101 116 86 101 116 86 101 116 86 101 116 86 101 116 86 101 116 86 101 116 86 101 116 86 101 116 86 101 116 86 101 116 86 101 116 86 101 116 86 101 116 86 101 116 86 101 116 86 101 116 86 101 116 86 101 116 86 101 116 86 101 116 86 101 116 86 101 116 86 101 116 86 101 116 86 101 116 86 101 116 86 101 116 86 101 116 86 101 116 86 101 116 86 101 116 86 101 116 86 101 116 86 101 116 86 101 116 86 101 116 86 101 116 86 101 116 86 101 116 86 101 116 86 101 116 86 101 116 86 101 116 86 101 116 86 101 116 86 101 116 86 101 116 86 101 116 86 101 116 86 101 116 86 101 116 86 101 116 86 101 116 86 101 116 86 101 116 86 101 116 86 101 116 86 101 116 86 101 116 86 101 116 86 101 116 86 101 116 86 101 116 86 101 116 86 101 116 87 102 116 85 100 115 88 102 117 129 141 153 153 164 176 151 162 175 151 162 175 151 162 175 151 162 175 151 162 175 151 162 175 151 162 175 151 162 175 151 162 175 151 162 175 151 162 175 151 162 175 151 162 175 151 162 175 151 162 175 151 162 175 151 162 175 151 162 175 150 160 172 107 120 134 84 99 114 87 102 116 86 101 116 86 101 116 86 101 116 86 101 116 86 101 116 86 101 116 86 101 116 86 101 116 86 101 116 86 101 116 86 101 116 86 101 116 86 101 116 86 101 116 86 101 116 86 101 116 86 101 116 86 101 116 86 101 116 86 101 116 86 101 116 86 101 116 86 101 116 86 101 116 86 101 116 86 101 116 86 101 116 85 100 115 99 113 127
63 66 68 166 176 187 148 159 172 151 162 175 151 162 175 151 162 175 151 162 175 151 162 175 151 162 175 151 162 175 151 162 175 151 162 175 151 162 175 151 162 175 151 162 175 151 162 175 151 162 175 151 162 175 151 162 175 151 162 175 151 162 175 150 161 174 153 164 177 144 154 166 99 113 127 83 99 114 86 101 116 86 101 116 86 101 116 86 101 116 86 101 116 86 101 116 86 101 116 86 101 116 86 101 116 86 101 116 86 101 116 86 101 116 86 101 116 86 101 116 86 101 116 86 101 116 86 101 116 86 101 116 86 101 116 86 101 116 86 101 116 86 101 116 86 101 116 86 101 116 86 101 116 86 102 116 86 101 116 87 101 117 87 101 117 88 99 116 88 96 115 88 96 115 85 98 114 83 99 114 85 102 116 73 111 110 70 121 110 81 171 134 120 132 145 132 151 159 132 151 159 132 151 159 132 151 159 145 156 168 152 162 175 159 168 179 159 168 179 152 162 175 150 162 175 150 162 175 151 162 175 151 162 175 151 162 175 151 162 175 151 162 175 151 162 175 151 162 175 151 162 175 151 162 175 151 162 175 151 162 175 151 162 175 151 162 175 151 162 175 151 162 175 151 162 175 151 162 175 151 162 175 151 162 175 151 162 175 151 162 176 113 126 139 83 98 114 87 102 117 86 101 116 86 101 116 86 101 116 86 101 116 86 101 116 86 101 116 86 101 116 86 101 116 86 101 116 86 101 116 86 101 116 86 101 116 86 101 116 86 101 116 86 101 116 86 101 116 86 101 116 86 101 116 86 101 116 86 101 116 86 101 116 86 101 116 86 101 116 86 101 116 86 101 116 86 101 116 86 101 116 86 101 116 86 101 116 86 101 116 86 101 116 86 101 116 86 101 116 86 101 116 86 101 116 86 101 116 86 101 116 86 101 116 86 101 116 86 101 116 86 101 116 86 101 116 86 101 116 86 101 116 86 101 116 86 101 116 86 101 116 86 101 116 86 101 116 86 101 116 86 101 116 86 101 116 86 101 116 86 101 116 86 101 116 86 101 116 86 101 116 86 101 116 86 101 116 86 101 116 86 101 116 86 101 116 86 101 116 86 101 116 86 101 116 86 101 116 86 101 116 86 101 116 86 101 116 86 101 116 86 101 116 86 101 116 86 101 116 86 101 116 86 101 116 86 101 116 86 101 116 85 100 115 87 103 118 129 141 153 154 163 176 150 162 175 151 162 175 151 162 175 151 162 175 151 162 175 151 162 175 151 162 175 151 162 175 151 162 175 151 162 175 151 162 175 151 162 175 151 162 175 151 162 175 151 162 175 151 162 175 150 161 174 154 165 177 125 137 150 85 100 114 86 101 116 86 101 116 86 101 116 86 101 116 86 101 116 86 101 116 86 101 116 86 101 116 86 101 116 86 101 116 86 101 116 86 101 116 86 101 116 86 101 116 86 101 116 86 101 116 86 101 116 86 101 116 86 101 116 86 101 116 86 101 116 86 101 116 86 101 116 86 101 116 86 101 116 86 101 116 86 101 116 86 101 116 85 100 115 95 112 124
63 66 68 166 176 187 147 158 171 151 162 175 151 162 175 151 162 175 151 162 175 151 162 175 151 162 175 151 162 175 151 162 175 151 162 175 151 162 175 151 162 175 151 162 175 151 162 175 151 162 175 151 162 175 151 162 175 151 162 175 150 161 174 153 164 177 145 156 168 95 112 124 82 97 113 87 102 117 86 101 116 86 101 116 86 101 116 86 101 116 86 101 116 86 101 116 86 101 116 86 101 116 86 101 116 86 101 116 86 101 116 86 101 116 86 101 116 86 101 116 86 101 116 86 101 116 86 101 116 86 101 116 86 101 116 86 101 116 86 101 116 86 101 116 85 102 116 86 102 117 88 99 116 88 99 116 88 99 116 83 98 112 73 104 106 70 121 110 64 142 114 64 142 114 46 151 105 46 151 105 34 160 100 34 160 100 21 130 84 21 130 84 21 130 84 21 130 84 21 130 84 25 129 86 37 130 93 46 151 105 64 142 114 64 142 114 113 126 139 145 156 168 155 164 178 155 164 178 152 162 175 149 161 174 151 162 175 151 162 175 151 162 175 151 162 175 151 162 175 151 162 175 151 162 175 151 162 175 151 162 175 151 162 175 151 162 175 151 162 175 151 162 175 151 162 175 151 162 175 151 162 175 151 162 175 151 162 175 152 162 175 113 126 139 82 97 113 87 102 117 86 101 116 86 101 116 86 101 116 86 101 116 86 101 116 86 101 116 86 101 116 86 101 116 86 101 116 86 101 116 86 101 116 86 101 116 86 101 116 86 101 116 86 101 116 86 101 116 86 101 116 86 101 116 86 101 116 86 101 116 86 101 116 86 101 116 86 101 116 86 101 116 86 101 116 86 101 116 86 101 116 86 101 116 86 101 116 86 101 116 86 101 116 86 101 116 86 101 116 86 101 116 86 101 116 86 101 116 86 101 116 86 101 116 86 101 116 86 101 116 86 101 116 86 101 116 86 101 116 86 101 116 86 101 116 86 101 116 86 101 116 86 101 116 86 101 116 86 101 116 86 101 116 86 101 116 86 101 116 86 101 116 86 101 116 86 101 116 86 101 116 86 101 116 86 101 116 86 101 116 86 101 116 86 101 116 86 101 116 86 101 116 86 101 116 86 101 116 86 101 116 86 101 116 86 101 116 86 101 116 86 101 116 86 101 116 86 101 116 86 101 116 86 101 116 86 101 116 86 101 116 87 102 117 84 100 115 89 104 118 136 147 158 154 165 177 150 161 174 151 162 175 151 162 175 151 162 175 151 162 175 151 162 175 151 162 175 151 162 175 151 162 175 151 162 175 151 162 175 151 162 175 151 162 175 151 162 175 151 162 175 151 162 175 152 163 176 145 156 168 94 109 123 84 99 115 86 101 116 86 101 116 86 101 116 86 101 116 86 101 116 86 101 116 86 101 116 86 101 116 86 101 116 86 101 116 86 101 116 86 101 116 86 101 116 86 101 116 86 101 116 86 101 116 86 101 116 86 101 116 86 101 116 86 101 116 86 101 116 86 101 116 86 101 116 86 101 116 86 101 116 86 101 116 86 101 116 85 100 115 99 113 127
63 66 68 166 176 187 148 159 172 151 162 175 151 162 175 151 162 175 151 162 175 151 162 175 151 162 175 151 162 175 151 162 175 151 162 175 151 162 175 151 162 175 151 162 175 151 162 175 151 162 175 151 162 175 151 162 175 150 162 175 153 164 177 145 156 168 99 113 127 84 99 114 87 101 117 86 101 116 86 101 116 86 101 116 86 101 116 86 101 116 86 101 116 86 101 116 86 101 116 86 101 116 86 101 116 86 101 116 86 101 116 86 101 116 86 101 116 86 101 116 86 101 116 86 101 116 86 101 116 86 101 116 86 101 116 86 101 116 86 102 116 87 102 117 88 96 115 88 96 115 73 111 110 70 121 110 46 151 105 46 151 105 34 170 103 33 170 103 31 178 104 31 178 104 30 179 104 31 178 104 31 178 104 28 146 91 25 129 86 26 132 88 26 132 88 26 132 88 26 132 88 25 132 87 23 132 86 21 130 84 21 130 84 21 130 84 21 130 84 37 130 93 64 142 114 132 151 159 150 160 172 159 168 179 151 162 175 150 162 175 151 162 175 151 162 175 151 162 175 151 162 175 151 162 175 151 162 175 151 162 175 151 162 175 151 162 175 151 162 175 151 162 175 151 162 175 151 162 175 151 162 175 151 162 175 151 162 175 152 162 175 113 126 139 82 97 113 87 102 117 86 101 116 86 101 116 86 101 116 86 101 116 86 101 116 86 101 116 86 101 116 86 101 116 86 101 116 86 101 116 86 101 116 86 101 116 86 101 116 86 101 116 86 101 116 86 101 116 86 101 116 86 101 116 86 101 116 86 101 116 86 101 116 86 101 116 86 101 116 86 101 116 86 101 116 86 101 116 86 101 116 86 101 116 86 101 116 86 101 116 86 101 116 86 101 116 86 101 116 86 101 116 86 101 116 86 101 116 86 101 116 86 101 116 86 101 116 86 101 116 86 101 116 86 101 116 86 101 116 86 101 116 86 101 116 86 101 116 86 101 116 86 101 116 86 101 116 86 101 116 86 101 116 86 101 116 86 101 116 86 101 116 86 101 116 86 101 116 86 101 116 86 101 116 86 101 116 86 101 116 86 101 116 86 101 116 86 101 116 86 101 116 86 101 116 86 101 116 86 101 116 86 101 116 86 101 116 86 101 116 86 101 116 86 101 116 86 101 116 86 101 116 86 101 116 86 101 116 86 101 116 86 101 116 86 101 116 84 99 114 89 104 118 141 151 164 154 165 177 150 162 175 151 162 175 151 162 175 151 162 175 151 162 175 151 162 175 151 162 175 151 162 175 151 162 175 151 162 175 151 162 175 151 162 175 151 162 175 151 162 175 151 162 175 151 162 175 152 163 175 113 125 137 83 98 114 87 102 116 86 101 116 86 101 116 86 101 116 86 101 116 86 101 116 86 101 116 86 101 116 86 101 116 86 101 116 86 101 116 86 101 116 86 101 116 86 101 116 86 101 116 86 101 116 86 101 116 86 101 116 86 101 116 86 101 116 86 101 116 86 101 116 86 101 116 86 101 116 86 101 116 86 101 116 86 101 116 85 100 115 95 112 124
63 66 68 166 176 187 148 159 172 151 162 175 151 162 175 151 162 175 151 162 175 151 162 175 151 162 175 151 162 175 151 162 175 151 162 175 151 162 175 151 162 175 151 162 175 151 162 175 151 162 175 151 162 175 150 161 174 153 164 177 144 154 166 99 113 127 83 99 114 86 101 116 86 101 116 86 101 116 86 101 116 86 101 116 86 101 116 86 101 116 86 101 116 86 101 116 86 101 116 86 101 116 86 101 116 86 101 116 86 101 116 86 101 116 86 101 116 86 101 116 86 101 116 86 101 116 86 101 116 86 101 116 86 102 116 87 101 116 88 99 116 83 98 112 70 121 110 46 151 105 34 170 103 31 177 104 31 177 104 31 177 104 33 176 104 33 175 104 33 173 104 33 173 104 34 173 104 33 174 104 33 170 103 27 134 88 25 131 87 25 132 87 25 132 87 25 132 87 25 132 87 25 132 87 26 132 88 26 132 88 27 134 88 27 134 88 26 132 88 21 130 84 21 130 84 21 130 84 64 142 114 120 132 145 151 162 174 155 164 178 151 162 175 149 161 174 151 162 175 151 162 175 151 162 175 151 162 175 151 162 175 151 162 175 151 162 175 151 162 175 151 162 175 151 162 175 151 162 175 151 162 175 151 162 175 151 162 175 152 162 175 113 126 139 82 97 113 87 102 117 86 101 116 86 101 116 86 101 116 86 101 116 86 101 116 86 101 116 86 101 116 86 101 116 86 101 116 86 101 116 86 101 116 86 101 116 86 101 116 86 101 116 86 101 116 86 101 116 86 101 116 86 101 116 86 101 116 86 101 116 86 101 116 86 101 116 86 101 116 86 101 116 86 101 116 86 101 116 86 101 116 86 101 116 86 101 116 86 101 116 86 101 116 86 101 116 86 101 116 86 101 116 86 101 116 86 101 116 86 101 116 86 101 116 86 101 116 86 101 116 86 101 116 86 101 116 86 101 116 86 101 116 86 101 116 86 101 116 86 101 116 86 101 116 86 101 116 86 101 116 86 101 116 86 101 116 86 101 116 86 101 116 86 101 116 86 101 116 86 101 116 86 101 116 86 101 116 86 101 116 86 101 116 86 101 116 86 101 116 86 101 116 86 101 116 86 101 116 86 101 116 86 101 116 86 101 116 86 101 116 86 101 116 86 101 116 86 101 116 86 101 116 86 101 116 86 101 116 86 101 116 86 101 116 86 101 116 87 102 117 84 99 114 95 112 124 141 151 164 153 164 177 151 162 175 151 162 175 151 162 175 151 162 175 151 162 175 151 162 175 151 162 175 151 162 175 151 162 175 151 162 175 151 162 175 151 162 175 151 162 175 151 162 175 150 161 174 154 165 177 136 147 158 85 101 116 86 101 116 86 101 116 86 101 116 86 101 116 86 101 116 86 101 116 86 101 116 86 101 116 86 101 116 86 101 116 86 101 116 86 101 116 86 101 116 86 101 116 86 101 116 86 101 116 86 101 116 86 101 116 86 101 116 86 101 116 86 101 116 86 101 116 86 101 116 86 101 116 86 101 116 86 101 116 86 101 116 85 100 115 99 113 127
63 66 68 166 176 187 148 159 172 151 162 175 151 162 175 151 162 175 151 162 175 151 162 175 151 162 175 151 162 175 151 162 175 151 162 175 151 162 175 151 162 175 151 162 175 151 162 175 151 162 175 151 162 175 153 164 176 142 154 166 99 113 127 83 98 114 86 102 117 86 101 116 86 101 116 86 101 116 86 101 116 86 101 116 86 101 116 86 101 116 86 101 116 86 101 116 86 101 116 86 101 116 86 101 116 86 101 116 86 101 116 86 101 116 86 101 116 86 101 116 86 101 116 86 101 116 85 102 116 87 101 117 88 96 115 82 98 113 70 121 110 34 160 100 33 174 104 30 179 104 31 175 104 33 173 104 33 173 104 33 173 104 33 174 104 33 174 104 33 174 104 33 174 104 33 173 104 34 178 106 31 157 95 25 129 86 25 133 87 25 132 87 25 132 87 25 132 87 25 132 87 25 132 87 25 132 87 25 132 87 25 132 87 25 132 87 25 132 87 26 132 88 26 132 88 26 132 88 21 130 84 21 130 84 37 130 93 125 137 150 149 161 174 155 164 178 149 161 174 150 162 175 151 162 175 151 162 175 151 162 175 151 162 175 151 162 175 151 162 175 151 162 175 151 162 175 151 162 175 151 162 175 151 162 175 151 162 175 152 162 175 113 126 139 82 97 113 87 102 117 86 101 116 86 101 116 86 101 116 86 101 116 86 101 116 86 101 116 86 101 116 86 101 116 86 101 116 86 101 116 86 101 116 86 101 116 86 101 116 86 101 116 86 101 116 86 101 116 86 101 116 86 101 116 86 101 116 86 101 116 86 101 116 86 101 116 86 101 116 86 101 116 86 101 116 86 101 116 86 101 116 86 101 116 86 101 116 86 101 116 86 101 116 86 101 116 86 101 116 86 101 116 86 101 116 86 101 116 86 101 116 86 101 116 86 101 116 86 101 116 86 101 116 86 101 116 86 101 116 86 101 116 86 101 116 86 101 116 86 101 116 86 101 116 86 101 116 86 101 116 86 101 116 86 101 116 86 101 116 86 101 116 86 101 116 86 101 116 86 101 116 86 101 116 86 101 116 86 101 116 86 101 116 86 101 116 86 101 116 86 101 116 86 101 116 86 101 116 86 101 116 86 101 116 86 101 116 86 101 116 86 101 116 86 101 116 86 101 116 86 101 116 86 101 116 86 101 116 86 101 116 86 101 116 86 101 116 86 101 116 87 102 117 83 99 114 99 113 127 145 156 168 152 163 176 151 162 175 151 162 175 151 162 175 151 162 175 151 162 175 151 162 175 151 162 175 151 162 175 151 162 175 151 162 175 151 162 175 151 162 175 151 162 175 151 162 175 152 163 176 146 157 170 95 112 124 84 99 114 87 102 117 86 101 116 86 101 116 86 101 116 86 101 116 86 101 116 86 101 116 86 101 116 86 101 116 86 101 116 86 101 116 86 101 116 86 101 116 86 101 116 86 101 116 86 101 116 86 101 116 86 101 116 86 101 116 86 101 116 86 101 116 86 101 116 86 101 116 86 101 116 86 101 116 86 101 116 84 99 115 105 115 128
63 66 68 166 176 187 148 159 172 151 162 175 151 162 175 151 162 175 151 162 175 151 162 175 151 162 175 151 162 175 151 162 175 151 162 175 151 162 175 151 162 175 151 162 175 151 162 175 151 162 175 152 163 176 136 147 158 95 112 124 84 99 114 86 101 116 86 101 116 86 101 116 86 101 116 86 101 116 86 101 116 86 101 116 86 101 116 86 101 116 86 101 116 86 101 116 86 101 116 86 101 116 86 101 116 86 101 116 86 101 116 86 101 116 86 101 116 86 101 116 85 102 116 86 101 116 88 96 115 82 98 113 70 121 110 34 160 100 31 178 104 31 177 104 33 174 104 33 172 104 33 174 104 33 174 104 33 174 104 33 174 104 33 174 104 33 174 104 33 174 104 33 174 104 33 173 104 33 174 104 28 146 91 25 129 86 25 133 87 25 132 87 25 132 87 25 132 87 25 132 87 25 132 87 25 132 87 25 132 87 25 132 87 25 132 87 25 132 87 25 132 87 25 132 87 25 132 87 26 132 88 26 132 88 21 130 84 21 130 84 64 142 114 132 151 159 155 164 178 154 163 176 149 161 174 150 162 175 151 162 175 151 162 175 151 162 175 151 162 175 151 162 175 151 162 175 151 162 175 151 162 175 151 162 175 151 162 175 151 162 176 113 125 137 83 98 114 87 102 117 86 101 116 86 101 116 86 101 116 86 101 116 86 101 116 86 101 116 86 101 116 86 101 116 86 101 116 86 101 116 86 101 116 86 101 116 86 101 116 86 101 116 86 101 116 86 101 116 86 101 116 86 101 116 86 101 116 86 101 116 86 101 116 86 101 116 86 101 116 86 101 116 86 101 116 86 101 116 86 101 116 86 101 116 86 101 116 86 101 116 86 101 116 86 101 116 86 101 116 86 101 116 86 101 116 86 101 116 86 101 116 86 101 116 86 101 116 86 101 116 86 101 116 86 101 116 86 101 116 86 101 116 86 101 116 86 101 116 86 101 116 86 101 116 86 101 116 86 101 116 86 101 116 86 101 116 86 101 116 86 101 116 86 101 116 86 101 116 86 101 116 86 101 116 86 101 116 86 101 116 86 101 116 86 101 116 86 101 116 86 101 116 86 101 116 86 101 116 86 101 116 86 101 116 86 101 116 86 101 116 86 101 116 86 101 116 86 101 116 86 101 116 86 101 116 86 101 116 86 101 116 86 101 116 86 101 116 86 101 116 86 101 116 86 101 116 84 99 114 102 116 129 147 158 171 152 163 176 150 162 175 151 162 175 151 162 175 151 162 175 151 162 175 151 162 175 151 162 175 151 162 175 151 162 175 151 162 175 151 162 175 151 162 175 151 162 175 150 161 174 152 162 175 117 129 143 84 99 114 87 102 116 86 101 116 86 101 116 86 101 116 86 101 116 86 101 116 86 101 116 86 101 116 86 101 116 86 101 116 86 101 116 86 101 116 86 101 116 86 101 116 86 101 116 86 101 116 86 101 116 86 101 116 86 101 116 86 101 116 86 101 116 86 101 116 86 101 116 86 101 116 86 101 116 86 101 116 84 99 115 105 115 128
63 66 68 166 176 187 148 159 172 151 162 175 151 162 175 151 162 175 151 162 175 151 162 175 151 162 175 151 162 175 151 162 175 151 162 175 151 162 175 151 162 175 151 162 175 151 162 175 154 165 177 141 151 164 95 112 124 84 99 114 86 101 116 86 101 116 86 101 116 86 101 116 86 101 116 86 101 116 86 101 116 86 101 116 86 101 116 86 101 116 86 101 116 86 101 116 86 101 116 86 101 116 86 101 116 86 101 116 86 101 116 86 101 116 86 101 116 86 102 117 88 99 116 84 99 113 70 121 110 34 160 100 31 178 104 33 176 104 33 173 104 33 173 104 33 174 104 33 174 104 33 174 104 33 174 104 33 174 104 33 174 104 33 174 104 33 174 104 33 174 104 33 174 104 33 176 105 31 169 101 27 134 88 25 132 87 25 132 87 25 132 87 25 132 87 25 132 87 25 132 87 25 132 87 25 132 87 25 132 87 25 132 87 25 132 87 25 132 87 25 132 87 25 132 87 25 132 87 25 132 87 25 132 87 26 132 88 26 132 88 21 130 84 25 129 86 64 142 114 142 154 166 159 168 179 151 162 176 150 162 175 151 162 175 151 162 175 151 162 175 151 162 175 151 162 175 151 162 175 151 162 175 151 162 175 151 162 175 151 161 174 104 117 130 83 99 114 87 101 116 86 101 116 86 101 116 86 101 116 86 101 116 86 101 116 86 101 116 86 101 116 86 101 116 86 101 116 86 101 116 86 101 116 86 101 116 86 101 116 86 101 116 86 101 116 86 101 116 86 101 116 86 101 116 86 101 116 86 101 116 86 101 116 86 101 116 86 101 116 86 101 116 86 101 116 86 101 116 86 101 116 86 101 116 86 101 116 86 101 116 86 101 116 86 101 116 86 101 116 86 101 116 86 101 116 86 101 116 86 101 116 86 101 116 86 101 116 86 101 116 86 101 116 86 101 116 86 101 116 86 101 116 86 101 116 86 101 116 86 101 116 86 101 116 86 101 116 86 101 116 86 101 116 86 101 116 86 101 116 86 101 116 86 101 116 86 101 116 86 101 116 86 101 116 86 101 116 86 101 116 86 101 116 86 101 116 86 101 116 86 101 116 86 101 116 86 101 116 86 101 116 86 101 116 86 101 116 86 101 116 86 101 116 86 101 116 86 101 116 86 101 116 86 101 116 86 101 116 86 101 116 86 101 116 86 101 116 86 101 116 86 101 116 86 101 116 86 101 116 84 99 114 112 122 133 148 159 172 151 162 176 151 162 175 151 162 175 151 162 175 151 162 175 151 162 175 151 162 175 151 162 175 151 162 175 151 162 175 151 162 175 151 162 175 151 162 175 150 161 174 155 164 178 136 147 158 88 102 117 85 100 115 86 101 116 86 101 116 86 101 116 86 101 116 86 101 116 86 101 116 86 101 116 86 101 116 86 101 116 86 101 116 86 101 116 86 101 116 86 101 116 86 101 116 86 101 116 86 101 116 86 101 116 86 101 116 86 101 116 86 101 116 86 101 116 86 101 116 86 101 116 86 101 116 86 101 116 84 99 115 105 115 128
63 66 68 166 176 187 147 158 171 151 162 175 151 162 175 151 162 175 151 162 175 151 162 175 151 162 175 151 162 175 151 162 175 151 162 175 151 162 175 151 162 175 150 162 175 153 164 177 136 147 158 95 112 124 84 99 115 86 101 116 86 101 116 86 101 116 86 101 116 86 101 116 86 101 116 86 101 116 86 101 116 86 101 116 86 101 116 86 101 116 86 101 116 86 101 116 86 101 116 86 101 116 86 101 116 86 101 116 86 101 116 86 102 116 88 99 116 85 98 114 70 121 110 46 151 105 31 175 104 31 177 104 33 173 104 33 173 104 33 174 104 33 174 104 33 174 104 33 174 104 33 174 104 33 174 104 33 174 104 33 174 104 33 174 104 33 174 104 33 174 104 33 174 104 33 176 105 34 160 100 25 131 87 25 132 87 25 132 87 25 132 87 25 132 87 25 132 87 25 132 87 25 132 87 25 132 87 25 132 87 25 132 87 25 132 87 25 132 87 25 132 87 25 132 87 25 132 87 25 132 87 25 132 87 25 132 87 25 132 87 26 132 88 25 132 87 21 130 84 37 130 93 113 126 139 148 159 172 155 164 178 150 162 175 150 162 175 151 162 175 151 162 175 151 162 175 151 162 175 151 162 175 151 162 175 152 163 176 146 157 170 99 113 127 84 99 114 86 101 116 86 101 116 86 101 116 86 101 116 86 101 116 86 101 116 86 101 116 86 101 116 86 101 116 86 101 116 86 101 116 86 101 116 86 101 116 86 101 116 86 101 116 86 101 116 86 101 116 86 101 116 86 101 116 86 101 116 86 101 116 86 101 116 86 101 116 86 101 116 86 101 116 86 101 116 86 101 116 86 101 116 86 101 116 86 101 116 86 101 116 86 101 116 86 101 116 86 101 116 86 101 116 86 101 116 86 101 116 86 101 116 86 101 116 86 101 116 86 101 116 86 101 116 86 101 116 86 101 116 86 101 116 86 101 116 86 101 116 86 101 116 86 101 116 86 101 116 86 101 116 86 101 116 86 101 116 86 101 116 86 101 116 86 101 116 86 101 116 86 101 116 86 101 116 86 101 116 86 101 116 86 101 116 86 101 116 86 101 116 86 101 116 86 101 116 86 101 116 86 101 116 86 101 116 86 101 116 86 101 116 86 101 116 86 101 116 86 101 116 86 101 116 86 101 116 86 101 116 86 101 116 86 101 116 86 101 116 86 101 116 86 101 116 86 101 116 86 101 116 86 101 116 83 98 114 113 125 137 148 159 172 151 162 175 151 162 175 151 162 175 151 162 175 151 162 175 151 162 175 151 162 175 151 162 175 151 162 175 151 162 175 151 162 175 151 162 175 151 162 175 151 162 175 148 159 172 102 116 129 84 99 115 86 101 116 86 101 116 86 101 116 86 101 116 86 101 116 86 101 116 86 101 116 86 101 116 86 101 116 86 101 116 86 101 116 86 101 116 86 101 116 86 101 116 86 101 116 86 101 116 86 101 116 86 101 116 86 101 116 86 101 116 86 101 116 86 101 116 86 101 116 86 101 116 86 101 116 84 100 115 105 115 128
63 66 68 166 176 187 147 158 171 151 162 175 151 162 175 151 162 175 151 162 175 151 162 175 151 162 175 151 162 175 151 162 175 151 162 175 151 162 175 151 162 175 154 165 177 136 147 158 95 112 124 84 99 114 87 101 116 86 101 116 86 101 116 86 101 116 86 101 116 86 101 116 86 101 116 86 101 116 86 101 116 86 101 116 86 101 116 86 101 116 86 101 116 86 101 116 86 101 116 86 101 116 86 101 116 86 102 116 87 101 116 88 96 115 73 111 110 46 151 105 33 174 104 31 178 104 33 173 104 33 173 104 33 174 104 33 174 104 33 174 104 33 174 104 33 174 104 33 174 104 33 174 104 33 174 104 33 174 104 33 174 104 33 174 104 33 174 104 33 174 104 33 174 104 33 175 104 28 146 91 25 131 86 25 132 87 25 132 87 25 132 87 25 132 87 25 132 87 25 132 87 25 132 87 25 132 87 25 132 87 25 132 87 25 132 87 25 132 87 25 132 87 25 132 87 25 132 87 25 132 87 25 132 87 25 132 87 25 132 87 25 132 87 25 132 87 26 132 88 23 132 86 21 130 84 64 142 114 132 151 159 155 164 178 153 164 177 149 161 174 151 162 175 151 162 175 151 162 175 151 162 175 150 162 175 153 164 177 136 147 158 87 102 116 86 101 116 86 101 116 86 101 116 86 101 116 86 101 116 86 101 116 86 101 116 86 101 116 86 101 116 86 101 116 86 101 116 86 101 116 86 101 116 86 101 116 86 101 116 86 101 116 86 101 116 86 101 116 86 101 116 86 101 116 86 101 116 86 101 116 86 101 116 86 101 116 86 101 116 86 101 116 86 101 116 86 101 116 86 101 116 86 101 116 86 101 116 86 101 116 86 101 116 86 101 116 86 101 116 86 101 116 86 101 116 86 101 116 86 101 116 86 101 116 86 101 116 86 101 116 86 101 116 86 101 116 86 101 116 86 101 116 86 101 116 86 101 116 86 101 116 86 101 116 86 101 116 86 101 116 86 101 116 86 101 116 86 101 116 86 101 116 86 101 116 86 101 116 86 101 116 86 101 116 86 101 116 86 101 116 86 101 116 86 101 116 86 101 116 86 101 116 86 101 116 86 101 116 86 101 116 86 101 116 86 101 116 86 101 116 86 101 116 86 101 116 86 101 116 86 101 116 86 101 116 86 101 116 86 101 116 86 101 116 86 101 116 86 101 116 86 101 116 86 101 116 86 101 116 86 101 116 87 102 116 83 99 114 113 126 139 153 164 177 151 162 175 151 162 175 151 162 175 151 162 175 151 162 175 151 162 175 151 162 175 151 162 175 151 162 175 151 162 175 151 162 175 151 162 175 151 162 175 154 165 177 117 129 143 83 98 113 87 102 117 86 101 116 86 101 116 86 101 116 86 101 116 86 101 116 86 101 116 86 101 116 86 101 116 86 101 116 86 101 116 86 101 116 86 101 116 86 101 116 86 101 116 86 101 116 86 101 116 86 101 116 86 101 116 86 101 116 86 101 116 86 101 116 86 101 116 86 101 116 86 101 116 85 100 115 105 115 128
80 84 89 166 176 187 147 158 171 151 162 175 151 162 175 151 162 175 151 162 175 151 162 175 151 162 175 151 162 175 151 162 175 151 162 175 150 161 175 153 164 177 141 151 164 94 109 123 84 99 114 86 101 116 86 101 116 86 101 116 86 101 116 86 101 116 86 101 116 86 101 116 86 101 116 86 101 116 86 101 116 86 101 116 86 101 116 86 101 116 86 101 116 86 101 116 86 101 116 86 102 116 87 101 117 88 96 115 82 98 113 64 142 114 34 170 103 30 179 104 33 175 104 34 173 104 33 174 104 33 174 104 33 174 104 33 174 104 33 174 104 33 174 104 33 174 104 33 174 104 33 174 104 33 174 104 33 174 104 33 174 104 33 174 104 33 174 104 33 174 104 33 174 104 33 170 103 28 138 89 25 131 87 25 132 87 25 132 87 25 132 87 25 132 87 25 132 87 25 132 87 25 132 87 25 132 87 25 132 87 25 132 87 25 132 87 25 132 87 25 132 87 25 132 87 25 132 87 25 132 87 25 132 87 25 132 87 25 132 87 25 132 87 25 132 87 25 132 87 25 132 87 26 132 88 21 130 84 25 129 86 64 142 114 145 156 168 155 164 178 150 162 175 150 162 175 151 162 175 151 162 175 150 162 175 152 163 176 107 120 134 83 98 114 87 101 116 86 101 116 86 101 116 86 101 116 86 101 116 86 101 116 86 101 116 86 101 116 86 101 116 86 101 116 86 101 116 86 101 116 86 101 116 86 101 116 86 101 116 86 101 116 86 101 116 86 101 116 86 101 116 86 101 116 86 101 116 86 101 116 86 101 116 86 101 116 86 101 116 86 101 116 86 101 116 86 101 116 86 101 116 86 101 116 86 101 116 86 101 116 86 101 116 86 101 116 86 101 116 86 101 116 86 101 116 86 101 116 86 101 116 86 101 116 86 101 116 86 101 116 86 101 116 86 101 116 86 101 116 86 102 116 86 102 116 86 102 116 86 102 116 86 101 116 86 101 116 86 101 116 86 101 116 86 101 116 86 101 116 86 101 116 86 102 116 86 102 116 86 102 116 86 102 116 86 101 116 86 101 116 86 101 116 86 101 116 86 101 116 86 101 116 86 101 116 86 101 116 86 101 116 86 101 116 86 101 116 86 101 116 86 101 116 86 101 116 86 101 116 86 101 116 86 101 116 86 101 116 86 101 116 86 101 116 86 101 116 86 101 116 86 101 116 86 101 116 86 101 116 86 101 116 86 101 116 86 101 116 84 99 114 120 132 145 154 165 177 151 162 175 150 161 174 151 162 175 151 162 175 151 162 175 151 162 175 151 162 175 151 162 175 151 162 175 151 162 175 151 162 175 151 162 175 153 164 177 136 147 158 89 104 118 85 100 116 86 101 116 86 101 116 86 101 116 86 101 116 86 101 116 86 101 116 86 101 116 86 101 116 86 101 116 86 101 116 86 101 116 86 101 116 86 101 116 86 101 116 86 101 116 86 101 116 86 101 116 86 101 116 86 101 116 86 101 116 86 101 116 86 101 116 86 101 116 86 101 116 84 99 115 105 115 128
80 84 89 166 176 187 147 158 171 151 162 175 151 162 175 151 162 175 151 162 175 151 162 175 151 162 175 151 162 175 151 162 175 151 162 175 154 165 177 136 147 158 95 112 124 84 99 114 87 101 116 86 101 116 86 101 116 86 101 116 86 101 116 86 101 116 86 101 116 86 101 116 86 101 116 86 101 116 86 101 116 86 101 116 86 101 116 86 101 116 86 101 116 85 102 116 87 101 117 88 99 116 83 98 112 70 121 110 34 160 100 30 179 104 33 175 104 34 173 104 33 174 104 33 174 104 33 174 104 33 174 104 33 174 104 33 174 104 33 174 104 33 174 104 33 174 104 33 174 104 33 174 104 33 174 104 33 174 104 33 174 104 33 174 104 33 174 104 33 173 104 33 177 106 31 157 95 25 132 87 25 132 87 25 132 87 25 132 87 25 132 87 25 132 87 25 132 87 25 132 87 25 132 87 25 132 87 25 132 87 25 132 87 25 132 87 25 132 87 25 132 87 25 132 87 25 132 87 25 132 87 25 132 87 25 132 87 25 132 87 25 132 87 25 132 87 25 132 87 25 132 87 25 132 87 26 132 88 25 132 87 21 130 84 37 130 93 125 137 150 155 164 178 155 164 178 149 161 174 150 161 174 154 165 177 129 141 153 87 101 116 86 101 116 86 101 116 86 101 116 86 101 116 86 101 116 86 101 116 86 101 116 86 101 116 86 101 116 86 101 116 86 101 116 86 101 116 86 101 116 86 101 116 86 101 116 86 101 116 86 101 116 86 101 116 86 101 116 86 101 116 86 101 116 86 101 116 86 101 116 86 101 116 86 101 116 86 101 116 86 101 116 86 101 116 86 101 116 86 101 116 86 101 116 86 101 116 86 101 116 86 101 116 86 101 116 86 101 116 86 101 116 86 101 116 86 101 116 86 101 116 86 101 116 86 101 116 86 101 116 85 102 116 86 102 116 87 101 117 88 99 116 88 96 115 88 99 116 88 99 116 88 99 116 87 102 117 86 100 115 84 99 113 88 102 117 87 101 116 88 99 116 87 98 115 88 96 115 88 96 115 88 99 116 87 101 117 86 102 116 85 102 116 86 101 116 86 101 116 86 101 116 86 101 116 86 101 116 86 101 116 86 101 116 86 101 116 86 101 116 86 101 116 86 101 116 86 101 116 86 101 116 86 101 116 86 101 116 86 101 116 86 101 116 86 101 116 86 101 116 86 101 116 86 101 116 86 101 116 86 101 116 86 101 116 87 102 116 86 101 116 83 98 113 120 132 145 154 165 177 151 162 175 151 162 175 151 162 175 151 162 175 151 162 175 151 162 175 151 162 175 151 162 175 151 162 175 151 162 175 151 162 175 151 162 175 150 160 172 104 117 130 83 99 114 87 102 117 86 101 116 86 101 116 86 101 116 86 101 116 86 101 116 86 101 116 86 101 116 86 101 116 86 101 116 86 101 116 86 101 116 86 101 116 86 101 116 86 101 116 86 101 116 86 101 116 86 101 116 86 101 116 86 101 116 86 101 116 86 101 116 86 101 116 86 101 116 84 100 115 105 115 128
80 84 89 166 176 187 147 158 171 151 162 175 151 162 175 151 162 175 151 162 175 151 162 175 151 162 175 151 162 175 150 162 175 153 164 177 136 147 158 94 109 123 83 99 114 86 101 116 86 101 116 86 101 116 86 101 116 86 101 116 86 101 116 86 101 116 86 101 116 86 101 116 86 101 116 86 101 116 86 101 116 86 101 116 86 101 116 86 102 116 87 102 117 88 99 116 83 98 113 70 121 110 46 151 105 31 175 104 31 177 104 34 173 104 33 174 104 33 174 104 33 174 104 33 174 104 33 174 104 33 174 104 33 174 104 33 174 104 33 174 104 33 174 104 33 174 104 33 174 104 33 174 104 33 174 104 33 174 104 33 174 104 33 174 104 33 174 104 33 173 104 34 178 106 31 148 95 25 129 86 25 133 87 25 132 87 25 132 87 25 132 87 25 132 87 25 132 87 25 132 87 25 132 87 25 132 87 25 132 87 25 132 87 25 132 87 25 132 87 25 132 87 25 132 87 25 132 87 25 132 87 25 132 87 25 132 87 25 132 87 25 132 87 25 132 87 25 132 87 25 132 87 25 132 87 25 132 87 25 132 87 26 132 88 21 130 84 25 129 86 64 142 114 132 151 159 155 164 178 155 164 178 141 151 164 94 109 123 84 100 115 86 101 116 86 101 116 86 101 116 86 101 116 86 101 116 86 101 116 86 101 116 86 101 116 86 101 116 86 101 116 86 101 116 86 101 116 86 101 116 86 101 116 86 101 116 86 101 116 86 101 116 86 101 116 86 101 116 86 101 116 86 101 116 86 101 116 86 101 116 86 101 116 86 101 116 86 101 116 86 101 116 86 101 116 86 101 116 86 101 116 86 101 116 86 101 116 86 101 116 86 101 116 86 101 116 86 101 116 86 101 116 86 101 116 86 101 116 86 101 116 86 101 116 86 102 116 86 101 117 88 99 116 88 96 115 84 99 113 73 111 110 70 121 110 70 121 110 49 121 98 46 151 105 46 151 105 46 151 105 46 151 105 46 151 105 46 151 105 46 151 105 49 121 98 70 121 110 70 121 110 73 111 110 84 100 115 88 96 115 88 96 115 87 101 117 86 102 116 85 102 116 86 101 116 86 101 116 86 101 116 86 101 116 86 101 116 86 101 116 86 101 116 86 101 116 86 101 116 86 101 116 86 101 116 86 101 116 86 101 116 86 101 116 86 101 116 86 101 116 86 101 116 86 101 116 86 101 116 86 101 116 86 101 116 86 101 116 86 101 116 85 101 116 83 98 113 125 137 150 154 165 177 151 162 175 151 162 175 151 162 175 151 162 175 151 162 175 151 162 175 151 162 175 151 162 175 151 162 175 151 162 175 151 162 175 152 162 175 125 137 150 85 100 116 86 101 116 86 101 116 86 101 116 86 101 116 86 101 116 86 101 116 86 101 116 86 101 116 86 101 116 86 101 116 86 101 116 86 101 116 86 101 116 86 101 116 86 101 116 86 101 116 86 101 116 86 101 116 86 101 116 86 101 116 86 101 116 86 101 116 86 101 116 86 101 116 84 99 115 105 115 128
80 84 89 166 176 187 147 158 171 151 162 175 151 162 175 151 162 175 151 162 175 151 162 175 151 162 175 151 162 175 153 164 177 141 151 164 94 109 123 84 99 114 87 101 116 86 101 116 86 101 116 86 101 116 86 101 116 86 101 116 86 101 116 86 101 116 86 101 116 86 101 116 86 101 116 86 101 116 86 101 116 86 102 116 86 102 116 88 99 116 84 98 113 70 121 110 46 151 105 31 177 104 31 177 104 33 174 104 33 173 104 33 174 104 33 174 104 33 174 104 33 174 104 33 174 104 33 174 104 33 174 104 33 174 104 33 174 104 33 174 104 33 174 104 33 174 104 33 174 104 33 174 104 33 174 104 33 174 104 33 174 104 33 174 104 33 174 104 33 175 105 33 170 103 28 138 89 25 131 87 25 132 87 25 132 87 25 132 87 25 132 87 25 132 87 25 132 87 25 132 87 25 132 87 25 132 87 25 132 87 25 132 87 25 132 87 25 132 87 25 132 87 25 132 87 25 132 87 25 132 87 25 132 87 25 132 87 25 132 87 25 132 87 25 132 87 25 132 87 25 132 87 25 132 87 25 132 87 25 132 87 25 132 87 26 132 88 26 132 88 21 130 84 27 134 88 64 142 114 132 151 159 105 115 128 82 98 113 86 101 116 86 101 116 86 101 116 86 101 116 86 101 116 86 101 116 86 101 116 86 101 116 86 101 116 86 101 116 86 101 116 86 101 116 86 101 116 86 101 116 86 101 116 86 101 116 86 101 116 86 101 116 86 101 116 86 101 116 86 101 116 86 101 116 86 101 116 86 101 116 86 101 116 86 101 116 86 101 116 86 101 116 86 101 116 86 101 116 86 101 116 86 101 116 86 101 116 86 101 116 86 101 116 86 101 116 86 101 116 86 101 116 86 101 116 86 101 116 86 102 116 87 101 116 88 99 116 85 98 114 70 121 110 64 142 114 46 151 105 34 173 104 33 176 104 30 179 104 31 178 104 31 177 104 31 175 104 31 175 104 31 175 104 31 175 104 31 175 104 31 177 104 31 178 104 30 179 104 31 177 104 34 173 104 46 151 105 46 151 105 70 121 110 73 104 106 87 98 115 88 99 116 87 101 116 85 102 116 86 101 116 86 101 116 86 101 116 86 101 116 86 101 116 86 101 116 86 101 116 86 101 116 86 101 116 86 101 116 86 101 116 86 101 116 86 101 116 86 101 116 86 101 116 86 101 116 86 101 116 86 101 116 86 101 116 86 101 116 86 101 116 86 101 116 86 101 116 84 99 115 125 137 150 154 165 177 150 161 174 151 162 175 151 162 175 151 162 175 151 162 175 151 162 175 151 162 175 151 162 175 151 162 175 151 162 175 153 164 178 141 151 164 94 109 123 85 101 116 86 101 116 86 101 116 86 101 116 86 101 116 86 101 116 86 101 116 86 101 116 86 101 116 86 101 116 86 101 116 86 101 116 86 101 116 86 101 116 86 101 116 86 101 116 86 101 116 86 101 116 86 101 116 86 101 116 86 101 116 86 101 116 86 101 116 86 101 116 84 99 115 105 115 128
80 84 89 166 176 187 147 158 171 151 162 175 151 162 175 151 162 175 151 162 175 151 162 175 151 162 175 151 162 175 141 151 164 94 109 123 84 99 114 87 101 116 86 101 116 86 101 116 86 101 116 86 101 116 86 101 116 86 101 116 86 101 116 86 101 116 86 101 116 86 101 116 86 101 116 86 101 116 86 102 116 88 99 116 85 98 114 73 111 110 46 151 105 33 174 102 31 178 104 33 173 104 33 173 104 33 174 104 33 174 104 33 174 104 33 174 104 33 174 104 33 174 104 33 174 104 33 174 104 33 174 104 33 174 104 33 174 104 33 174 104 33 174 104 33 174 104 33 174 104 33 174 104 33 174 104 33 174 104 33 174 104 33 174 104 33 173 104 33 176 105 34 160 100 25 129 86 25 133 87 25 132 87 25 132 87 25 132 87 25 132 87 25 132 87 25 132 87 25 132 87 25 132 87 25 132 87 25 132 87 25 132 87 25 132 87 25 132 87 25 132 87 25 132 87 25 132 87 25 132 87 25 132 87 25 132 87 25 132 87 25 132 87 25 132 87 25 132 87 25 132 87 25 132 87 25 132 87 25 132 87 25 132 87 25 132 87 25 132 87 26 132 88 23 132 86 21 130 84 37 130 93 73 104 106 88 99 116 86 101 116 85 101 116 86 101 116 86 101 116 86 101 116 86 101 116 86 101 116 86 101 116 86 101 116 86 101 116 86 101 116 86 101 116 86 101 116 86 101 116 86 101 116 86 101 116 86 101 116 86 101 116 86 101 116 86 101 116 86 101 116 86 101 116 86 101 116 86 101 116 86 101 116 86 101 116 86 101 116 86 101 116 86 101 116 86 101 116 86 101 116 86 101 116 86 101 116 86 101 116 86 101 116 86 101 116 86 101 116 86 101 116 85 102 116 88 102 117 88 96 115 73 104 106 70 121 110 46 151 105 33 172 104 31 178 104 31 178 104 31 175 104 33 173 104 34 173 104 34 173 104 33 173 104 33 174 104 33 174 104 33 174 104 33 174 104 33 174 104 33 173 104 34 173 104 34 173 104 33 173 104 33 174 104 31 178 104 30 179 104 33 174 102 34 160 100 46 151 105 73 111 110 83 99 114 88 96 115 87 101 117 85 102 116 86 101 116 86 101 116 86 101 116 86 101 116 86 101 116 86 101 116 86 101 116 86 101 116 86 101 116 86 101 116 86 101 116 86 101 116 86 101 116 86 101 116 86 101 116 86 101 116 86 101 116 86 101 116 86 101 116 86 101 116 86 101 116 86 100 115 87 102 117 129 141 153 154 165 177 151 162 175 151 162 175 151 162 175 151 162 175 151 162 175 151 162 175 151 162 175 151 162 175 151 162 175 151 162 175 151 161 174 107 120 134 84 99 114 86 101 116 86 101 116 86 101 116 86 101 116 86 101 116 86 101 116 86 101 116 86 101 116 86 101 116 86 101 116 86 101 116 86 101 116 86 101 116 86 101 116 86 101 116 86 101 116 86 101 116 86 101 116 86 101 116 86 101 116 86 101 116 86 101 116 86 101 116 84 100 115 105 115 128
80 84 89 166 176 187 147 158 171 151 162 175 151 162 175 151 162 175 151 162 175 150 162 175 153 164 177 136 147 158 99 113 127 84 99 115 86 101 116 86 101 116 86 101 116 86 101 116 86 101 116 86 101 116 86 101 116 86 101 116 86 101 116 86 101 116 86 101 116 85 102 116 86 102 116 88 99 116 88 96 115 73 111 110 46 151 105 33 175 104 31 177 104 33 174 104 34 173 104 33 174 104 33 174 104 33 174 104 33 174 104 33 174 104 33 174 104 33 174 104 33 174 104 33 174 104 33 174 104 33 174 104 33 174 104 33 174 104 33 174 104 33 174 104 33 174 104 33 174 104 33 174 104 33 174 104 33 174 104 33 174 104 33 174 104 33 174 104 33 176 104 31 157 95 25 129 86 25 133 87 25 132 87 25 132 87 25 132 87 25 132 87 25 132 87 25 132 87 25 132 87 25 132 87 25 132 87 25 132 87 25 132 87 25 132 87 25 132 87 25 132 87 25 132 87 25 132 87 25 132 87 25 132 87 25 132 87 25 132 87 25 132 87 25 132 87 25 132 87 25 132 87 25 132 87 25 132 87 25 132 87 25 132 87 25 132 87 25 132 87 25 132 87 26 132 88 26 132 88 21 130 84 25 129 86 73 111 110 85 102 116 88 99 116 86 101 116 85 101 116 86 101 116 86 101 116 86 101 116 86 101 116 86 101 116 86 101 116 86 101 116 86 101 116 86 101 116 86 101 116 86 101 116 86 101 116 86 101 116 86 101 116 86 101 116 86 101 116 86 101 116 86 101 116 86 101 116 86 101 116 86 101 116 86 101 116 86 101 116 86 101 116 86 101 116 86 101 116 86 101 116 86 101 116 86 101 116 86 101 116 86 101 116 86 101 116 85 102 116 86 102 116 88 96 115 83 99 114 49 121 98 34 160 100 31 178 104 31 177 104 33 175 104 34 173 104 34 173 104 33 174 104 33 174 104 33 174 104 33 174 104 33 174 104 33 174 104 33 174 104 33 174 104 33 174 104 33 174 104 33 174 104 33 174 104 33 174 104 33 174 104 33 174 104 34 173 104 34 173 104 33 174 104 33 176 104 31 177 104 31 177 104 46 151 105 70 121 110 82 98 113 88 99 116 87 101 116 86 102 116 86 101 116 86 101 116 86 101 116 86 101 116 86 101 116 86 101 116 86 101 116 86 101 116 86 101 116 86 101 116 86 101 116 86 101 116 86 101 116 86 101 116 86 101 116 86 101 116 86 101 116 86 101 116 86 101 116 86 101 116 85 100 115 88 103 119 129 141 153 152 163 177 151 162 175 151 162 175 151 162 175 151 162 175 151 162 175 151 162 175 151 162 175 151 162 175 150 161 174 154 165 177 125 137 150 86 101 116 86 101 116 86 101 116 86 101 116 86 101 116 86 101 116 86 101 116 86 101 116 86 101 116 86 101 116 86 101 116 86 101 116 86 101 116 86 101 116 86 101 116 86 101 116 86 101 116 86 101 116 86 101 116 86 101 116 86 101 116 86 101 116 86 101 116 86 101 116 84 100 115 105 115 128
80 84 89 166 176 187 147 158 171 151 162 175 151 162 175 151 162 175 150 161 174 153 164 177 145 156 168 99 113 127 83 99 114 86 101 116 86 101 116 86 101 116 86 101 116 86 101 116 86 101 116 86 101 116 86 101 116 86 101 116 86 101 116 86 101 116 86 102 116 88 99 116 88 96 115 73 111 110 46 151 105 34 170 103 30 179 104 33 174 104 33 173 104 33 174 104 33 174 104 33 174 104 33 174 104 33 174 104 33 174 104 33 174 104 33 174 104 33 174 104 33 174 104 33 174 104 33 174 104 33 174 104 33 174 104 33 174 104 33 174 104 33 174 104 33 174 104 33 174 104 33 174 104 33 174 104 33 174 104 33 174 104 33 174 104 33 174 104 33 174 104 28 138 89 25 131 87 25 132 87 25 132 87 25 132 87 25 132 87 25 132 87 25 132 87 25 132 87 25 132 87 25 132 87 25 132 87 25 132 87 25 132 87 25 132 87 25 132 87 25 132 87 25 132 87 25 132 87 25 132 87 25 132 87 25 132 87 25 132 87 25 132 87 25 132 87 25 132 87 25 132 87 25 132 87 25 132 87 25 132 87 25 132 87 25 132 87 25 132 87 25 132 87 25 132 87 25 132 87 26 132 88 25 131 86 23 132 86 37 130 93 73 104 106 87 101 117 88 99 116 85 101 116 86 101 116 86 101 116 86 101 116 86 101 116 86 101 116 86 101 116 86 101 116 86 101 116 86 101 116 86 101 116 86 101 116 86 101 116 86 101 116 86 101 116 86 101 116 86 101 116 86 101 116 86 101 116 86 101 116 86 101 116 86 101 116 86 101 116 86 101 116 86 101 116 86 101 116 86 101 116 86 101 116 86 101 116 86 101 116 86 101 116 86 102 116 88 99 116 84 98 113 70 121 110 34 160 100 31 177 104 31 177 104 33 173 104 33 174 104 33 174 104 33 174 104 33 174 104 33 174 104 33 174 104 33 174 104 33 174 104 33 174 104 33 174 104 33 174 104 33 174 104 33 174 104 33 174 104 33 174 104 33 174 104 33 174 104 33 174 104 33 174 104 33 174 104 33 174 104 33 174 104 33 174 104 34 173 104 33 173 104 31 178 104 33 176 104 34 160 100 64 142 114 82 98 113 88 96 115 87 101 117 85 102 116 86 101 116 86 101 116 86 101 116 86 101 116 86 101 116 86 101 116 86 101 116 86 101 116 86 101 116 86 101 116 86 101 116 86 101 116 86 101 116 86 101 116 86 101 116 86 101 116 86 101 116 86 101 116 86 101 116 85 100 116 88 104 119 129 141 153 153 164 177 151 162 175 151 162 175 151 162 175 151 162 175 151 162 175 151 162 175 151 162 175 151 162 175 152 163 176 145 156 168 94 109 123 84 99 114 86 101 116 86 101 116 86 101 116 86 101 116 86 101 116 86 101 116 86 101 116 86 101 116 86 101 116 86 101 116 86 101 116 86 101 116 86 101 116 86 101 116 86 101 116 86 101 116 86 101 116 86 101 116 86 101 116 86 101 116 86 101 116 86 101 116 84 99 115 104 117 130
80 84 89 166 176 187 147 158 171 151 162 175 151 162 175 150 161 174 153 164 178 144 154 166 99 113 127 84 99 114 86 101 116 86 101 116 86 101 116 86 101 116 86 101 116 86 101 116 86 101 116 86 101 116 86 101 116 86 101 116 85 102 116 87 101 117 88 96 115 73 111 110 64 142 114 34 170 103 30 179 104 33 174 104 34 173 104 33 174 104 33 174 104 33 174 104 33 174 104 33 174 104 33 174 104 33 174 104 33 174 104 33 174 104 33 174 104 33 174 104 33 174 104 33 174 104 33 174 104 33 174 104 33 174 104 33 174 104 33 174 104 33 174 104 33 174 104 33 174 104 33 174 104 33 174 104 33 174 104 33 174 104 33 174 104 33 175 104 31 169 101 25 131 87 25 131 87 25 132 87 25 132 87 25 132 87 25 132 87 25 132 87 25 132 87 25 132 87 25 132 87 25 132 87 25 132 87 25 132 87 25 132 87 25 132 87 25 132 87 25 132 87 25 132 87 25 132 87 25 132 87 25 132 87 25 132 87 25 132 87 25 132 87 25 132 87 25 132 87 25 132 87 25 132 87 25 132 87 25 132 87 25 132 87 25 132 87 25 132 87 25 132 87 25 132 87 25 132 87 25 132 87 25 132 87 25 132 87 23 132 86 25 129 86 49 121 98 73 104 106 88 99 116 86 101 116 85 101 116 86 101 116 86 101 116 86 101 116 86 101 116 86 101 116 86 101 116 86 101 116 86 101 116 86 101 116 86 101 116 86 101 116 86 101 116 86 101 116 86 101 116 86 101 116 86 101 116 86 101 116 86 101 116 86 101 116 86 101 116 86 101 116 86 101 116 86 101 116 86 101 116 86 101 116 86 101 116 86 102 116 86 101 117 88 96 115 73 111 110 46 151 105 31 177 104 31 177 104 33 173 104 33 173 104 33 174 104 33 174 104 33 174 104 33 174 104 33 174 104 33 174 104 33 174 104 33 174 104 33 174 104 33 174 104 33 174 104 33 174 104 33 174 104 33 174 104 33 174 104 33 174 104 33 174 104 33 174 104 33 174 104 33 174 104 33 174 104 33 174 104 33 174 104 33 174 104 33 174 104 33 174 104 34 173 104 33 173 104 33 176 104 31 178 104 34 160 100 49 121 98 83 98 112 88 99 116 86 101 116 85 102 116 86 101 116 86 101 116 86 101 116 86 101 116 86 101 116 86 101 116 86 101 116 86 101 116 86 101 116 86 101 116 86 101 116 86 101 116 86 101 116 86 101 116 86 101 116 86 101 116 86 101 116 86 101 116 84 100 115 89 104 118 136 147 158 153 164 177 151 162 175 151 162 175 151 162 175 151 162 175 151 162 175 151 162 175 151 162 175 150 162 175 152 163 176 113 126 139 83 99 114 87 102 117 86 101 116 86 101 116 86 101 116 86 101 116 86 101 116 86 101 116 86 101 116 86 101 116 86 101 116 86 101 116 86 101 116 86 101 116 86 101 116 86 101 116 86 101 116 86 101 116 86 101 116 86 101 116 86 101 116 86 101 116 86 101 116 85 100 115 105 115 128
80 84 89 166 176 187 147 158 171 150 161 174 151 162 175 152 164 176 145 156 168 99 113 127 82 97 113 87 101 116 86 101 116 86 101 116 86 101 116 86 101 116 86 101 116 86 101 116 86 101 116 86 101 116 85 102 116 86 102 116 88 96 115 82 98 113 49 121 98 34 160 100 31 178 104 33 175 104 34 173 104 33 174 104 33 174 104 33 174 104 33 174 104 33 174 104 33 174 104 33 174 104 33 174 104 33 174 104 33 174 104 33 174 104 33 174 104 33 174 104 33 174 104 33 174 104 33 174 104 33 174 104 33 174 104 33 174 104 33 174 104 33 174 104 33 174 104 33 174 104 33 174 104 33 174 104 33 174 104 33 174 104 33 173 104 34 178 106 31 148 95 25 129 86 25 133 87 25 132 87 25 132 87 25 132 87 25 132 87 25 132 87 25 132 87 25 132 87 25 132 87 25 132 87 25 132 87 25 132 87 25 132 87 25 132 87 25 132 87 25 132 87 25 132 87 25 132 87 25 132 87 25 132 87 25 132 87 25 132 87 25 132 87 25 132 87 25 132 87 25 132 87 25 132 87 25 132 87 25 132 87 25 132 87 25 132 87 25 132 87 25 132 87 25 132 87 25 132 87 25 132 87 25 132 87 25 132 87 25 132 87 25 132 87 23 132 86 25 129 86 49 121 98 85 101 116 88 99 116 85 101 116 86 101 116 86 101 116 86 101 116 86 101 116 86 101 116 86 101 116 86 101 116 86 101 116 86 101 116 86 101 116 86 101 116 86 101 116 86 101 116 86 101 116 86 101 116 86 101 116 86 101 116 86 101 116 86 101 116 86 101 116 86 101 116 86 101 116 86 101 116 86 101 116 86 102 116 88 99 116 83 99 114 49 121 98 34 170 103 31 178 104 33 173 104 33 173 104 33 174 104 33 174 104 33 174 104 33 174 104 33 174 104 33 174 104 33 174 104 33 174 104 33 174 104 33 174 104 33 174 104 33 174 104 33 174 104 33 174 104 33 174 104 33 174 104 33 174 104 33 174 104 33 174 104 33 174 104 33 174 104 33 174 104 33 174 104 33 174 104 33 174 104 33 174 104 33 174 104 33 174 104 33 174 104 33 174 104 33 174 104 33 173 104 31 177 104 33 176 104 46 151 105 70 121 110 83 98 112 88 96 115 86 102 117 86 101 116 86 101 116 86 101 116 86 101 116 86 101 116 86 101 116 86 101 116 86 101 116 86 101 116 86 101 116 86 101 116 86 101 116 86 101 116 86 101 116 86 101 116 86 101 116 86 101 116 86 101 116 84 99 114 94 109 123 136 147 158 153 164 177 151 162 175 151 162 175 151 162 175 151 162 175 151 162 175 151 162 175 150 161 174 153 164 177 136 147 158 88 102 117 85 100 115 86 101 116 86 101 116 86 101 116 86 101 116 86 101 116 86 101 116 86 101 116 86 101 116 86 101 116 86 101 116 86 101 116 86 101 116 86 101 116 86 101 116 86 101 116 86 101 116 86 101 116 86 101 116 86 101 116 86 101 116 86 101 116 84 99 115 105 115 128
80 84 89 166 176 187 147 158 171 154 165 177 151 162 175 136 147 158 95 112 124 84 99 114 87 101 117 86 101 116 86 101 116 86 101 116 86 101 116 86 101 116 86 101 116 86 101 116 86 102 116 86 102 116 88 99 116 84 98 113 70 121 110 34 160 100 31 177 104 33 176 104 34 173 104 33 174 104 33 174 104 33 174 104 33 174 104 33 174 104 33 174 104 33 174 104 33 174 104 33 174 104 33 174 104 33 174 104 33 174 104 33 174 104 33 174 104 33 174 104 33 174 104 33 174 104 33 174 104 33 174 104 33 174 104 33 174 104 33 174 104 33 174 104 33 174 104 33 174 104 33 174 104 33 174 104 33 174 104 33 174 104 33 175 104 33 172 104 28 138 89 25 129 86 25 133 87 25 132 87 25 132 87 25 132 87 25 132 87 25 132 87 25 132 87 25 132 87 25 132 87 25 132 87 25 132 87 25 132 87 25 132 87 25 132 87 25 132 87 25 132 87 25 132 87 25 132 87 25 132 87 25 132 87 25 132 87 25 132 87 25 132 87 25 132 87 25 132 87 25 132 87 25 132 87 25 132 87 25 132 87 25 132 87 25 132 87 25 132 87 25 132 87 25 132 87 25 132 87 25 132 87 25 132 87 25 132 87 25 132 87 25 132 87 26 132 88 23 132 86 21 130 84 37 130 93 73 104 106 88 99 116 87 101 116 85 101 116 86 101 116 86 101 116 86 101 116 86 101 116 86 101 116 86 101 116 86 101 116 86 101 116 86 101 116 86 101 116 86 101 116 86 101 116 86 101 116 86 101 116 86 101 116 86 101 116 86 101 116 86 101 116 86 101 116 86 101 116 86 102 116 87 102 117 88 96 115 73 111 110 46 151 105 31 178 104 31 175 104 33 173 104 33 174 104 33 174 104 33 174 104 33 174 104 33 174 104 33 174 104 33 174 104 33 174 104 33 174 104 33 174 104 33 174 104 33 174 104 33 174 104 33 174 104 33 174 104 33 174 104 33 174 104 33 174 104 33 174 104 33 174 104 33 174 104 33 174 104 33 174 104 33 174 104 33 174 104 33 174 104 33 174 104 33 174 104 33 174 104 33 174 104 33 174 104 33 174 104 33 174 104 33 174 104 33 173 104 33 173 104 31 177 104 33 176 104 46 151 105 70 121 110 85 98 114 88 99 116 86 102 116 86 102 116 86 101 116 86 101 116 86 101 116 86 101 116 86 101 116 86 101 116 86 101 116 86 101 116 86 101 116 86 101 116 86 101 116 86 101 116 86 101 116 86 101 116 86 101 116 86 101 116 84 99 114 94 109 123 141 151 164 153 164 177 151 162 175 151 162 175 151 162 175 151 162 175 151 162 175 151 162 175 152 163 176 147 158 171 99 113 127 84 99 115 87 101 116 86 101 116 86 101 116 86 101 116 86 101 116 86 101 116 86 101 116 86 101 116 86 101 116 86 101 116 86 101 116 86 101 116 86 101 116 86 101 116 86 101 116 86 101 116 86 101 116 86 101 116 86 101 116 86 101 116 86 101 116 84 99 115 105 115 128
80 84 89 166 176 187 150 160 172 136 147 158 107 120 134 88 103 118 84 99 115 87 101 116 86 101 116 86 101 116 86 101 116 86 101 116 86 101 116 86 101 116 86 101 116 86 102 117 88 99 116 85 98 114 70 121 110 46 151 105 31 178 104 31 177 104 33 173 104 33 173 104 33 174 104 33 174 104 33 174 104 33 174 104 33 174 104 33 174 104 33 174 104 33 174 104 33 174 104 33 174 104 33 174 104 33 174 104 33 174 104 33 174 104 33 174 104 33 174 104 33 174 104 33 174 104 33 174 104 33 174 104 33 174 104 33 174 104 33 174 104 33 174 104 33 174 104 33 174 104 33 174 104 33 174 104 33 174 104 33 173 104 33 177 106 34 160 100 25 129 86 25 133 87 25 132 87 25 132 87 25 132 87 25 132 87 25 132 87 25 132 87 25 132 87 25 132 87 25 132 87 25 132 87 25 132 87 25 132 87 25 132 87 25 132 87 25 132 87 25 132 87 25 132 87 25 132 87 25 132 87 25 132 87 25 132 87 25 132 87 25 132 87 25 132 87 25 132 87 25 132 87 25 132 87 25 132 87 25 132 87 25 132 87 25 132 87 25 132 87 25 132 87 25 132 87 25 132 87 25 132 87 25 132 87 25 132 87 25 132 87 25 132 87 25 132 87 25 132 87 25 132 87 23 132 86 25 129 86 49 121 98 85 102 116 88 99 116 86 101 116 86 101 116 86 101 116 86 101 116 86 101 116 86 101 116 86 101 116 86 101 116 86 101 116 86 101 116 86 101 116 86 101 116 86 101 116 86 101 116 86 101 116 86 101 116 86 101 116 86 101 116 86 101 116 86 102 116 88 99 116 84 98 113 64 142 114 34 170 103 31 177 104 33 173 104 33 174 104 33 174 104 33 174 104 33 174 104 33 174 104 33 174 104 33 174 104 33 174 104 33 174 104 33 174 104 33 174 104 33 174 104 33 174 104 33 174 104 33 174 104 33 174 104 33 174 104 33 174 104 33 174 104 33 174 104 33 174 104 33 174 104 33 174 104 33 174 104 33 174 104 33 174 104 33 174 104 33 174 104 33 174 104 33 174 104 33 174 104 33 174 104 33 174 104 33 174 104 33 174 104 33 174 104 33 174 104 33 174 104 33 173 104 33 173 104 31 177 104 33 173 102 46 151 105 73 111 110 85 98 114 88 99 116 86 102 117 86 101 116 86 101 116 86 101 116 86 101 116 86 101 116 86 101 116 86 101 116 86 101 116 86 101 116 86 101 116 86 101 116 86 101 116 86 101 116 86 101 116 86 101 116 86 101 116 84 99 114 99 113 127 141 151 164 154 163 176 151 162 175 151 162 175 151 162 175 151 162 175 151 162 175 150 161 174 153 164 177 120 132 145 84 100 115 86 101 116 86 101 116 86 101 116 86 101 116 86 101 116 86 101 116 86 101 116 86 101 116 86 101 116 86 101 116 86 101 116 86 101 116 86 101 116 86 101 116 86 101 116 86 101 116 86 101 116 86 101 116 86 101 116 86 101 116 86 101 116 84 99 115 105 115 128
80 84 89 166 176 187 120 132 145 89 104 118 83 98 113 85 101 116 87 101 116 86 101 116 86 101 116 86 101 116 86 101 116 86 101 116 86 101 116 86 102 116 87 101 117 88 96 115 73 111 110 46 151 105 33 173 104 31 178 104 33 173 104 33 173 104 33 174 104 33 174 104 33 174 104 33 174 104 33 174 104 33 174 104 33 174 104 33 174 104 33 174 104 33 174 104 33 174 104 33 174 104 33 174 104 33 174 104 33 174 104 33 174 104 33 174 104 33 174 104 33 174 104 33 174 104 33 174 104 33 174 104 33 174 104 33 174 104 33 174 104 33 174 104 33 174 104 33 174 104 33 174 104 33 174 104 33 174 104 33 174 104 33 175 105 31 148 95 25 129 86 25 133 87 25 132 87 25 132 87 25 132 87 25 132 87 25 132 87 25 132 87 25 132 87 25 132 87 25 132 87 25 132 87 25 132 87 25 132 87 25 132 87 25 132 87 25 132 87 25 132 87 25 132 87 25 132 87 25 132 87 25 132 87 25 132 87 25 132 87 25 132 87 25 132 87 25 132 87 25 132 87 25 132 87 25 132 87 25 132 87 25 132 87 25 132 87 25 132 87 25 132 87 25 132 87 25 132 87 25 132 87 25 132 87 25 132 87 25 132 87 25 132 87 25 132 87 25 132 87 25 132 87 26 132 88 25 132 87 23 132 86 37 130 93 73 111 110 88 99 116 88 99 116 85 101 116 86 101 116 86 101 116 86 101 116 86 101 116 86 101 116 86 101 116 86 101 116 86 101 116 86 101 116 86 101 116 86 101 116 86 101 116 86 101 116 86 101 116 86 102 116 87 101 116 88 96 115 73 111 110 46 151 105 31 177 104 31 175 104 33 173 104 33 174 104 33 174 104 33 174 104 33 174 104 33 174 104 33 174 104 33 174 104 33 174 104 33 174 104 33 174 104 33 174 104 33 174 104 33 174 104 33 174 104 33 174 104 33 174 104 33 174 104 33 174 104 33 174 104 33 174 104 33 174 104 33 174 104 33 174 104 33 174 104 33 174 104 33 174 104 33 174 104 33 174 104 33 174 104 33 174 104 33 174 104 33 174 104 33 174 104 33 174 104 33 174 104 33 174 104 33 174 104 33 174 104 33 174 104 33 174 104 33 174 104 33 173 104 33 175 104 31 178 104 34 170 103 46 151 105 73 111 110 88 96 115 88 99 116 86 102 116 86 101 116 86 101 116 86 101 116 86 101 116 86 101 116 86 101 116 86 101 116 86 101 116 86 101 116 86 101 116 86 101 116 86 101 116 86 101 116 86 101 116 87 102 116 83 98 114 99 113 127 145 156 168 153 164 177 150 161 174 151 162 175 151 162 175 151 162 175 151 162 175 152 164 176 141 151 164 94 109 123 84 100 115 86 101 116 86 101 116 86 101 116 86 101 116 86 101 116 86 101 116 86 101 116 86 101 116 86 101 116 86 101 116 86 101 116 86 101 116 86 101 116 86 101 116 86 101 116 86 101 116 86 101 116 86 101 116 86 101 116 86 101 116 84 99 115 105 115 128
80 84 89 125 137 150 83 96 111 86 101 116 87 102 117 86 101 116 86 101 116 86 101 116 86 101 116 86 101 116 86 101 116 85 102 116 87 101 117 88 96 115 83 99 114 64 142 114 34 170 103 31 178 104 33 174 104 34 173 104 33 174 104 33 174 104 33 174 104 33 174 104 33 174 104 33 174 104 33 174 104 33 174 104 33 174 104 33 174 104 33 174 104 33 174 104 33 174 104 33 174 104 33 174 104 33 174 104 33 174 104 33 174 104 33 174 104 33 174 104 33 174 104 33 174 104 33 174 104 33 174 104 33 174 104 33 174 104 33 174 104 33 174 104 33 174 104 33 174 104 33 174 104 33 174 104 33 174 104 33 175 104 33 172 104 25 134 88 25 132 87 25 132 87 25 132 87 25 132 87 25 132 87 25 132 87 25 132 87 25 132 87 25 132 87 25 132 87 25 132 87 25 132 87 25 132 87 25 132 87 25 132 87 25 132 87 25 132 87 25 132 87 25 132 87 25 132 87 25 132 87 25 132 87 25 132 87 25 132 87 25 132 87 25 132 87 25 132 87 25 132 87 25 132 87 25 132 87 25 132 87 25 132 87 25 132 87 25 132 87 25 132 87 25 132 87 25 132 87 25 132 87 25 132 87 25 132 87 25 132 87 25 132 87 25 132 87 25 132 87 25 132 87 25 132 87 25 132 87 26 132 88 23 132 86 23 132 86 49 121 98 73 111 110 88 99 116 87 101 116 85 101 116 86 101 116 86 101 116 86 101 116 86 101 116 86 101 116 86 101 116 86 101 116 86 101 116 86 101 116 86 101 116 86 102 116 86 102 116 88 99 116 82 98 113 49 121 98 34 170 103 31 178 104 33 173 104 33 173 104 33 174 104 33 174 104 33 174 104 33 174 104 33 174 104 33 174 104 33 174 104 33 174 104 33 174 104 33 174 104 33 174 104 33 174 104 33 174 104 33 174 104 33 174 104 33 174 104 33 174 104 33 174 104 33 174 104 33 174 104 33 174 104 33 174 104 33 174 104 33 174 104 33 174 104 33 174 104 33 174 104 33 174 104 33 174 104 33 174 104 33 174 104 33 174 104 33 174 104 33 174 104 33 174 104 33 174 104 33 174 104 33 174 104 33 174 104 33 174 104 33 174 104 33 174 104 33 174 104 33 174 104 34 173 104 33 174 104 31 178 104 34 170 103 64 142 114 73 104 106 88 96 115 87 101 116 85 102 116 86 101 116 86 101 116 86 101 116 86 101 116 86 101 116 86 101 116 86 101 116 86 101 116 86 101 116 86 101 116 86 101 116 86 101 116 86 101 116 87 102 116 83 98 114 104 117 130 147 158 171 152 163 176 150 161 174 151 162 175 151 162 175 151 162 175 151 162 175 152 163 176 113 126 139 83 99 114 87 102 116 86 101 116 86 101 116 86 101 116 86 101 116 86 101 116 86 101 116 86 101 116 86 101 116 86 101 116 86 101 116 86 101 116 86 101 116 86 101 116 86 101 116 86 101 116 86 101 116 86 101 116 86 101 116 86 101 116 84 99 115 105 115 128
63 66 68 99 113 127 82 97 113 86 101 116 86 101 116 86 101 116 86 101 116 86 101 116 86 101 116 86 102 116 87 102 117 88 96 115 85 100 114 70 121 110 34 160 100 31 178 104 31 175 104 33 173 104 33 174 104 33 174 104 33 174 104 33 174 104 33 174 104 33 174 104 33 174 104 33 174 104 33 174 104 33 174 104 33 174 104 33 174 104 33 174 104 33 174 104 33 174 104 33 174 104 33 174 104 33 174 104 33 174 104 33 174 104 33 174 104 33 174 104 33 174 104 33 174 104 33 174 104 33 174 104 33 174 104 33 174 104 33 174 104 33 174 104 33 174 104 33 174 104 33 174 104 33 174 104 33 174 104 33 176 105 31 157 95 25 129 86 25 132 87 25 132 87 25 132 87 25 132 87 25 132 87 25 132 87 25 132 87 25 132 87 25 132 87 25 132 87 25 132 87 25 132 87 25 132 87 25 132 87 25 132 87 25 132 87 25 132 87 25 132 87 25 132 87 25 132 87 25 132 87 25 132 87 25 132 87 25 132 87 25 132 87 25 132 87 25 132 87 25 132 87 25 132 87 25 132 87 25 132 87 25 132 87 25 132 87 25 132 87 25 132 87 25 132 87 25 132 87 25 132 87 25 132 87 25 132 87 25 132 87 25 132 87 25 132 87 25 132 87 25 132 87 25 132 87 25 132 87 25 132 87 25 132 87 25 132 87 21 130 84 25 129 86 73 111 110 86 101 116 88 99 116 85 101 116 86 101 116 86 101 116 86 101 116 86 101 116 86 101 116 86 101 116 86 101 116 86 101 116 85 102 116 88 99 116 87 98 115 73 111 110 46 151 105 31 178 104 31 175 104 33 173 104 33 174 104 33 174 104 33 174 104 33 174 104 33 174 104 33 174 104 33 174 104 33 174 104 33 174 104 33 174 104 33 174 104 33 174 104 33 174 104 33 174 104 33 174 104 33 174 104 33 174 104 33 174 104 33 174 104 33 174 104 33 174 104 33 174 104 33 174 104 33 174 104 33 174 104 33 174 104 33 174 104 33 174 104 33 174 104 33 174 104 33 174 104 33 174 104 33 174 104 33 174 104 33 174 104 33 174 104 33 174 104 33 174 104 33 174 104 33 174 104 33 174 104 33 174 104 33 174 104 33 174 104 33 174 104 33 174 104 33 174 104 33 174 104 34 173 104 33 176 104 30 179 104 34 170 103 49 121 98 82 98 113 88 96 115 86 102 117 86 102 116 86 101 116 86 101 116 86 101 116 86 101 116 86 101 116 86 101 116 86 101 116 86 101 116 86 101 116 86 101 116 86 101 116 86 101 116 87 102 117 82 97 113 104 117 130 149 161 174 152 163 176 150 161 175 151 162 175 151 162 175 150 161 174 153 164 177 136 147 158 88 103 118 85 100 116 86 101 116 86 101 116 86 101 116 86 101 116 86 101 116 86 101 116 86 101 116 86 101 116 86 101 116 86 101 116 86 101 116 86 101 116 86 101 116 86 101 116 86 101 116 86 101 116 86 101 116 86 101 116 86 101 116 84 99 115 105 115 128
63 66 68 102 116 129 82 98 113 86 101 116 86 101 116 86 101 116 86 101 116 85 102 116 86 102 116 88 99 116 83 96 111 70 121 110 46 151 105 31 177 104 33 176 104 33 173 104 33 173 104 33 174 104 33 174 104 33 174 104 33 174 104 33 174 104 33 174 104 33 174 104 33 174 104 33 174 104 33 174 104 33 174 104 33 174 104 33 174 104 33 174 104 33 174 104 33 174 104 33 174 104 33 174 104 33 174 104 33 174 104 33 174 104 33 174 104 33 174 104 33 174 104 33 174 104 33 174 104 33 174 104 33 174 104 33 174 104 33 174 104 33 174 104 33 174 104 33 174 104 33 174 104 33 174 104 33 173 104 34 175 105 28 146 91 25 129 86 25 133 87 25 132 87 25 132 87 25 132 87 25 132 87 25 132 87 25 132 87 25 132 87 25 132 87 25 132 87 25 132 87 25 132 87 25 132 87 25 132 87 25 132 87 25 132 87 25 132 87 25 132 87 25 132 87 25 132 87 25 132 87 25 132 87 25 132 87 25 132 87 25 132 87 25 132 87 25 132 87 25 132 87 25 132 87 25 132 87 25 132 87 25 132 87 25 132 87 25 132 87 25 132 87 25 132 87 25 132 87 25 132 87 25 132 87 25 132 87 25 132 87 25 132 87 25 132 87 25 132 87 25 132 87 25 132 87 25 132 87 25 132 87 25 132 87 25 132 87 26 132 88 25 132 87 23 132 86 37 130 93 73 104 106 88 99 116 86 101 116 85 101 116 86 101 116 86 101 116 86 101 116 86 101 116 86 102 116 87 101 116 88 96 115 73 111 110 46 151 105 33 174 105 31 178 104 33 174 104 33 173 104 33 174 104 33 174 104 33 174 104 33 174 104 33 174 104 33 174 104 33 174 104 33 174 104 33 174 104 33 174 104 33 174 104 33 174 104 33 174 104 33 174 104 33 174 104 33 174 104 33 174 104 33 174 104 33 174 104 33 174 104 33 174 104 33 174 104 33 174 104 33 174 104 33 174 104 33 174 104 33 174 104 33 174 104 33 174 104 33 174 104 33 174 104 33 174 104 33 174 104 33 174 104 33 174 104 33 174 104 33 174 104 33 174 104 33 174 104 33 174 104 33 174 104 33 174 104 33 174 104 33 174 104 33 174 104 33 174 104 33 174 104 33 174 104 33 174 104 33 174 104 33 173 104 33 173 104 33 176 104 30 179 104 34 160 100 70 121 110 83 99 114 88 96 115 87 101 116 85 102 116 86 101 116 86 101 116 86 101 116 86 101 116 86 101 116 86 101 116 86 101 116 86 101 116 86 101 116 86 101 116 86 101 116 87 102 117 82 97 113 112 122 133 151 162 175 151 162 176 151 162 175 151 162 175 151 162 175 151 162 175 150 160 172 104 117 130 84 99 114 87 102 117 86 101 116 86 101 116 86 101 116 86 101 116 86 101 116 86 101 116 86 101 116 86 101 116 86 101 116 86 101 116 86 101 116 86 101 116 86 101 116 86 101 116 86 101 116 86 101 116 86 101 116 86 101 116 84 100 115 105 115 128
63 66 68 99 113 127 82 98 113 86 101 116 86 101 116 86 101 116 86 102 116 88 99 116 85 98 114 73 111 110 46 151 105 33 174 104 31 178 104 33 173 104 33 174 104 33 174 104 33 174 104 33 174 104 33 174 104 33 174 104 33 174 104 33 174 104 33 174 104 33 174 104 33 174 104 33 174 104 33 174 104 33 174 104 33 174 104 33 174 104 33 174 104 33 174 104 33 174 104 33 174 104 33 174 104 33 174 104 33 174 104 33 174 104 33 174 104 33 174 104 33 174 104 33 174 104 33 174 104 33 174 104 33 174 104 33 174 104 33 174 104 33 174 104 33 174 104 33 174 104 33 174 104 33 174 104 33 175 104 31 169 101 27 134 88 25 129 86 25 132 87 25 132 87 25 132 87 25 132 87 25 132 87 25 132 87 25 132 87 25 132 87 25 132 87 25 132 87 25 132 87 25 132 87 25 132 87 25 132 87 25 132 87 25 132 87 25 132 87 25 132 87 25 132 87 25 132 87 25 132 87 25 132 87 25 132 87 25 132 87 25 132 87 25 132 87 25 132 87 25 132 87 25 132 87 25 132 87 25 132 87 25 132 87 25 132 87 25 132 87 25 132 87 25 132 87 25 132 87 25 132 87 25 132 87 25 132 87 25 132 87 25 132 87 25 132 87 25 132 87 25 132 87 25 132 87 25 132 87 25 132 87 25 132 87 25 132 87 25 132 87 25 132 87 26 132 88 23 132 86 25 129 86 49 121 98 85 102 116 88 99 116 85 101 116 86 101 116 86 101 116 86 102 117 87 98 115 82 98 113 64 142 114 34 170 103 31 178 104 33 174 104 33 173 104 33 174 104 33 174 104 33 174 104 33 174 104 33 174 104 33 174 104 33 174 104 33 174 104 33 174 104 33 174 104 33 174 104 33 174 104 33 174 104 33 174 104 33 174 104 33 174 104 33 174 104 33 174 104 33 174 104 33 174 104 33 174 104 33 174 104 33 174 104 33 174 104 33 174 104 33 174 104 33 174 104 33 174 104 33 174 104 33 174 104 33 174 104 33 174 104 33 174 104 33 174 104 33 174 104 33 174 104 33 174 104 33 174 104 33 174 104 33 174 104 33 174 104 33 174 104 33 174 104 33 174 104 33 174 104 33 174 104 33 174 104 33 174 104 33 174 104 33 174 104 33 174 104 33 174 104 33 174 104 33 174 104 33 174 104 34 173 104 31 177 104 31 175 104 46 151 105 70 121 110 83 98 114 88 96 115 86 102 117 86 101 116 86 101 116 86 101 116 86 101 116 86 101 116 86 101 116 86 101 116 86 101 116 86 101 116 86 101 116 86 101 116 87 102 117 82 98 113 113 126 139 152 162 175 151 162 175 151 162 175 151 162 175 150 161 174 153 164 177 125 137 150 84 99 114 86 101 116 86 101 116 86 101 116 86 101 116 86 101 116 86 101 116 86 101 116 86 101 116 86 101 116 86 101 116 86 101 116 86 101 116 86 101 116 86 101 116 86 101 116 86 101 116 86 101 116 86 101 116 86 101 116 84 99 115 105 115 128
63 66 68 99 113 127 83 98 112 85 102 116 86 101 116 88 99 116 85 98 114 73 111 110 46 151 105 34 173 104 31 178 104 33 174 104 34 173 104 33 174 104 33 174 104 33 174 104 33 174 104 33 174 104 33 174 104 33 174 104 33 174 104 33 174 104 33 174 104 33 174 104 33 174 104 33 174 104 33 174 104 33 174 104 33 174 104 33 174 104 33 174 104 33 174 104 33 174 104 33 174 104 33 174 104 33 174 104 33 174 104 33 174 104 33 174 104 33 174 104 33 174 104 33 174 104 33 174 104 33 174 104 33 174 104 33 174 104 33 174 104 33 174 104 33 174 104 33 174 104 33 174 104 33 173 104 34 178 106 31 157 95 25 129 86 25 133 87 25 132 87 25 132 87 25 132 87 25 132 87 25 132 87 25 132 87 25 132 87 25 132 87 25 132 87 25 132 87 25 132 87 25 132 87 25 132 87 25 132 87 25 132 87 25 132 87 25 132 87 25 132 87 25 132 87 25 132 87 25 132 87 25 132 87 25 132 87 25 132 87 25 132 87 25 132 87 25 132 87 25 132 87 25 132 87 25 132 87 25 132 87 25 132 87 25 132 87 25 132 87 25 132 87 25 132 87 25 132 87 25 132 87 25 132 87 25 132 87 25 132 87 25 132 87 25 132 87 25 132 87 25 132 87 25 132 87 25 132 87 25 132 87 25 132 87 25 132 87 25 132 87 25 132 87 25 132 87 26 132 88 25 133 87 23 132 86 37 130 93 73 111 110 88 99 116 87 101 117 86 102 116 85 98 114 70 121 110 34 160 100 30 179 104 31 175 104 34 173 104 33 174 104 33 174 104 33 174 104 33 174 104 33 174 104 33 174 104 33 174 104 33 174 104 33 174 104 33 174 104 33 174 104 33 174 104 33 174 104 33 174 104 33 174 104 33 174 104 33 174 104 33 174 104 33 174 104 33 174 104 33 174 104 33 174 104 33 174 104 33 174 104 33 174 104 33 174 104 33 174 104 33 174 104 33 174 104 33 174 104 33 174 104 33 174 104 33 174 104 33 174 104 33 174 104 33 174 104 33 174 104 33 174 104 33 174 104 33 174 104 33 174 104 33 174 104 33 174 104 33 174 104 33 174 104 33 174 104 33 174 104 33 174 104 33 174 104 33 174 104 33 174 104 33 174 104 33 174 104 33 174 104 33 174 104 33 174 104 33 174 104 33 174 104 34 173 104 33 174 104 31 177 104 33 176 105 46 151 105 70 121 110 85 98 114 88 99 116 86 102 116 85 102 116 86 101 116 86 101 116 86 101 116 86 101 116 86 101 116 86 101 116 86 101 116 86 101 116 86 101 116 86 101 116 83 98 113 113 126 139 152 162 175 151 162 176 151 162 175 151 162 175 152 163 176 144 154 166 94 109 123 85 100 114 86 101 116 86 101 116 86 101 116 86 101 116 86 101 116 86 101 116 86 101 116 86 101 116 86 101 116 86 101 116 86 101 116 86 101 116 86 101 116 86 101 116 86 101 116 86 101 116 86 101 116 86 101 116 84 100 115 102 116 129
63 66 68 99 113 127 84 98 113 88 96 115 85 98 114 73 111 110 46 151 105 34 170 103 30 179 104 33 174 104 33 173 104 33 174 104 33 174 104 33 174 104 33 174 104 33 174 104 33 174 104 33 174 104 33 174 104 33 174 104 33 174 104 33 174 104 33 174 104 33 174 104 33 174 104 33 174 104 33 174 104 33 174 104 33 174 104 33 174 104 33 174 104 33 174 104 33 174 104 33 174 104 33 174 104 33 174 104 33 174 104 33 174 104 33 174 104 33 174 104 33 174 104 33 174 104 33 174 104 33 174 104 33 174 104 33 174 104 33 174 104 33 174 104 33 174 104 33 174 104 33 174 104 33 175 104 33 172 104 28 138 89 25 131 87 25 132 87 25 132 87 25 132 87 25 132 87 25 132 87 25 132 87 25 132 87 25 132 87 25 132 87 25 132 87 25 132 87 25 132 87 25 132 87 25 132 87 25 132 87 25 132 87 25 132 87 25 132 87 25 132 87 25 132 87 25 132 87 25 132 87 25 132 87 25 132 87 25 132 87 25 132 87 25 132 87 25 132 87 25 132 87 25 132 87 25 132 87 25 132 87 25 132 87 25 132 87 25 132 87 25 132 87 25 132 87 25 132 87 25 132 87 25 132 87 25 132 87 25 132 87 25 132 87 25 132 87 25 132 87 25 132 87 25 132 87 25 132 87 25 132 87 25 132 87 25 132 87 25 132 87 25 132 87 25 132 87 25 132 87 25 132 87 26 132 88 23 132 86 25 129 86 49 121 98 85 102 116 88 96 115 70 121 110 33 176 104 31 177 104 34 173 104 33 174 104 33 174 104 33 174 104 33 174 104 33 174 104 33 174 104 33 174 104 33 174 104 33 174 104 33 174 104 33 174 104 33 174 104 33 174 104 33 174 104 33 174 104 33 174 104 33 174 104 33 174 104 33 174 104 33 174 104 33 174 104 33 174 104 33 174 104 33 174 104 33 174 104 33 174 104 33 174 104 33 174 104 33 174 104 33 174 104 33 174 104 33 174 104 33 174 104 33 174 104 33 174 104 33 174 104 33 174 104 33 174 104 33 174 104 33 174 104 33 174 104 33 174 104 33 174 104 33 174 104 33 174 104 33 174 104 33 174 104 33 174 104 33 174 104 33 174 104 33 174 104 33 174 104 33 174 104 33 174 104 33 174 104 33 174 104 33 174 104 33 174 104 33 174 104 33 174 104 33 174 104 33 174 104 33 174 104 33 173 104 31 178 104 33 173 102 46 151 105 73 111 110 85 98 114 88 99 116 86 102 116 86 101 116 86 101 116 86 101 116 86 101 116 86 101 116 86 101 116 86 101 116 86 101 116 86 101 116 87 102 116 84 99 113 117 129 143 152 163 177 151 162 176 151 162 175 151 162 175 152 163 175 113 125 137 83 98 114 87 102 117 86 101 116 86 101 116 86 101 116 86 101 116 86 101 116 86 101 116 86 101 116 86 101 116 86 101 116 86 101 116 86 101 116 86 101 116 86 101 116 86 101 116 86 101 116 86 101 116 86 101 116 85 100 115 105 115 128
63 66 68 99 113 127 79 95 110 70 121 110 46 151 105 33 174 104 31 178 104 31 175 104 34 173 104 33 174 104 33 174 104 33 174 104 33 174 104 33 174 104 33 174 104 33 174 104 33 174 104 33 174 104 33 174 104 33 174 104 33 174 104 33 174 104 33 174 104 33 174 104 33 174 104 33 174 104 33 174 104 33 174 104 33 174 104 33 174 104 33 174 104 33 174 104 33 174 104 33 174 104 33 174 104 33 174 104 33 174 104 33 174 104 33 174 104 33 174 104 33 174 104 33 174 104 33 174 104 33 174 104 33 174 104 33 174 104 33 174 104 33 174 104 33 174 104 33 174 104 33 174 104 33 175 104 31 169 101 25 129 86 25 132 87 25 132 87 25 132 87 25 132 87 25 132 87 25 132 87 25 132 87 25 132 87 25 132 87 25 132 87 25 132 87 25 132 87 25 132 87 25 132 87 25 132 87 25 132 87 25 132 87 25 132 87 25 132 87 25 132 87 25 132 87 25 132 87 25 132 87 25 132 87 25 132 87 25 132 87 25 132 87 25 132 87 25 132 87 25 132 87 25 132 87 25 132 87 25 132 87 25 132 87 25 132 87 25 132 87 25 132 87 25 132 87 25 132 87 25 132 87 25 132 87 25 132 87 25 132 87 25 132 87 25 132 87 25 132 87 25 132 87 25 132 87 25 132 87 25 132 87 25 132 87 25 132 87 25 132 87 25 132 87 25 132 87 25 132 87 25 132 87 25 132 87 26 132 88 25 132 87 23 132 86 37 130 93 49 121 98 31 148 95 30 179 104 34 170 103 33 174 104 33 174 104 33 174 104 33 174 104 33 174 104 33 174 104 33 174 104 33 174 104 33 174 104 33 174 104 33 174 104 33 174 104 33 174 104 33 174 104 33 174 104 33 174 104 33 174 104 33 174 104 33 174 104 33 174 104 33 174 104 33 174 104 33 174 104 33 174 104 33 174 104 33 174 104 33 174 104 33 174 104 33 174 104 33 174 104 33 174 104 33 174 104 33 174 104 33 174 104 33 174 104 33 174 104 33 174 104 33 174 104 33 174 104 33 174 104 33 174 104 33 174 104 33 174 104 33 174 104 33 174 104 33 174 104 33 174 104 33 174 104 33 174 104 33 174 104 33 174 104 33 174 104 33 174 104 33 174 104 33 174 104 33 174 104 33 174 104 33 174 104 33 174 104 33 174 104 33 174 104 33 174 104 33 174 104 33 174 104 33 174 104 33 173 104 33 175 104 31 178 104 33 172 104 46 151 105 73 111 110 88 96 115 87 101 116 85 101 116 86 102 116 86 101 116 86 101 116 86 101 116 86 101 116 86 101 116 86 101 116 86 101 116 86 101 116 83 98 113 117 129 143 151 162 175 150 162 175 151 162 175 152 162 175 129 141 153 85 101 116 86 101 116 86 101 116 86 101 116 86 101 116 86 101 116 86 101 116 86 101 116 86 101 116 86 101 116 86 101 116 86 101 116 86 101 116 86 101 116 86 101 116 86 101 116 86 101 116 86 101 116 86 101 116 84 99 115 105 115 128
53 77 69 64 142 114 34 160 100 33 173 104 31 178 104 33 174 104 33 173 104 33 174 104 33 174 104 33 174 104 33 174 104 33 174 104 33 174 104 33 174 104 33 174 104 33 174 104 33 174 104 33 174 104 33 174 104 33 174 104 33 174 104 33 174 104 33 174 104 33 174 104 33 174 104 33 174 104 33 174 104 33 174 104 33 174 104 33 174 104 33 174 104 33 174 104 33 174 104 33 174 104 33 174 104 33 174 104 33 174 104 33 174 104 33 174 104 33 174 104 33 174 104 33 174 104 33 174 104 33 174 104 33 174 104 33 174 104 33 174 104 33 174 104 33 174 104 33 174 104 33 173 104 33 176 105 31 148 95 25 129 86 25 132 87 25 132 87 25 132 87 25 132 87 25 132 87 25 132 87 25 132 87 25 132 87 25 132 87 25 132 87 25 132 87 25 132 87 25 132 87 25 132 87 25 132 87 25 132 87 25 132 87 25 132 87 25 132 87 25 132 87 25 132 87 25 132 87 25 132 87 25 132 87 25 132 87 25 132 87 25 132 87 25 132 87 25 132 87 25 132 87 25 132 87 25 132 87 25 132 87 25 132 87 25 132 87 25 132 87 25 132 87 25 132 87 25 132 87 25 132 87 25 132 87 25 132 87 25 132 87 25 132 87 25 132 87 25 132 87 25 132 87 25 132 87 25 132 87 25 132 87 25 132 87 25 132 87 25 132 87 25 132 87 25 132 87 25 132 87 25 132 87 25 132 87 25 132 87 25 132 87 26 132 88 25 131 86 21 130 84 28 138 89 33 170 103 33 176 105 33 174 104 33 174 104 33 174 104 33 174 104 33 174 104 33 174 104 33 174 104 33 174 104 33 174 104 33 174 104 33 174 104 33 174 104 33 174 104 33 174 104 33 174 104 33 174 104 33 174 104 33 174 104 33 174 104 33 174 104 33 174 104 33 174 104 33 174 104 33 174 104 33 174 104 33 174 104 33 174 104 33 174 104 33 174 104 33 174 104 33 174 104 33 174 104 33 174 104 33 174 104 33 174 104 33 174 104 33 174 104 33 174 104 33 174 104 33 174 104 33 174 104 33 174 104 33 174 104 33 174 104 33 174 104 33 174 104 33 174 104 33 174 104 33 174 104 33 174 104 33 174 104 33 174 104 33 174 104 33 174 104 33 174 104 33 174 104 33 174 104 33 174 104 33 174 104 33 174 104 33 174 104 33 174 104 33 174 104 33 174 104 33 174 104 33 174 104 33 174 104 33 173 104 33 174 104 30 179 104 34 170 103 64 142 114 86 103 118 88 99 116 87 98 115 85 102 116 86 101 116 86 101 116 86 101 116 86 101 116 86 101 116 86 101 116 86 101 116 86 101 116 85 100 115 125 137 150 155 164 178 149 161 174 152 163 176 150 160 172 99 113 127 83 98 114 87 102 117 86 101 116 86 101 116 86 101 116 86 101 116 86 101 116 86 101 116 86 101 116 86 101 116 86 101 116 86 101 116 86 101 116 86 101 116 86 101 116 86 101 116 86 101 116 86 101 116 84 100 115 105 115 128
53 77 69 34 178 106 31 175 104 33 174 104 34 173 104 33 174 104 33 174 104 33 174 104 33 174 104 33 174 104 33 174 104 33 174 104 33 174 104 33 174 104 33 174 104 33 174 104 33 174 104 33 174 104 33 174 104 33 174 104 33 174 104 33 174 104 33 174 104 33 174 104 33 174 104 33 174 104 33 174 104 33 174 104 33 174 104 33 174 104 33 174 104 33 174 104 33 174 104 33 174 104 33 174 104 33 174 104 33 174 104 33 174 104 33 174 104 33 174 104 33 174 104 33 174 104 33 174 104 33 174 104 33 174 104 33 174 104 33 174 104 33 174 104 33 174 104 33 174 104 33 174 104 33 173 104 28 138 89 25 129 86 25 132 87 25 132 87 25 132 87 25 132 87 25 132 87 25 132 87 25 132 87 25 132 87 25 132 87 25 132 87 25 132 87 25 132 87 25 132 87 25 132 87 25 132 87 25 132 87 25 132 87 25 132 87 25 132 87 25 132 87 25 132 87 25 132 87 25 132 87 25 132 87 25 132 87 25 132 87 25 132 87 25 132 87 25 132 87 25 132 87 25 132 87 25 132 87 25 132 87 25 132 87 25 132 87 25 132 87 25 132 87 25 132 87 25 132 87 25 132 87 25 132 87 25 132 87 25 132 87 25 132 87 25 132 87 25 132 87 25 132 87 25 132 87 25 132 87 25 132 87 25 132 87 25 132 87 25 132 87 25 132 87 25 132 87 25 132 87 25 132 87 25 132 87 25 132 87 25 132 87 25 132 87 25 132 87 25 132 88 26 132 88 28 138 89 34 160 100 33 175 105 33 175 104 33 174 104 33 174 104 33 174 104 33 174 104 33 174 104 33 174 104 33 174 104 33 174 104 33 174 104 33 174 104 33 174 104 33 174 104 33 174 104 33 174 104 33 174 104 33 174 104 33 174 104 33 174 104 33 174 104 33 174 104 33 174 104 33 174 104 33 174 104 33 174 104 33 174 104 33 174 104 33 174 104 33 174 104 33 174 104 33 174 104 33 174 104 33 174 104 33 174 104 33 174 104 33 174 104 33 174 104 33 174 104 33 174 104 33 174 104 33 174 104 33 174 104 33 174 104 33 174 104 33 174 104 33 174 104 33 174 104 33 174 104 33 174 104 33 174 104 33 174 104 33 174 104 33 174 104 33 174 104 33 174 104 33 174 104 33 174 104 33 174 104 33 174 104 33 174 104 33 174 104 33 174 104 33 174 104 33 174 104 33 174 104 33 174 104 33 174 104 33 174 104 34 173 104 33 176 104 30 179 104 36 175 107 64 142 114 94 109 123 88 99 116 84 99 115 85 102 116 86 102 116 86 101 116 86 101 116 86 101 116 86 101 116 87 102 117 85 100 115 89 104 118 141 151 164 155 164 178 148 159 172 159 168 179 113 126 139 82 97 113 87 102 117 86 101 116 86 101 116 86 101 116 86 101 116 86 101 116 86 101 116 86 101 116 86 101 116 86 101 116 86 101 116 86 101 116 86 101 116 86 101 116 86 101 116 86 101 116 86 101 116 86 102 117 93 99 110
34 52 45 36 175 107 31 169 101 33 174 104 33 174 104 33 174 104 33 174 104 33 174 104 33 174 104 33 174 104 33 174 104 33 174 104 33 174 104 33 174 104 33 174 104 33 174 104 33 174 104 33 174 104 33 174 104 33 174 104 33 174 104 33 174 104 33 174 104 33 174 104 33 174 104 33 174 104 33 174 104 33 174 104 33 174 104 33 174 104 33 174 104 33 174 104 33 174 104 33 174 104 33 174 104 33 174 104 33 174 104 33 174 104 33 174 104 33 174 104 33 174 104 33 174 104 33 174 104 33 174 104 33 174 104 33 174 104 33 174 104 33 174 104 33 174 104 33 173 104 33 177 106 34 160 100 26 132 88 25 132 87 25 132 87 25 132 87 25 132 87 25 132 87 25 132 87 25 132 87 25 132 87 25 132 87 25 132 87 25 132 87 25 132 87 25 132 87 25 132 87 25 132 87 25 132 87 25 132 87 25 132 87 25 132 87 25 132 87 25 132 87 25 132 87 25 132 87 25 132 87 25 132 87 25 132 87 25 132 87 25 132 87 25 132 87 25 132 87 25 132 87 25 132 87 25 132 87 25 132 87 25 132 87 25 132 87 25 132 87 25 132 87 25 132 87 25 132 87 25 132 87 25 132 87 25 132 87 25 132 87 25 132 87 25 132 87 25 132 87 25 132 87 25 132 87 25 132 87 25 132 87 25 132 87 25 132 87 25 132 87 25 132 87 25 132 87 25 132 87 25 132 87 25 132 87 25 132 87 25 132 87 25 132 87 25 132 87 25 132 87 25 132 87 26 132 88 26 132 88 31 148 95 31 169 101 33 176 105 33 175 104 33 173 104 33 174 104 33 174 104 33 174 104 33 174 104 33 174 104 33 174 104 33 174 104 33 174 104 33 174 104 33 174 104 33 174 104 33 174 104 33 174 104 33 174 104 33 174 104 33 174 104 33 174 104 33 174 104 33 174 104 33 174 104 33 174 104 33 174 104 33 174 104 33 174 104 33 174 104 33 174 104 33 174 104 33 174 104 33 174 104 33 174 104 33 174 104 33 174 104 33 174 104 33 174 104 33 174 104 33 174 104 33 174 104 33 174 104 33 174 104 33 174 104 33 174 104 33 174 104 33 174 104 33 174 104 33 174 104 33 174 104 33 174 104 33 174 104 33 174 104 33 174 104 33 174 104 33 174 104 33 174 104 33 174 104 33 174 104 33 174 104 33 174 104 33 174 104 33 174 104 33 174 104 33 174 104 33 174 104 33 174 104 33 174 104 33 174 104 33 173 104 33 173 104 31 175 104 31 177 104 36 175 107 64 142 114 89 104 118 88 99 116 84 99 115 85 102 116 86 101 116 86 101 116 86 101 116 86 101 116 87 102 117 84 99 114 94 109 123 142 154 166 154 165 177 154 165 177 125 137 150 84 99 115 86 101 116 86 101 116 86 101 116 86 101 116 86 101 116 86 101 116 86 101 116 86 101 116 86 101 116 86 101 116 86 101 116 86 101 116 86 101 116 86 101 116 86 101 116 86 101 116 85 100 115 88 104 119 80 84 89
34 52 45 36 175 107 31 169 101 33 174 104 33 174 104 33 174 104 33 174 104 33 174 104 33 174 104 33 174 104 33 174 104 33 174 104 33 174 104 33 174 104 33 174 104 33 174 104 33 174 104 33 174 104 33 174 104 33 174 104 33 174 104 33 174 104 33 174 104 33 174 104 33 174 104 33 174 104 33 174 104 33 174 104 33 174 104 33 174 104 33 174 104 33 174 104 33 174 104 33 174 104 33 174 104 33 174 104 33 174 104 33 174 104 33 174 104 33 174 104 33 174 104 33 174 104 33 174 104 33 174 104 33 174 104 33 174 104 33 174 104 33 174 104 33 174 104 33 173 104 33 175 105 31 148 95 25 129 86 25 133 87 25 132 87 25 132 87 25 132 87 25 132 87 25 132 87 25 132 87 25 132 87 25 132 87 25 132 87 25 132 87 25 132 87 25 132 87 25 132 87 25 132 87 25 132 87 25 132 87 25 132 87 25 132 87 25 132 87 25 132 87 25 132 87 25 132 87 25 132 87 25 132 87 25 132 87 25 132 87 25 132 87 25 132 87 25 132 87 25 132 87 25 132 87 25 132 87 25 132 87 25 132 87 25 132 87 25 132 87 25 132 87 25 132 87 25 132 87 25 132 87 25 132 87 25 132 87 25 132 87 25 132 87 25 132 87 25 132 87 25 132 87 25 132 87 25 132 87 25 132 87 25 132 87 25 132 87 25 132 87 25 132 87 25 132 87 25 132 87 25 132 87 25 132 87 25 132 87 25 132 87 25 132 87 25 132 87 25 132 87 25 132 87 25 132 87 25 132 87 25 129 86 28 138 89 31 157 95 33 173 102 33 177 106 33 174 104 33 174 104 33 174 104 33 174 104 33 174 104 33 174 104 33 174 104 33 174 104 33 174 104 33 174 104 33 174 104 33 174 104 33 174 104 33 174 104 33 174 104 33 174 104 33 174 104 33 174 104 33 174 104 33 174 104 33 174 104 33 174 104 33 174 104 33 174 104 33 174 104 33 174 104 33 174 104 33 174 104 33 174 104 33 174 104 33 174 104 33 174 104 33 174 104 33 174 104 33 174 104 33 174 104 33 174 104 33 174 104 33 174 104 33 174 104 33 174 104 33 174 104 33 174 104 33 174 104 33 174 104 33 174 104 33 174 104 33 174 104 33 174 104 33 174 104 33 174 104 33 174 104 33 174 104 33 174 104 33 174 104 33 174 104 33 174 104 33 174 104 33 174 104 33 174 104 33 174 104 33 174 104 33 174 104 33 174 104 33 174 104 33 174 104 33 174 104 33 174 104 34 173 104 31 175 104 31 177 104 46 151 105 64 142 114 88 104 119 88 96 115 85 100 115 85 102 116 86 101 116 86 101 116 86 101 116 87 102 117 83 98 114 94 109 123 142 154 166 159 168 179 141 151 164 89 104 118 85 100 115 86 101 116 86 101 116 86 101 116 86 101 116 86 101 116 86 101 116 86 101 116 86 101 116 86 101 116 86 101 116 86 101 116 86 101 116 86 101 116 86 101 116 86 101 116 84 99 114 95 112 124 63 66 68
34 52 45 36 175 107 31 169 101 34 173 104 33 174 104 33 174 104 33 174 104 33 174 104 33 174 104 33 174 104 33 174 104 33 174 104 33 174 104 33 174 104 33 174 104 33 174 104 33 174 104 33 174 104 33 174 104 33 174 104 33 174 104 33 174 104 33 174 104 33 174 104 33 174 104 33 174 104 33 174 104 33 174 104 33 174 104 33 174 104 33 174 104 33 174 104 33 174 104 33 174 104 33 174 104 33 174 104 33 174 104 33 174 104 33 174 104 33 174 104 33 174 104 33 174 104 33 174 104 33 174 104 33 174 104 33 174 104 33 174 104 33 174 104 33 174 104 33 175 104 33 170 103 28 138 89 25 131 87 25 132 87 25 132 87 25 132 87 25 132 87 25 132 87 25 132 87 25 132 87 25 132 87 25 132 87 25 132 87 25 132 87 25 132 87 25 132 87 25 132 87 25 132 87 25 132 87 25 132 87 25 132 87 25 132 87 25 132 87 25 132 87 25 132 87 25 132 87 25 132 87 25 132 87 25 132 87 25 132 87 25 132 87 25 132 87 25 132 87 25 132 87 25 132 87 25 132 87 25 132 87 25 132 87 25 132 87 25 132 87 25 132 87 25 132 87 25 132 87 25 132 87 25 132 87 25 132 87 25 132 87 25 132 87 25 132 87 25 132 87 25 132 87 25 132 87 25 132 87 25 132 87 25 132 87 25 132 87 25 132 87 25 132 87 25 132 87 25 132 87 25 132 87 25 132 87 25 132 87 25 132 87 25 132 87 25 132 87 25 132 87 25 132 87 25 132 87 25 132 87 25 132 87 25 132 87 25 131 87 28 138 89 34 160 100 33 176 104 33 175 105 33 173 104 33 174 104 33 174 104 33 174 104 33 174 104 33 174 104 33 174 104 33 174 104 33 174 104 33 174 104 33 174 104 33 174 104 33 174 104 33 174 104 33 174 104 33 174 104 33 174 104 33 174 104 33 174 104 33 174 104 33 174 104 33 174 104 33 174 104 33 174 104 33 174 104 33 174 104 33 174 104 33 174 104 33 174 104 33 174 104 33 174 104 33 174 104 33 174 104 33 174 104 33 174 104 33 174 104 33 174 104 33 174 104 33 174 104 33 174 104 33 174 104 33 174 104 33 174 104 33 174 104 33 174 104 33 174 104 33 174 104 33 174 104 33 174 104 33 174 104 33 174 104 33 174 104 33 174 104 33 174 104 33 174 104 33 174 104 33 174 104 33 174 104 33 174 104 33 174 104 33 174 104 33 174 104 33 174 104 33 174 104 33 174 104 33 174 104 33 174 104 34 173 104 33 174 104 31 175 104 31 175 104 46 151 105 70 121 110 89 104 118 88 99 116 85 100 115 85 102 116 86 101 116 86 101 116 87 102 117 83 98 114 94 109 123 145 156 168 151 162 175 89 104 118 85 100 115 86 101 116 86 101 116 86 101 116 86 101 116 86 101 116 86 101 116 86 101 116 86 101 116 86 101 116 86 101 116 86 101 116 86 101 116 86 101 116 86 101 116 86 101 116 81 96 110 104 117 130 34 52 45
21 29 25 36 175 107 31 175 104 34 173 104 33 174 104 33 174 104 33 174 104 33 174 104 33 174 104 33 174 104 33 174 104 33 174 104 33 174 104 33 174 104 33 174 104 33 174 104 33 174 104 33 174 104 33 174 104 33 174 104 33 174 104 33 174 104 33 174 104 33 174 104 33 174 104 33 174 104 33 174 104 33 174 104 33 174 104 33 174 104 33 174 104 33 174 104 33 174 104 33 174 104 33 174 104 33 174 104 33 174 104 33 174 104 33 174 104 33 174 104 33 174 104 33 174 104 33 174 104 33 174 104 33 174 104 33 174 104 33 174 104 33 174 104 33 174 104 33 175 104 34 160 100 26 132 88 25 132 87 25 132 87 25 132 87 25 132 87 25 132 87 25 132 87 25 132 87 25 132 87 25 132 87 25 132 87 25 132 87 25 132 87 25 132 87 25 132 87 25 132 87 25 132 87 25 132 87 25 132 87 25 132 87 25 132 87 25 132 87 25 132 87 25 132 87 25 132 87 25 132 87 25 132 87 25 132 87 25 132 87 25 132 87 25 132 87 25 132 87 25 132 87 25 132 87 25 132 87 25 132 87 25 132 87 25 132 87 25 132 87 25 132 87 25 132 87 25 132 87 25 132 87 25 132 87 25 132 87 25 132 87 25 132 87 25 132 87 25 132 87 25 132 87 25 132 87 25 132 87 25 132 87 25 132 87 25 132 87 25 132 87 25 132 87 25 132 87 25 132 87 25 132 87 25 132 87 25 132 87 25 132 87 25 132 87 25 132 87 25 132 87 25 132 87 25 132 87 25 132 87 25 132 87 25 132 87 25 132 87 25 131 87 26 132 88 31 148 95 31 169 101 33 176 105 33 174 104 33 174 104 33 174 104 33 174 104 33 174 104 33 174 104 33 174 104 33 174 104 33 174 104 33 174 104 33 174 104 33 174 104 33 174 104 33 174 104 33 174 104 33 174 104 33 174 104 33 174 104 33 174 104 33 174 104 33 174 104 33 174 104 33 174 104 33 174 104 33 174 104 33 174 104 33 174 104 33 174 104 33 174 104 33 174 104 33 174 104 33 174 104 33 174 104 33 174 104 33 174 104 33 174 104 33 174 104 33 174 104 33 174 104 33 174 104 33 174 104 33 174 104 33 174 104 33 174 104 33 174 104 33 174 104 33 174 104 33 174 104 33 174 104 33 174 104 33 174 104 33 174 104 33 174 104 33 174 104 33 174 104 33 174 104 33 174 104 33 174 104 33 174 104 33 174 104 33 174 104 33 174 104 33 174 104 33 174 104 33 174 104 33 174 104 33 174 104 33 174 104 33 174 104 34 173 104 31 177 104 33 176 104 46 151 105 70 121 110 89 104 118 88 99 116 85 101 116 86 102 116 86 101 116 87 102 117 82 98 113 95 112 124 136 147 158 89 104 118 84 99 115 86 101 116 86 101 116 86 101 116 86 101 116 86 101 116 86 101 116 86 101 116 86 101 116 86 101 116 86 101 116 86 101 116 86 101 116 86 101 116 86 101 116 87 101 116 82 97 113 107 120 134 34 52 45
13 18 16 46 151 105 34 178 106 33 172 102 33 174 104 33 174 104 33 174 104 33 174 104 33 174 104 33 174 104 33 174 104 33 174 104 33 174 104 33 174 104 33 174 104 33 174 104 33 174 104 33 174 104 33 174 104 33 174 104 33 174 104 33 174 104 33 174 104 33 174 104 33 174 104 33 174 104 33 174 104 33 174 104 33 174 104 33 174 104 33 174 104 33 174 104 33 174 104 33 174 104 33 174 104 33 174 104 33 174 104 33 174 104 33 174 104 33 174 104 33 174 104 33 174 104 33 174 104 33 174 104 33 174 104 33 174 104 33 174 104 33 174 104 33 174 104 33 175 105 28 146 91 25 129 86 25 132 87 25 132 87 25 132 87 25 132 87 25 132 87 25 132 87 25 132 87 25 132 87 25 132 87 25 132 87 25 132 87 25 132 87 25 132 87 25 132 87 25 132 87 25 132 87 25 132 87 25 132 87 25 132 87 25 132 87 25 132 87 25 132 87 25 132 87 25 132 87 25 132 87 25 132 87 25 132 87 25 132 87 25 132 87 25 132 87 25 132 87 25 132 87 25 132 87 25 132 87 25 132 87 25 132 87 25 132 87 25 132 87 25 132 87 25 132 87 25 132 87 25 132 87 25 132 87 25 132 87 25 132 87 25 132 87 25 132 87 25 132 87 25 132 87 25 132 87 25 132 87 25 132 87 25 132 87 25 132 87 25 132 87 25 132 87 25 132 87 25 132 87 25 132 87 25 132 87 25 132 87 25 132 87 25 132 87 25 132 87 25 132 87 25 132 87 25 132 87 25 132 87 25 132 87 25 132 87 25 132 87 25 132 87 25 132 87 25 131 87 28 138 89 34 160 100 33 173 104 33 175 104 33 174 104 33 174 104 33 174 104 33 174 104 33 174 104 33 174 104 33 174 104 33 174 104 33 174 104 33 174 104 33 174 104 33 174 104 33 174 104 33 174 104 33 174 104 33 174 104 33 174 104 33 174 104 33 174 104 33 174 104 33 174 104 33 174 104 33 174 104 33 174 104 33 174 104 33 174 104 33 174 104 33 174 104 33 174 104 33 174 104 33 174 104 33 174 104 33 174 104 33 174 104 33 174 104 33 174 104 33 174 104 33 174 104 33 174 104 33 174 104 33 174 104 33 174 104 33 174 104 33 174 104 33 174 104 33 174 104 33 174 104 33 174 104 33 174 104 33 174 104 33 174 104 33 174 104 33 174 104 33 174 104 33 174 104 33 174 104 33 174 104 33 174 104 33 174 104 33 174 104 33 174 104 33 174 104 33 174 104 33 174 104 33 174 104 33 174 104 33 174 104 33 174 104 34 173 104 33 174 104 31 177 104 34 175 105 64 142 114 70 121 110 89 104 118 88 99 116 85 101 116 86 102 116 87 102 117 84 99 114 89 104 118 88 103 118 86 101 116 86 101 116 86 101 116 86 101 116 86 101 116 86 101 116 86 101 116 86 101 116 86 101 116 86 101 116 86 101 116 86 101 116 86 101 116 86 101 116 86 101 116 85 100 115 84 100 115 89 104 118 21 29 25
1 1 1 49 121 98 34 178 106 31 169 101 33 174 104 33 174 104 33 174 104 33 174 104 33 174 104 33 174 104 33 174 104 33 174 104 33 174 104 33 174 104 33 174 104 33 174 104 33 174 104 33 174 104 33 174 104 33 174 104 33 174 104 33 174 104 33 174 104 33 174 104 33 174 104 33 174 104 33 174 104 33 174 104 33 174 104 33 174 104 33 174 104 33 174 104 33 174 104 33 174 104 33 174 104 33 174 104 33 174 104 33 174 104 33 174 104 33 174 104 33 174 104 33 174 104 33 174 104 33 174 104 33 174 104 33 174 104 33 174 104 33 174 104 33 175 104 31 169 101 28 138 89 25 131 87 25 132 87 25 132 87 25 132 87 25 132 87 25 132 87 25 132 87 25 132 87 25 132 87 25 132 87 25 132 87 25 132 87 25 132 87 25 132 87 25 132 87 25 132 87 25 132 87 25 132 87 25 132 87 25 132 87 25 132 87 25 132 87 25 132 87 25 132 87 25 132 87 25 132 87 25 132 87 25 132 87 25 132 87 25 132 87 25 132 87 25 132 87 25 132 87 25 132 87 25 132 87 25 132 87 25 132 87 25 132 87 25 132 87 25 132 87 25 132 87 25 132 87 25 132 87 25 132 87 25 132 87 25 132 87 25 132 87 25 132 87 25 132 87 25 132 87 25 132 87 25 132 87 25 132 87 25 132 87 25 132 87 25 132 87 25 132 87 25 132 87 25 132 87 25 132 87 25 132 87 25 132 87 25 132 87 25 132 87 25 132 87 25 132 87 25 132 87 25 132 87 25 132 87 25 132 87 25 132 87 25 132 87 25 132 87 25 132 87 25 132 87 25 132 87 25 131 87 28 146 91 34 170 103 33 176 104 33 175 104 33 174 104 33 174 104 33 174 104 33 174 104 33 174 104 33 174 104 33 174 104 33 174 104 33 174 104 33 174 104 33 174 104 33 174 104 33 174 104 33 174 104 33 174 104 33 174 104 33 174 104 33 174 104 33 174 104 33 174 104 33 174 104 33 174 104 33 174 104 33 174 104 33 174 104 33 174 104 33 174 104 33 174 104 33 174 104 33 174 104 33 174 104 33 174 104 33 174 104 33 174 104 33 174 104 33 174 104 33 174 104 33 174 104 33 174 104 33 174 104 33 174 104 33 174 104 33 174 104 33 174 104 33 174 104 33 174 104 33 174 104 33 174 104 33 174 104 33 174 104 33 174 104 33 174 104 33 174 104 33 174 104 33 174 104 33 174 104 33 174 104 33 174 104 33 174 104 33 174 104 33 174 104 33 174 104 33 174 104 33 174 104 33 174 104 33 174 104 33 174 104 33 174 104 34 173 104 33 174 104 30 179 104 36 175 107 46 151 105 95 112 124 89 104 118 87 98 115 85 101 116 86 102 116 85 101 116 86 101 116 86 101 116 86 101 116 86 101 116 86 101 116 86 101 116 86 101 116 86 101 116 86 101 116 86 101 116 86 101 116 86 101 116 86 101 116 86 101 116 86 101 116 86 101 116 84 99 114 94 109 123 80 84 89 1 1 1
0 0 0 57 96 90 34 178 106 33 172 102 33 174 104 33 174 104 33 174 104 33 174 104 33 174 104 33 174 104 33 174 104 33 174 104 33 174 104 33 174 104 33 174 104 33 174 104 33 174 104 33 174 104 33 174 104 33 174 104 33 174 104 33 174 104 33 174 104 33 174 104 33 174 104 33 174 104 33 174 104 33 174 104 33 174 104 33 174 104 33 174 104 33 174 104 33 174 104 33 174 104 33 174 104 33 174 104 33 174 104 33 174 104 33 174 104 33 174 104 33 174 104 33 174 104 33 174 104 33 174 104 33 174 104 33 174 104 33 174 104 33 173 104 34 178 106 31 157 95 25 129 86 25 133 87 25 132 87 25 132 87 25 132 87 25 132 87 25 132 87 25 132 87 25 132 87 25 132 87 25 132 87 25 132 87 25 132 87 25 132 87 25 132 87 25 132 87 25 132 87 25 132 87 25 132 87 25 132 87 25 132 87 25 132 87 25 132 87 25 132 87 25 132 87 25 132 87 25 132 87 25 132 87 25 132 87 25 132 87 25 132 87 25 132 87 25 132 87 25 132 87 25 132 87 25 132 87 25 132 87 25 132 87 25 132 87 25 132 87 25 132 87 25 132 87 25 132 87 25 132 87 25 132 87 25 132 87 25 132 87 25 132 87 25 132 87 25 132 87 25 132 87 25 132 87 25 132 87 25 132 87 25 132 87 25 132 87 25 132 87 25 132 87 25 132 87 25 132 87 25 132 87 25 132 87 25 132 87 25 132 87 25 132 87 25 132 87 25 132 87 25 132 87 25 132 87 25 132 87 25 132 87 25 132 87 25 132 87 25 132 87 25 132 87 25 132 87 25 132 87 25 132 87 25 131 87 27 134 88 31 148 95 34 173 104 33 176 104 33 174 104 33 174 104 33 174 104 33 174 104 33 174 104 33 174 104 33 174 104 33 174 104 33 174 104 33 174 104 33 174 104 33 174 104 33 174 104 33 174 104 33 174 104 33 174 104 33 174 104 33 174 104 33 174 104 33 174 104 33 174 104 33 174 104 33 174 104 33 174 104 33 174 104 33 174 104 33 174 104 33 174 104 33 174 104 33 174 104 33 174 104 33 174 104 33 174 104 33 174 104 33 174 104 33 174 104 33 174 104 33 174 104 33 174 104 33 174 104 33 174 104 33 174 104 33 174 104 33 174 104 33 174 104 33 174 104 33 174 104 33 174 104 33 174 104 33 174 104 33 174 104 33 174 104 33 174 104 33 174 104 33 174 104 33 174 104 33 174 104 33 174 104 33 174 104 33 174 104 33 174 104 33 174 104 33 174 104 33 174 104 33 174 104 33 174 104 33 174 104 33 174 104 33 174 104 34 173 104 33 174 104 31 177 104 36 175 107 64 142 114 95 112 124 88 99 116 87 98 115 85 101 116 86 102 116 86 101 116 86 101 116 86 101 116 86 101 116 86 101 116 86 101 116 86 101 116 86 101 116 86 101 116 86 101 116 86 101 116 86 101 116 86 101 116 86 101 116 86 101 116 83 98 112 99 113 127 80 84 89 0 0 0
0 0 0 34 52 45 36 175 107 31 175 104 33 173 104 33 174 104 33 174 104 33 174 104 33 174 104 33 174 104 33 174 104 33 174 104 33 174 104 33 174 104 33 174 104 33 174 104 33 174 104 33 174 104 33 174 104 33 174 104 33 174 104 33 174 104 33 174 104 33 174 104 33 174 104 33 174 104 33 174 104 33 174 104 33 174 104 33 174 104 33 174 104 33 174 104 33 174 104 33 174 104 33 174 104 33 174 104 33 174 104 33 174 104 33 174 104 33 174 104 33 174 104 33 174 104 33 174 104 33 174 104 33 174 104 33 174 104 33 174 104 33 174 104 33 172 104 28 146 91 25 131 87 25 132 87 25 132 87 25 132 87 25 132 87 25 132 87 25 132 87 25 132 87 25 132 87 25 132 87 25 132 87 25 132 87 25 132 87 25 132 87 25 132 87 25 132 87 25 132 87 25 132 87 25 132 87 25 132 87 25 132 87 25 132 87 25 132 87 25 132 87 25 132 87 25 132 87 25 132 87 25 132 87 25 132 87 25 132 87 25 132 87 25 132 87 25 132 87 25 132 87 25 132 87 25 132 87 25 132 87 25 132 87 25 132 87 25 132 87 25 132 87 25 132 87 25 132 87 25 132 87 25 132 87 25 132 87 25 132 87 25 132 87 25 132 87 25 132 87 25 132 87 25 132 87 25 132 87 25 132 87 25 132 87 25 132 87 25 132 87 25 132 87 25 132 87 25 132 87 25 132 87 25 132 87 25 132 87 25 132 87 25 132 87 25 132 87 25 132 87 25 132 87 25 132 87 25 132 87 25 132 87 25 132 87 25 132 87 25 132 87 25 132 87 25 132 87 25 132 87 25 132 87 25 132 87 25 132 87 26 132 88 28 138 89 34 160 100 33 175 104 33 175 104 33 174 104 33 174 104 33 174 104 33 174 104 33 174 104 33 174 104 33 174 104 33 174 104 33 174 104 33 174 104 33 174 104 33 174 104 33 174 104 33 174 104 33 174 104 33 174 104 33 174 104 33 174 104 33 174 104 33 174 104 33 174 104 33 174 104 33 174 104 33 174 104 33 174 104 33 174 104 33 174 104 33 174 104 33 174 104 33 174 104 33 174 104 33 174 104 33 174 104 33 174 104 33 174 104 33 174 104 33 174 104 33 174 104 33 174 104 33 174 104 33 174 104 33 174 104 33 174 104 33 174 104 33 174 104 33 174 104 33 174 104 33 174 104 33 174 104 33 174 104 33 174 104 33 174 104 33 174 104 33 174 104 33 174 104 33 174 104 33 174 104 33 174 104 33 174 104 33 174 104 33 174 104 33 174 104 33 174 104 33 174 104 33 174 104 33 174 104 33 174 104 33 174 104 33 174 104 34 173 104 33 174 104 30 179 104 36 175 107 64 142 114 95 112 124 88 102 117 87 98 115 85 101 116 86 102 116 86 101 116 86 101 116 86 101 116 86 101 116 86 101 116 86 101 116 86 101 116 86 101 116 86 101 116 86 101 116 86 101 116 86 101 116 86 101 116 84 99 114 94 109 123 63 66 68 0 0 0
0 0 0 3 2 3 64 142 114 31 175 104 33 172 104 33 174 104 33 174 104 33 174 104 33 174 104 33 174 104 33 174 104 33 174 104 33 174 104 33 174 104 33 174 104 33 174 104 33 174 104 33 174 104 33 174 104 33 174 104 33 174 104 33 174 104 33 174 104 33 174 104 33 174 104 33 174 104 33 174 104 33 174 104 33 174 104 33 174 104 33 174 104 33 174 104 33 174 104 33 174 104 33 174 104 33 174 104 33 174 104 33 174 104 33 174 104 33 174 104 33 174 104 33 174 104 33 174 104 33 174 104 33 174 104 33 174 104 33 174 104 33 176 105 31 169 101 26 132 88 25 132 87 25 132 87 25 132 87 25 132 87 25 132 87 25 132 87 25 132 87 25 132 87 25 132 87 25 132 87 25 132 87 25 132 87 25 132 87 25 132 87 25 132 87 25 132 87 25 132 87 25 132 87 25 132 87 25 132 87 25 132 87 25 132 87 25 132 87 25 132 87 25 132 87 25 132 87 25 132 87 25 132 87 25 132 87 25 132 87 25 132 87 25 132 87 25 132 87 25 132 87 25 132 87 25 132 87 25 132 87 25 132 87 25 132 87 25 132 87 25 132 87 25 132 87 25 132 87 25 132 87 25 132 87 25 132 87 25 132 87 25 132 87 25 132 87 25 132 87 25 132 87 25 132 87 25 132 87 25 132 87 25 132 87 25 132 87 25 132 87 25 132 87 25 132 87 25 132 87 25 132 87 25 132 87 25 132 87 25 132 87 25 132 87 25 132 87 25 132 87 25 132 87 25 132 87 25 132 87 25 132 87 25 132 87 25 132 87 25 132 87 25 132 87 25 132 87 25 132 87 25 132 87 25 132 87 25 132 87 25 132 87 25 131 86 27 134 88 31 148 95 31 169 101 33 176 105 33 174 104 33 173 104 33 174 104 33 174 104 33 174 104 33 174 104 33 174 104 33 174 104 33 174 104 33 174 104 33 174 104 33 174 104 33 174 104 33 174 104 33 174 104 33 174 104 33 174 104 33 174 104 33 174 104 33 174 104 33 174 104 33 174 104 33 174 104 33 174 104 33 174 104 33 174 104 33 174 104 33 174 104 33 174 104 33 174 104 33 174 104 33 174 104 33 174 104 33 174 104 33 174 104 33 174 104 33 174 104 33 174 104 33 174 104 33 174 104 33 174 104 33 174 104 33 174 104 33 174 104 33 174 104 33 174 104 33 174 104 33 174 104 33 174 104 33 174 104 33 174 104 33 174 104 33 174 104 33 174 104 33 174 104 33 174 104 33 174 104 33 174 104 33 174 104 33 174 104 33 174 104 33 174 104 33 174 104 33 174 104 33 174 104 33 174 104 33 174 104 33 174 104 33 174 104 33 174 104 34 173 104 31 175 104 31 177 104 36 175 107 64 142 114 95 112 124 88 103 119 86 100 115 85 101 116 86 102 116 86 101 116 86 101 116 86 101 116 86 101 116 86 101 116 86 101 116 86 101 116 86 101 116 86 101 116 86 101 116 86 101 116 86 102 117 99 113 127 13 18 16 0 0 0
0 1 1 0 0 0 57 96 90 34 178 106 33 172 102 33 174 104 33 174 104 33 174 104 33 174 104 33 174 104 33 174 104 33 174 104 33 174 104 33 174 104 33 174 104 33 174 104 33 174 104 33 174 104 33 174 104 33 174 104 33 174 104 33 174 104 33 174 104 33 174 104 33 174 104 33 174 104 33 174 104 33 174 104 33 174 104 33 174 104 33 174 104 33 174 104 33 174 104 33 174 104 33 174 104 33 174 104 33 174 104 33 174 104 33 174 104 33 174 104 33 174 104 33 174 104 33 174 104 33 174 104 33 174 104 33 174 104 33 174 104 33 176 105 31 148 95 25 131 86 25 132 87 25 132 87 25 132 87 25 132 87 25 132 87 25 132 87 25 132 87 25 132 87 25 132 87 25 132 87 25 132 87 25 132 87 25 132 87 25 132 87 25 132 87 25 132 87 25 132 87 25 132 87 25 132 87 25 132 87 25 132 87 25 132 87 25 132 87 25 132 87 25 132 87 25 132 87 25 132 87 25 132 87 25 132 87 25 132 87 25 132 87 25 132 87 25 132 87 25 132 87 25 132 87 25 132 87 25 132 87 25 132 87 25 132 87 25 132 87 25 132 87 25 132 87 25 132 87 25 132 87 25 132 87 25 132 87 25 132 87 25 132 87 25 132 87 25 132 87 25 132 87 25 132 87 25 132 87 25 132 87 25 132 87 25 132 87 25 132 87 25 132 87 25 132 87 25 132 87 25 132 87 25 132 87 25 132 87 25 132 87 25 132 87 25 132 87 25 132 87 25 132 87 25 132 87 25 132 87 25 132 87 25 132 87 25 132 87 25 132 87 25 132 87 25 132 87 25 132 87 25 132 87 25 132 87 25 132 87 25 132 87 25 132 87 25 132 87 25 131 87 28 138 89 31 157 95 34 173 104 33 176 105 33 174 104 33 174 104 33 174 104 33 174 104 33 174 104 33 174 104 33 174 104 33 174 104 33 174 104 33 174 104 33 174 104 33 174 104 33 174 104 33 174 104 33 174 104 33 174 104 33 174 104 33 174 104 33 174 104 33 174 104 33 174 104 33 174 104 33 174 104 33 174 104 33 174 104 33 174 104 33 174 104 33 174 104 33 174 104 33 174 104 33 174 104 33 174 104 33 174 104 33 174 104 33 174 104 33 174 104 33 174 104 33 174 104 33 174 104 33 174 104 33 174 104 33 174 104 33 174 104 33 174 104 33 174 104 33 174 104 33 174 104 33 174 104 33 174 104 33 174 104 33 174 104 33 174 104 33 174 104 33 174 104 33 174 104 33 174 104 33 174 104 33 174 104 33 174 104 33 174 104 33 174 104 33 174 104 33 174 104 33 174 104 33 174 104 33 174 104 33 174 104 33 174 104 33 174 104 33 174 104 33 173 104 33 174 104 31 177 104 36 175 107 64 142 114 95 112 124 88 99 116 87 98 115 85 101 116 86 102 116 86 101 116 86 101 116 86 101 116 86 101 116 86 101 116 86 101 116 86 101 116 86 101 116 85 98 114 88 104 119 80 84 89 0 0 0 0 0 0
1 2 2 0 0 0 21 29 25 36 175 107 31 169 101 34 173 104 33 174 104 33 174 104 33 174 104 33 174 104 33 174 104 33 174 104 33 174 104 33 174 104 33 174 104 33 174 104 33 174 104 33 174 104 33 174 104 33 174 104 33 174 104 33 174 104 33 174 104 33 174 104 33 174 104 33 174 104 33 174 104 33 174 104 33 174 104 33 174 104 33 174 104 33 174 104 33 174 104 33 174 104 33 174 104 33 174 104 33 174 104 33 174 104 33 174 104 33 174 104 33 174 104 33 174 104 33 174 104 33 174 104 33 174 104 33 174 104 33 174 104 33 173 104 28 138 89 25 131 86 25 132 87 25 132 87 25 132 87 25 132 87 25 132 87 25 132 87 25 132 87 25 132 87 25 132 87 25 132 87 25 132 87 25 132 87 25 132 87 25 132 87 25 132 87 25 132 87 25 132 87 25 132 87 25 132 87 25 132 87 25 132 87 25 132 87 25 132 87 25 132 87 25 132 87 25 132 87 25 132 87 25 132 87 25 132 87 25 132 87 25 132 87 25 132 87 25 132 87 25 132 87 25 132 87 25 132 87 25 132 87 25 132 87 25 132 87 25 132 87 25 132 87 25 132 87 25 132 87 25 132 87 25 132 87 25 132 87 25 132 87 25 132 87 25 132 87 25 132 87 25 132 87 25 132 87 25 132 87 25 132 87 25 132 87 25 132 87 25 132 87 25 132 87 25 132 87 25 132 87 25 132 87 25 132 87 25 132 87 25 132 87 25 132 87 25 132 87 25 132 87 25 132 87 25 132 87 25 132 87 25 132 87 25 132 87 25 132 87 25 132 87 25 132 87 25 132 87 25 132 87 25 132 87 25 132 87 25 132 87 25 132 87 25 132 87 25 132 87 25 132 87 25 131 87 26 132 88 28 138 89 34 160 100 33 175 104 33 176 104 33 174 104 33 174 104 33 174 104 33 174 104 33 174 104 33 174 104 33 174 104 33 174 104 33 174 104 33 174 104 33 174 104 33 174 104 33 174 104 33 174 104 33 174 104 33 174 104 33 174 104 33 174 104 33 174 104 33 174 104 33 174 104 33 174 104 33 174 104 33 174 104 33 174 104 33 174 104 33 174 104 33 174 104 33 174 104 33 174 104 33 174 104 33 174 104 33 174 104 33 174 104 33 174 104 33 174 104 33 174 104 33 174 104 33 174 104 33 174 104 33 174 104 33 174 104 33 174 104 33 174 104 33 174 104 33 174 104 33 174 104 33 174 104 33 174 104 33 174 104 33 174 104 33 174 104 33 174 104 33 174 104 33 174 104 33 174 104 33 174 104 33 174 104 33 174 104 33 174 104 33 174 104 33 174 104 33 174 104 33 174 104 33 174 104 33 174 104 33 174 104 33 174 104 33 174 104 33 174 104 34 173 104 31 175 104 31 177 104 36 175 107 64 142 114 95 112 124 88 102 117 85 98 114 85 101 116 86 102 116 86 101 116 86 101 116 86 101 116 86 101 116 86 101 116 87 101 116 81 96 110 104 117 130 34 52 45 0 0 1 1 1 1
0 0 0 0 1 1 4 4 4 49 121 98 34 178 106 31 169 101 33 174 104 33 174 104 33 174 104 33 174 104 33 174 104 33 174 104 33 174 104 33 174 104 33 174 104 33 174 104 33 174 104 33 174 104 33 174 104 33 174 104 33 174 104 33 174 104 33 174 104 33 174 104 33 174 104 33 174 104 33 174 104 33 174 104 33 174 104 33 174 104 33 174 104 33 174 104 33 174 104 33 174 104 33 174 104 33 174 104 33 174 104 33 174 104 33 174 104 33 174 104 33 174 104 33 174 104 33 174 104 33 174 104 33 174 104 33 173 104 33 177 106 34 160 100 27 134 88 25 132 87 25 132 87 25 132 87 25 132 87 25 132 87 25 132 87 25 132 87 25 132 87 25 132 87 25 132 87 25 132 87 25 132 87 25 132 87 25 132 87 25 132 87 25 132 87 25 132 87 25 132 87 25 132 87 25 132 87 25 132 87 25 132 87 25 132 87 25 132 87 25 132 87 25 132 87 25 132 87 25 132 87 25 132 87 25 132 87 25 132 87 25 132 87 25 132 87 25 132 87 25 132 87 25 132 87 25 132 87 25 132 87 25 132 87 25 132 87 25 132 87 25 132 87 25 132 87 25 132 87 25 132 87 25 132 87 25 132 87 25 132 87 25 132 87 25 132 87 25 132 87 25 132 87 25 132 87 25 132 87 25 132 87 25 132 87 25 132 87 25 132 87 25 132 87 25 132 87 25 132 87 25 132 87 25 132 87 25 132 87 25 132 87 25 132 87 25 132 87 25 132 87 25 132 87 25 132 87 25 132 87 25 132 87 25 132 87 25 132 87 25 132 87 25 132 87 25 132 87 25 132 87 25 132 87 25 132 87 25 132 87 25 132 87 25 132 87 25 132 87 25 132 87 25 132 87 25 132 87 25 131 86 26 132 88 28 146 91 31 169 101 33 176 105 33 175 104 33 173 104 33 174 104 33 174 104 33 174 104 33 174 104 33 174 104 33 174 104 33 174 104 33 174 104 33 174 104 33 174 104 33 174 104 33 174 104 33 174 104 33 174 104 33 174 104 33 174 104 33 174 104 33 174 104 33 174 104 33 174 104 33 174 104 33 174 104 33 174 104 33 174 104 33 174 104 33 174 104 33 174 104 33 174 104 33 174 104 33 174 104 33 174 104 33 174 104 33 174 104 33 174 104 33 174 104 33 174 104 33 174 104 33 174 104 33 174 104 33 174 104 33 174 104 33 174 104 33 174 104 33 174 104 33 174 104 33 174 104 33 174 104 33 174 104 33 174 104 33 174 104 33 174 104 33 174 104 33 174 104 33 174 104 33 174 104 33 174 104 33 174 104 33 174 104 33 174 104 33 174 104 33 174 104 33 174 104 33 174 104 33 174 104 33 174 104 33 174 104 33 174 104 33 174 104 33 174 104 33 173 104 31 175 104 31 177 104 36 175 107 64 142 114 95 112 124 88 99 116 88 99 116 85 101 116 86 101 116 86 101 116 86 101 116 86 101 116 86 100 115 88 104 119 93 99 110 13 18 16 0 0 0 1 1 1
0 0 0 1 2 2 0 0 0 34 52 45 36 175 107 33 173 102 33 173 104 33 174 104 33 174 104 33 174 104 33 174 104 33 174 104 33 174 104 33 174 104 33 174 104 33 174 104 33 174 104 33 174 104 33 174 104 33 174 104 33 174 104 33 174 104 33 174 104 33 174 104 33 174 104 33 174 104 33 174 104 33 174 104 33 174 104 33 174 104 33 174 104 33 174 104 33 174 104 33 174 104 33 174 104 33 174 104 33 174 104 33 174 104 33 174 104 33 174 104 33 174 104 33 174 104 33 174 104 33 174 104 33 174 104 33 173 104 33 176 105 31 148 95 25 129 86 25 133 87 25 132 87 25 132 87 25 132 87 25 132 87 25 132 87 25 132 87 25 132 87 25 132 87 25 132 87 25 132 87 25 132 87 25 132 87 25 132 87 25 132 87 25 132 87 25 132 87 25 132 87 25 132 87 25 132 87 25 132 87 25 132 87 25 132 87 25 132 87 25 132 87 25 132 87 25 132 87 25 132 87 25 132 87 25 132 87 25 132 87 25 132 87 25 132 87 25 132 87 25 132 87 25 132 87 25 132 87 25 132 87 25 132 87 25 132 87 25 132 87 25 132 87 25 132 87 25 132 87 25 132 87 25 132 87 25 132 87 25 132 87 25 132 87 25 132 87 25 132 87 25 132 87 25 132 87 25 132 87 25 132 87 25 132 87 25 132 87 25 132 87 25 132 87 25 132 87 25 132 87 25 132 87 25 132 87 25 132 87 25 132 87 25 132 87 25 132 87 25 132 87 25 132 87 25 132 87 25 132 87 25 132 87 25 132 87 25 132 87 25 132 87 25 132 87 25 132 87 25 132 87 25 132 87 25 132 87 25 132 87 25 132 87 25 132 87 25 132 87 25 132 87 25 132 87 25 132 87 25 132 87 25 132 87 25 131 86 27 134 88 31 148 95 33 170 103 33 176 105 33 174 104 33 174 104 33 174 104 33 174 104 33 174 104 33 174 104 33 174 104 33 174 104 33 174 104 33 174 104 33 174 104 33 174 104 33 174 104 33 174 104 33 174 104 33 174 104 33 174 104 33 174 104 33 174 104 33 174 104 33 174 104 33 174 104 33 174 104 33 174 104 33 174 104 33 174 104 33 174 104 33 174 104 33 174 104 33 174 104 33 174 104 33 174 104 33 174 104 33 174 104 33 174 104 33 174 104 33 174 104 33 174 104 33 174 104 33 174 104 33 174 104 33 174 104 33 174 104 33 174 104 33 174 104 33 174 104 33 174 104 33 174 104 33 174 104 33 174 104 33 174 104 33 174 104 33 174 104 33 174 104 33 174 104 33 174 104 33 174 104 33 174 104 33 174 104 33 174 104 33 174 104 33 174 104 33 174 104 33 174 104 33 174 104 33 174 104 33 174 104 33 174 104 33 174 104 33 174 104 33 174 104 34 173 104 31 175 104 31 177 104 36 175 107 64 142 114 94 109 123 88 99 116 85 100 115 85 102 116 86 101 116 86 101 116 82 98 113 99 113 127 63 66 68 0 0 0 2 3 3 0 0 0
0 0 0 0 0 0 0 1 1 0 0 0 22 113 71 34 178 106 33 172 102 33 174 104 33 174 104 33 174 104 33 174 104 33 174 104 33 174 104 33 174 104 33 174 104 33 174 104 33 174 104 33 174 104 33 174 104 33 174 104 33 174 104 33 174 104 33 174 104 33 174 104 33 174 104 33 174 104 33 174 104 33 174 104 33 174 104 33 174 104 33 174 104 33 174 104 33 174 104 33 174 104 33 174 104 33 174 104 33 174 104 33 174 104 33 174 104 33 174 104 33 174 104 33 174 104 33 174 104 33 174 104 33 174 104 33 175 105 31 169 101 28 138 89 26 132 88 25 132 87 25 132 87 25 132 87 25 132 87 25 132 87 25 132 87 25 132 87 25 132 87 25 132 87 25 132 87 25 132 87 25 132 87 25 132 87 25 132 87 25 132 87 25 132 87 25 132 87 25 132 87 25 132 87 25 132 87 25 132 87 25 132 87 25 132 87 25 132 87 25 132 87 25 132 87 25 132 87 25 132 87 25 132 87 25 132 87 25 132 87 25 132 87 25 132 87 25 132 87 25 132 87 25 132 87 25 132 87 25 132 87 25 132 87 25 132 87 25 132 87 25 132 87 25 132 87 25 132 87 25 132 87 25 132 87 25 132 87 25 132 87 25 132 87 25 132 87 25 132 87 25 132 87 25 132 87 25 132 87 25 132 87 25 132 87 25 132 87 25 132 87 25 132 87 25 132 87 25 132 87 25 132 87 25 132 87 25 132 87 25 132 87 25 132 87 25 132 87 25 132 87 25 132 87 25 132 87 25 132 87 25 132 87 25 132 87 25 132 87 25 132 87 25 132 87 25 132 87 25 132 87 25 132 87 25 132 87 25 132 87 25 132 87 25 132 87 25 132 87 25 132 87 25 132 87 25 132 87 25 132 87 25 132 87 25 132 87 25 132 87 25 131 87 28 138 89 34 160 100 33 176 105 33 175 105 33 173 104 33 174 104 33 174 104 33 174 104 33 174 104 33 174 104 33 174 104 33 174 104 33 174 104 33 174 104 33 174 104 33 174 104 33 174 104 33 174 104 33 174 104 33 174 104 33 174 104 33 174 104 33 174 104 33 174 104 33 174 104 33 174 104 33 174 104 33 174 104 33 174 104 33 174 104 33 174 104 33 174 104 33 174 104 33 174 104 33 174 104 33 174 104 33 174 104 33 174 104 33 174 104 33 174 104 33 174 104 33 174 104 33 174 104 33 174 104 33 174 104 33 174 104 33 174 104 33 174 104 33 174 104 33 174 104 33 174 104 33 174 104 33 174 104 33 174 104 33 174 104 33 174 104 33 174 104 33 174 104 33 174 104 33 174 104 33 174 104 33 174 104 33 174 104 33 174 104 33 174 104 33 174 104 33 174 104 33 174 104 33 174 104 33 174 104 33 174 104 33 174 104 33 174 104 33 174 104 33 174 104 33 173 104 31 175 104 31 177 104 36 175 107 64 142 114 94 109 123 88 99 116 86 100 115 85 100 114 86 103 118 97 104 112 9 10 10 0 0 0 0 1 1 0 0 0
0 0 0 0 0 0 0 1 1 0 0 0 21 29 25 31 169 101 33 175 105 33 173 102 33 174 104 33 174 104 33 174 104 33 174 104 33 174 104 33 174 104 33 174 104 33 174 104 33 174 104 33 174 104 33 174 104 33 174 104 33 174 104 33 174 104 33 174 104 33 174 104 33 174 104 33 174 104 33 174 104 33 174 104 33 174 104 33 174 104 33 174 104 33 174 104 33 174 104 33 174 104 33 174 104 33 174 104 33 174 104 33 174 104 33 174 104 33 174 104 33 174 104 33 174 104 33 174 104 33 174 104 33 174 104 33 176 105 34 160 100 25 131 87 25 132 87 25 132 87 25 132 87 25 132 87 25 132 87 25 132 87 25 132 87 25 132 87 25 132 87 25 132 87 25 132 87 25 132 87 25 132 87 25 132 87 25 132 87 25 132 87 25 132 87 25 132 87 25 132 87 25 132 87 25 132 87 25 132 87 25 132 87 25 132 87 25 132 87 25 132 87 25 132 87 25 132 87 25 132 87 25 132 87 25 132 87 25 132 87 25 132 87 25 132 87 25 132 87 25 132 87 25 132 87 25 132 87 25 132 87 25 132 87 25 132 87 25 132 87 25 132 87 25 132 87 25 132 87 25 132 87 25 132 87 25 132 87 25 132 87 25 132 87 25 132 87 25 132 87 25 132 87 25 132 87 25 132 87 25 132 87 25 132 87 25 132 87 25 132 87 25 132 87 25 132 87 25 132 87 25 132 87 25 132 87 25 132 87 25 132 87 25 132 87 25 132 87 25 132 87 25 132 87 25 132 87 25 132 87 25 132 87 25 132 87 25 132 87 25 132 87 25 132 87 25 132 87 25 132 87 25 132 87 25 132 87 25 132 87 25 132 87 25 132 87 25 132 87 25 132 87 25 132 87 25 132 87 25 132 87 25 132 87 25 132 87 25 132 87 25 132 87 25 129 86 26 132 88 31 148 95 31 169 101 34 175 105 33 174 104 33 174 104 33 174 104 33 174 104 33 174 104 33 174 104 33 174 104 33 174 104 33 174 104 33 174 104 33 174 104 33 174 104 33 174 104 33 174 104 33 174 104 33 174 104 33 174 104 33 174 104 33 174 104 33 174 104 33 174 104 33 174 104 33 174 104 33 174 104 33 174 104 33 174 104 33 174 104 33 174 104 33 174 104 33 174 104 33 174 104 33 174 104 33 174 104 33 174 104 33 174 104 33 174 104 33 174 104 33 174 104 33 174 104 33 174 104 33 174 104 33 174 104 33 174 104 33 174 104 33 174 104 33 174 104 33 174 104 33 174 104 33 174 104 33 174 104 33 174 104 33 174 104 33 174 104 33 174 104 33 174 104 33 174 104 33 174 104 33 174 104 33 174 104 33 174 104 33 174 104 33 174 104 33 174 104 33 174 104 33 174 104 33 174 104 33 174 104 33 174 104 33 174 104 33 174 104 33 174 104 33 174 104 34 173 104 31 175 104 31 177 104 46 151 105 70 121 110 89 104 118 83 96 111 104 117 130 34 52 45 0 0 0 1 1 1 0 0 0 0 0 0
0 0 0 0 0 0 0 0 0 0 1 1 0 0 0 22 113 71 34 178 106 33 172 104 33 174 104 33 174 104 33 174 104 33 174 104 33 174 104 33 174 104 33 174 104 33 174 104 33 174 104 33 174 104 33 174 104 33 174 104 33 174 104 33 174 104 33 174 104 33 174 104 33 174 104 33 174 104 33 174 104 33 174 104 33 174 104 33 174 104 33 174 104 33 174 104 33 174 104 33 174 104 33 174 104 33 174 104 33 174 104 33 174 104 33 174 104 33 174 104 33 174 104 33 174 104 33 174 104 33 174 104 33 174 104 33 175 104 28 146 91 26 132 88 25 132 87 25 132 87 25 132 87 25 132 87 25 132 87 25 132 87 25 132 87 25 132 87 25 132 87 25 132 87 25 132 87 25 132 87 25 132 87 25 132 87 25 132 87 25 132 87 25 132 87 25 132 87 25 132 87 25 132 87 25 132 87 25 132 87 25 132 87 25 132 87 25 132 87 25 132 87 25 132 87 25 132 87 25 132 87 25 132 87 25 132 87 25 132 87 25 132 87 25 132 87 25 132 87 25 132 87 25 132 87 25 132 87 25 132 87 25 132 87 25 132 87 25 132 87 25 132 87 25 132 87 25 132 87 25 132 87 25 132 87 25 132 87 25 132 87 25 132 87 25 132 87 25 132 87 25 132 87 25 132 87 25 132 87 25 132 87 25 132 87 25 132 87 25 132 87 25 132 87 25 132 87 25 132 87 25 132 87 25 132 87 25 132 87 25 132 87 25 132 87 25 132 87 25 132 87 25 132 87 25 132 87 25 132 87 25 132 87 25 132 87 25 132 87 25 132 87 25 132 87 25 132 87 25 132 87 25 132 87 25 132 87 25 132 87 25 132 87 25 132 87 25 132 87 25 132 87 25 132 87 25 132 87 25 132 87 25 132 87 25 132 87 25 132 87 25 132 87 25 132 87 25 132 87 25 129 86 25 132 87 31 148 95 33 174 105 33 176 105 33 174 104 33 174 104 33 174 104 33 174 104 33 174 104 33 174 104 33 174 104 33 174 104 33 174 104 33 174 104 33 174 104 33 174 104 33 174 104 33 174 104 33 174 104 33 174 104 33 174 104 33 174 104 33 174 104 33 174 104 33 174 104 33 174 104 33 174 104 33 174 104 33 174 104 33 174 104 33 174 104 33 174 104 33 174 104 33 174 104 33 174 104 33 174 104 33 174 104 33 174 104 33 174 104 33 174 104 33 174 104 33 174 104 33 174 104 33 174 104 33 174 104 33 174 104 33 174 104 33 174 104 33 174 104 33 174 104 33 174 104 33 174 104 33 174 104 33 174 104 33 174 104 33 174 104 33 174 104 33 174 104 33 174 104 33 174 104 33 174 104 33 174 104 33 174 104 33 174 104 33 174 104 33 174 104 33 174 104 33 174 104 33 174 104 33 174 104 33 174 104 33 174 104 33 174 104 33 174 104 33 174 104 34 173 104 33 174 104 31 175 104 31 177 104 46 151 105 70 121 110 78 92 108 4 4 4 1 2 2 0 0 0 0 0 0 0 0 0
0 0 0 0 0 0 0 0 0 0 1 1 0 1 1 9 10 10 28 146 91 34 178 106 33 173 102 33 174 104 33 174 104 33 174 104 33 174 104 33 174 104 33 174 104 33 174 104 33 174 104 33 174 104 33 174 104 33 174 104 33 174 104 33 174 104 33 174 104 33 174 104 33 174 104 33 174 104 33 174 104 33 174 104 33 174 104 33 174 104 33 174 104 33 174 104 33 174 104 33 174 104 33 174 104 33 174 104 33 174 104 33 174 104 33 174 104 33 174 104 33 174 104 33 174 104 33 174 104 33 174 104 33 175 104 34 170 103 27 134 88 25 131 87 25 132 87 25 132 87 25 132 87 25 132 87 25 132 87 25 132 87 25 132 87 25 132 87 25 132 87 25 132 87 25 132 87 25 132 87 25 132 87 25 132 87 25 132 87 25 132 87 25 132 87 25 132 87 25 132 87 25 132 87 25 132 87 25 132 87 25 132 87 25 132 87 25 132 87 25 132 87 25 132 87 25 132 87 25 132 87 25 132 87 25 132 87 25 132 87 25 132 87 25 132 87 25 132 87 25 132 87 25 132 87 25 132 87 25 132 87 25 132 87 25 132 87 25 132 87 25 132 87 25 132 87 25 132 87 25 132 87 25 132 87 25 132 87 25 132 87 25 132 87 25 132 87 25 132 87 25 132 87 25 132 87 25 132 87 25 132 87 25 132 87 25 132 87 25 132 87 25 132 87 25 132 87 25 132 87 25 132 87 25 132 87 25 132 87 25 132 87 25 132 87 25 132 87 25 132 87 25 132 87 25 132 87 25 132 87 25 132 87 25 132 87 25 132 87 25 132 87 25 132 87 25 132 87 25 132 87 25 132 87 25 132 87 25 132 87 25 132 87 25 132 87 25 132 87 25 132 87 25 132 87 25 132 87 25 132 87 25 132 87 25 132 87 25 132 87 25 132 87 25 132 87 25 132 87 25 133 87 25 131 87 25 129 86 28 138 89 34 160 100 33 176 105 33 175 104 33 174 104 33 174 104 33 174 104 33 174 104 33 174 104 33 174 104 33 174 104 33 174 104 33 174 104 33 174 104 33 174 104 33 174 104 33 174 104 33 174 104 33 174 104 33 174 104 33 174 104 33 174 104 33 174 104 33 174 104 33 174 104 33 174 104 33 174 104 33 174 104 33 174 104 33 174 104 33 174 104 33 174 104 33 174 104 33 174 104 33 174 104 33 174 104 33 174 104 33 174 104 33 174 104 33 174 104 33 174 104 33 174 104 33 174 104 33 174 104 33 174 104 33 174 104 33 174 104 33 174 104 33 174 104 33 174 104 33 174 104 33 174 104 33 174 104 33 174 104 33 174 104 33 174 104 33 174 104 33 174 104 33 174 104 33 174 104 33 174 104 33 174 104 33 174 104 33 174 104 33 174 104 33 174 104 33 174 104 33 174 104 33 174 104 33 174 104 33 174 104 33 174 104 33 174 104 33 174 104 33 174 104 33 174 104 33 172 104 30 179 104 81 171 134 34 52 45 0 0 0 1 2 2 0 0 0 0 0 0 0 0 0
0 0 0 0 0 0 0 0 0 0 0 0 0 2 1 0 0 0 34 52 45 33 175 105 33 174 102 33 173 104 33 174 104 33 174 104 33 174 104 33 174 104 33 174 104 33 174 104 33 174 104 33 174 104 33 174 104 33 174 104 33 174 104 33 174 104 33 174 104 33 174 104 33 174 104 33 174 104 33 174 104 33 174 104 33 174 104 33 174 104 33 174 104 33 174 104 33 174 104 33 174 104 33 174 104 33 174 104 33 174 104 33 174 104 33 174 104 33 174 104 33 174 104 33 174 104 33 174 104 33 173 104 34 175 105 31 148 95 25 129 86 25 133 87 25 132 87 25 132 87 25 132 87 25 132 87 25 132 87 25 132 87 25 132 87 25 132 87 25 132 87 25 132 87 25 132 87 25 132 87 25 132 87 25 132 87 25 132 87 25 132 87 25 132 87 25 132 87 25 132 87 25 132 87 25 132 87 25 132 87 25 132 87 25 132 87 25 132 87 25 132 87 25 132 87 25 132 87 25 132 87 25 132 87 25 132 87 25 132 87 25 132 87 25 132 87 25 132 87 25 132 87 25 132 87 25 132 87 25 132 87 25 132 87 25 132 87 25 132 87 25 132 87 25 132 87 25 132 87 25 132 87 25 132 87 25 132 87 25 132 87 25 132 87 25 132 87 25 132 87 25 132 87 25 132 87 25 132 87 25 132 87 25 132 87 25 132 87 25 132 87 25 132 87 25 132 87 25 132 87 25 132 87 25 132 87 25 132 87 25 132 87 25 132 87 25 132 87 25 132 87 25 132 87 25 132 87 25 132 87 25 132 87 25 132 87 25 132 87 25 132 87 25 132 87 25 132 87 25 132 87 25 132 87 25 132 87 25 132 87 25 132 87 25 132 87 25 132 87 25 132 87 25 132 87 25 132 87 25 132 87 25 132 87 25 132 87 25 132 87 25 132 87 25 132 87 25 132 87 25 132 87 25 132 87 25 132 87 25 129 86 25 131 86 28 146 91 33 170 103 33 176 105 33 174 104 33 173 104 33 174 104 33 174 104 33 174 104 33 174 104 33 174 104 33 174 104 33 174 104 33 174 104 33 174 104 33 174 104 33 174 104 33 174 104 33 174 104 33 174 104 33 174 104 33 174 104 33 174 104 33 174 104 33 174 104 33 174 104 33 174 104 33 174 104 33 174 104 33 174 104 33 174 104 33 174 104 33 174 104 33 174 104 33 174 104 33 174 104 33 174 104 33 174 104 33 174 104 33 174 104 33 174 104 33 174 104 33 174 104 33 174 104 33 174 104 33 174 104 33 174 104 33 174 104 33 174 104 33 174 104 33 174 104 33 174 104 33 174 104 33 174 104 33 174 104 33 174 104 33 174 104 33 174 104 33 174 104 33 174 104 33 174 104 33 174 104 33 174 104 33 174 104 33 174 104 33 174 104 33 174 104 33 174 104 33 174 104 33 174 104 33 174 104 33 174 104 33 174 104 33 174 104 33 174 104 33 173 102 34 175 105 53 77 69 0 0 0 1 2 2 0 0 0 0 0 0 0 0 0 0 0 0
0 0 0 0 0 0 0 0 0 0 0 0 0 0 0 0 2 1 0 0 0 22 113 71 34 178 106 33 172 104 33 174 104 33 174 104 33 174 104 33 174 104 33 174 104 33 174 104 33 174 104 33 174 104 33 174 104 33 174 104 33 174 104 33 174 104 33 174 104 33 174 104 33 174 104 33 174 104 33 174 104 33 174 104 33 174 104 33 174 104 33 174 104 33 174 104 33 174 104 33 174 104 33 174 104 33 174 104 33 174 104 33 174 104 33 174 104 33 174 104 33 174 104 33 174 104 33 174 104 33 175 104 33 170 103 28 138 89 25 131 87 25 132 87 25 132 87 25 132 87 25 132 87 25 132 87 25 132 87 25 132 87 25 132 87 25 132 87 25 132 87 25 132 87 25 132 87 25 132 87 25 132 87 25 132 87 25 132 87 25 132 87 25 132 87 25 132 87 25 132 87 25 132 87 25 132 87 25 132 87 25 132 87 25 132 87 25 132 87 25 132 87 25 132 87 25 132 87 25 132 87 25 132 87 25 132 87 25 132 87 25 132 87 25 132 87 25 132 87 25 132 87 25 132 87 25 132 87 25 132 87 25 132 87 25 132 87 25 132 87 25 132 87 25 132 87 25 132 87 25 132 87 25 132 87 25 132 87 25 132 87 25 132 87 25 132 87 25 132 87 25 132 87 25 132 87 25 132 87 25 132 87 25 132 87 25 132 87 25 132 87 25 132 87 25 132 87 25 132 87 25 132 87 25 132 87 25 132 87 25 132 87 25 132 87 25 132 87 25 132 87 25 132 87 25 132 87 25 132 87 25 132 87 25 132 87 25 132 87 25 132 87 25 132 87 25 132 87 25 132 87 25 132 87 25 132 87 25 132 87 25 132 87 25 132 87 25 132 87 25 132 87 25 132 87 25 132 87 25 132 87 25 132 87 25 132 87 25 132 87 25 132 87 25 132 87 25 132 87 25 132 87 25 132 87 25 132 87 25 132 87 25 132 87 25 129 86 27 134 88 31 157 95 33 176 105 33 175 105 33 173 104 33 174 104 33 174 104 33 174 104 33 174 104 33 174 104 33 174 104 33 174 104 33 174 104 33 174 104 33 174 104 33 174 104 33 174 104 33 174 104 33 174 104 33 174 104 33 174 104 33 174 104 33 174 104 33 174 104 33 174 104 33 174 104 33 174 104 33 174 104 33 174 104 33 174 104 33 174 104 33 174 104 33 174 104 33 174 104 33 174 104 33 174 104 33 174 104 33 174 104 33 174 104 33 174 104 33 174 104 33 174 104 33 174 104 33 174 104 33 174 104 33 174 104 33 174 104 33 174 104 33 174 104 33 174 104 33 174 104 33 174 104 33 174 104 33 174 104 33 174 104 33 174 104 33 174 104 33 174 104 33 174 104 33 174 104 33 174 104 33 174 104 33 174 104 33 174 104 33 174 104 33 174 104 33 174 104 33 174 104 33 174 104 33 174 104 33 174 104 33 174 104 33 170 103 34 178 106 22 113 71 0 0 0 1 1 1 0 0 0 0 0 0 0 0 0 0 0 0 0 0 0
0 0 0 0 0 0 0 0 0 0 0 0 0 0 0 0 1 1 0 1 1 9 10 10 28 138 89 34 178 106 33 172 102 33 174 104 33 174 104 33 174 104 33 174 104 33 174 104 33 174 104 33 174 104 33 174 104 33 174 104 33 174 104 33 174 104 33 174 104 33 174 104 33 174 104 33 174 104 33 174 104 33 174 104 33 174 104 33 174 104 33 174 104 33 174 104 33 174 104 33 174 104 33 174 104 33 174 104 33 174 104 33 174 104 33 174 104 33 174 104 33 174 104 33 174 104 33 173 104 33 176 105 34 160 100 25 129 86 25 133 87 25 132 87 25 132 87 25 132 87 25 132 87 25 132 87 25 132 87 25 132 87 25 132 87 25 132 87 25 132 87 25 132 87 25 132 87 25 132 87 25 132 87 25 132 87 25 132 87 25 132 87 25 132 87 25 132 87 25 132 87 25 132 87 25 132 87 25 132 87 25 132 87 25 132 87 25 132 87 25 132 87 25 132 87 25 132 87 25 132 87 25 132 87 25 132 87 25 132 87 25 132 87 25 132 87 25 132 87 25 132 87 25 132 87 25 132 87 25 132 87 25 132 87 25 132 87 25 132 87 25 132 87 25 132 87 25 132 87 25 132 87 25 132 87 25 132 87 25 132 87 25 132 87 25 132 87 25 132 87 25 132 87 25 132 87 25 132 87 25 132 87 25 132 87 25 132 87 25 132 87 25 132 87 25 132 87 25 132 87 25 132 87 25 132 87 25 132 87 25 132 87 25 132 87 25 132 87 25 132 87 25 132 87 25 132 87 25 132 87 25 132 87 25 132 87 25 132 87 25 132 87 25 132 87 25 132 87 25 132 87 25 132 87 25 132 87 25 132 87 25 132 87 25 132 87 25 132 87 25 132 87 25 132 87 25 132 87 25 132 87 25 132 87 25 132 87 25 132 87 25 132 87 25 132 87 25 132 87 25 132 87 25 132 87 25 132 87 25 132 87 25 132 87 25 133 87 25 131 87 25 129 86 28 146 91 31 169 101 34 178 106 33 174 104 33 173 104 33 174 104 33 174 104 33 174 104 33 174 104 33 174 104 33 174 104 33 174 104 33 174 104 33 174 104 33 174 104 33 174 104 33 174 104 33 174 104 33 174 104 33 174 104 33 174 104 33 174 104 33 174 104 33 174 104 33 174 104 33 174 104 33 174 104 33 174 104 33 174 104 33 174 104 33 174 104 33 174 104 33 174 104 33 174 104 33 174 104 33 174 104 33 174 104 33 174 104 33 174 104 33 174 104 33 174 104 33 174 104 33 174 104 33 174 104 33 174 104 33 174 104 33 174 104 33 174 104 33 174 104 33 174 104 33 174 104 33 174 104 33 174 104 33 174 104 33 174 104 33 174 104 33 174 104 33 174 104 33 174 104 33 174 104 33 174 104 33 174 104 33 174 104 33 174 104 33 174 104 33 174 104 33 174 104 33 174 104 33 174 104 33 172 102 34 178 106 31 148 95 13 18 16 1 2 2 0 1 1 0 0 0 0 0 0 0 0 0 0 0 0 0 0 0
0 0 0 0 0 0 0 0 0 0 0 0 0 0 0 0 0 0 0 2 1 0 0 0 21 29 25 31 157 95 34 178 106 33 170 103 33 174 104 33 174 104 33 174 104 33 174 104 33 174 104 33 174 104 33 174 104 33 174 104 33 174 104 33 174 104 33 174 104 33 174 104 33 174 104 33 174 104 33 174 104 33 174 104 33 174 104 33 174 104 33 174 104 33 174 104 33 174 104 33 174 104 33 174 104 33 174 104 33 174 104 33 174 104 33 174 104 33 174 104 33 174 104 33 174 104 33 174 104 33 175 104 31 148 95 25 129 86 25 133 87 25 132 87 25 132 87 25 132 87 25 132 87 25 132 87 25 132 87 25 132 87 25 132 87 25 132 87 25 132 87 25 132 87 25 132 87 25 132 87 25 132 87 25 132 87 25 132 87 25 132 87 25 132 87 25 132 87 25 132 87 25 132 87 25 132 87 25 132 87 25 132 87 25 132 87 25 132 87 25 132 87 25 132 87 25 132 87 25 132 87 25 132 87 25 132 87 25 132 87 25 132 87 25 132 87 25 132 87 25 132 87 25 132 87 25 132 87 25 132 87 25 132 87 25 132 87 25 132 87 25 132 87 25 132 87 25 132 87 25 132 87 25 132 87 25 132 87 25 132 87 25 132 87 25 132 87 25 132 87 25 132 87 25 132 87 25 132 87 25 132 87 25 132 87 25 132 87 25 132 87 25 132 87 25 132 87 25 132 87 25 132 87 25 132 87 25 132 87 25 132 87 25 132 87 25 132 87 25 132 87 25 132 87 25 132 87 25 132 87 25 132 87 25 132 87 25 132 87 25 132 87 25 132 87 25 132 87 25 132 87 25 132 87 25 132 87 25 132 87 25 132 87 25 132 87 25 132 87 25 132 87 25 132 87 25 132 87 25 132 87 25 132 87 25 132 87 25 132 87 25 132 87 25 132 87 25 132 87 25 132 87 25 132 87 25 132 87 25 132 87 25 132 87 25 132 87 25 132 87 25 133 87 25 129 86 25 131 86 31 157 95 33 172 104 33 176 105 33 173 104 33 174 104 33 174 104 33 174 104 33 174 104 33 174 104 33 174 104 33 174 104 33 174 104 33 174 104 33 174 104 33 174 104 33 174 104 33 174 104 33 174 104 33 174 104 33 174 104 33 174 104 33 174 104 33 174 104 33 174 104 33 174 104 33 174 104 33 174 104 33 174 104 33 174 104 33 174 104 33 174 104 33 174 104 33 174 104 33 174 104 33 174 104 33 174 104 33 174 104 33 174 104 33 174 104 33 174 104 33 174 104 33 174 104 33 174 104 33 174 104 33 174 104 33 174 104 33 174 104 33 174 104 33 174 104 33 174 104 33 174 104 33 174 104 33 174 104 33 174 104 33 174 104 33 174 104 33 174 104 33 174 104 33 174 104 33 174 104 33 174 104 33 174 104 33 174 104 33 174 104 33 174 104 33 174 104 33 172 104 33 177 106 31 169 101 21 29 25 0 0 0 0 1 1 0 0 0 0 0 0 0 0 0 0 0 0 0 0 0 0 0 0
0 0 0 0 0 0 0 0 0 0 0 0 0 0 0 0 0 0 0 0 0 0 2 1 0 0 0 34 52 45 33 172 102 33 175 105 33 172 102 33 174 104 33 174 104 33 174 104 33 174 104 33 174 104 33 174 104 33 174 104 33 174 104 33 174 104 33 174 104 33 174 104 33 174 104 33 174 104 33 174 104 33 174 104 33 174 104 33 174 104 33 174 104 33 174 104 33 174 104 33 174 104 33 174 104 33 174 104 33 174 104 33 174 104 33 174 104 33 174 104 33 174 104 33 174 104 33 174 104 33 170 103 25 133 87 25 132 87 25 132 87 25 132 87 25 132 87 25 132 87 25 132 87 25 132 87 25 132 87 25 132 87 25 132 87 25 132 87 25 132 87 25 132 87 25 132 87 25 132 87 25 132 87 25 132 87 25 132 87 25 132 87 25 132 87 25 132 87 25 132 87 25 132 87 25 132 87 25 132 87 25 132 87 25 132 87 25 132 87 25 132 87 25 132 87 25 132 87 25 132 87 25 132 87 25 132 87 25 132 87 25 132 87 25 132 87 25 132 87 25 132 87 25 132 87 25 132 87 25 132 87 25 132 87 25 132 87 25 132 87 25 132 87 25 132 87 25 132 87 25 132 87 25 132 87 25 132 87 25 132 87 25 132 87 25 132 87 25 132 87 25 132 87 25 132 87 25 132 87 25 132 87 25 132 87 25 132 87 25 132 87 25 132 87 25 132 87 25 132 87 25 132 87 25 132 87 25 132 87 25 132 87 25 132 87 25 132 87 25 132 87 25 132 87 25 132 87 25 132 87 25 132 87 25 132 87 25 132 87 25 132 87 25 132 87 25 132 87 25 132 87 25 132 87 25 132 87 25 132 87 25 132 87 25 132 87 25 132 87 25 132 87 25 132 87 25 132 87 25 132 87 25 132 87 25 132 87 25 132 87 25 132 87 25 132 87 25 132 87 25 132 87 25 132 87 25 132 87 25 132 87 25 132 87 25 132 87 25 132 87 25 132 87 25 133 87 25 132 87 25 129 86 28 138 89 34 160 100 34 175 105 33 175 104 33 174 104 33 174 104 33 174 104 33 174 104 33 174 104 33 174 104 33 174 104 33 174 104 33 174 104 33 174 104 33 174 104 33 174 104 33 174 104 33 174 104 33 174 104 33 174 104 33 174 104 33 174 104 33 174 104 33 174 104 33 174 104 33 174 104 33 174 104 33 174 104 33 174 104 33 174 104 33 174 104 33 174 104 33 174 104 33 174 104 33 174 104 33 174 104 33 174 104 33 174 104 33 174 104 33 174 104 33 174 104 33 174 104 33 174 104 33 174 104 33 174 104 33 174 104 33 174 104 33 174 104 33 174 104 33 174 104 33 174 104 33 174 104 33 174 104 33 174 104 33 174 104 33 174 104 33 174 104 33 174 104 33 174 104 33 174 104 33 174 104 33 174 104 33 174 104 33 174 104 33 173 102 33 174 104 33 176 106 34 52 45 0 0 0 0 2 1 0 0 0 0 0 0 0 0 0 0 0 0 0 0 0 0 0 0 0 0 0
0 0 0 0 0 0 0 0 0 0 0 0 0 0 0 0 0 0 0 0 0 0 0 0 0 2 1 0 0 0 34 52 45 34 178 106 33 175 104 33 172 104 33 174 104 33 174 104 33 174 104 33 174 104 33 174 104 33 174 104 33 174 104 33 174 104 33 174 104 33 174 104 33 174 104 33 174 104 33 174 104 33 174 104 33 174 104 33 174 104 33 174 104 33 174 104 33 174 104 33 174 104 33 174 104 33 174 104 33 174 104 33 174 104 33 174 104 33 174 104 33 174 104 33 173 104 34 178 106 31 148 95 25 129 86 25 132 87 25 132 87 25 132 87 25 132 87 25 132 87 25 132 87 25 132 87 25 132 87 25 132 87 25 132 87 25 132 87 25 132 87 25 132 87 25 132 87 25 132 87 25 132 87 25 132 87 25 132 87 25 132 87 25 132 87 25 132 87 25 132 87 25 132 87 25 132 87 25 132 87 25 132 87 25 132 87 25 132 87 25 132 87 25 132 87 25 132 87 25 132 87 25 132 87 25 132 87 25 132 87 25 132 87 25 132 87 25 132 87 25 132 87 25 132 87 25 132 87 25 132 87 25 132 87 25 132 87 25 132 87 25 132 87 25 132 87 25 132 87 25 132 87 25 132 87 25 132 87 25 132 87 25 132 87 25 132 87 25 132 87 25 132 87 25 132 87 25 132 87 25 132 87 25 132 87 25 132 87 25 132 87 25 132 87 25 132 87 25 132 87 25 132 87 25 132 87 25 132 87 25 132 87 25 132 87 25 132 87 25 132 87 25 132 87 25 132 87 25 132 87 25 132 87 25 132 87 25 132 87 25 132 87 25 132 87 25 132 87 25 132 87 25 132 87 25 132 87 25 132 87 25 132 87 25 132 87 25 132 87 25 132 87 25 132 87 25 132 87 25 132 87 25 132 87 25 132 87 25 132 87 25 132 87 25 132 87 25 132 87 25 132 87 25 132 87 25 132 87 25 132 87 25 132 87 25 132 87 25 132 87 25 132 87 25 132 87 25 132 87 25 133 87 25 131 86 25 129 86 31 148 95 33 172 104 33 176 105 33 174 104 33 174 104 33 174 104 33 174 104 33 174 104 33 174 104 33 174 104 33 174 104 33 174 104 33 174 104 33 174 104 33 174 104 33 174 104 33 174 104 33 174 104 33 174 104 33 174 104 33 174 104 33 174 104 33 174 104 33 174 104 33 174 104 33 174 104 33 174 104 33 174 104 33 174 104 33 174 104 33 174 104 33 174 104 33 174 104 33 174 104 33 174 104 33 174 104 33 174 104 33 174 104 33 174 104 33 174 104 33 174 104 33 174 104 33 174 104 33 174 104 33 174 104 33 174 104 33 174 104 33 174 104 33 174 104 33 174 104 33 174 104 33 174 104 33 174 104 33 174 104 33 174 104 33 174 104 33 174 104 33 174 104 33 174 104 33 174 104 33 174 104 33 173 104 33 173 104 34 178 106 22 113 71 0 0 0 0 2 1 0 0 0 0 0 0 0 0 0 0 0 0 0 0 0 0 0 0 0 0 0 0 0 0
0 0 0 0 0 0 0 0 0 0 0 0 0 0 0 0 0 0 0 0 0 0 0 0 0 0 0 0 2 1 0 0 0 34 52 45 33 174 104 33 176 105 33 172 102 33 174 104 33 174 104 33 174 104 33 174 104 33 174 104 33 174 104 33 174 104 33 174 104 33 174 104 33 174 104 33 174 104 33 174 104 33 174 104 33 174 104 33 174 104 33 174 104 33 174 104 33 174 104 33 174 104 33 174 104 33 174 104 33 174 104 33 174 104 33 174 104 33 174 104 33 174 104 33 174 104 33 174 104 28 138 89 25 129 86 25 133 87 25 132 87 25 132 87 25 132 87 25 132 87 25 132 87 25 132 87 25 132 87 25 132 87 25 132 87 25 132 87 25 132 87 25 132 87 25 132 87 25 132 87 25 132 87 25 132 87 25 132 87 25 132 87 25 132 87 25 132 87 25 132 87 25 132 87 25 132 87 25 132 87 25 132 87 25 132 87 25 132 87 25 132 87 25 132 87 25 132 87 25 132 87 25 132 87 25 132 87 25 132 87 25 132 87 25 132 87 25 132 87 25 132 87 25 132 87 25 132 87 25 132 87 25 132 87 25 132 87 25 132 87 25 132 87 25 132 87 25 132 87 25 132 87 25 132 87 25 132 87 25 132 87 25 132 87 25 132 87 25 132 87 25 132 87 25 132 87 25 132 87 25 132 87 25 132 87 25 132 87 25 132 87 25 132 87 25 132 87 25 132 87 25 132 87 25 132 87 25 132 87 25 132 87 25 132 87 25 132 87 25 132 87 25 132 87 25 132 87 25 132 87 25 132 87 25 132 87 25 132 87 25 132 87 25 132 87 25 132 87 25 132 87 25 132 87 25 132 87 25 132 87 25 132 87 25 132 87 25 132 87 25 132 87 25 132 87 25 132 87 25 132 87 25 132 87 25 132 87 25 132 87 25 132 87 25 132 87 25 132 87 25 132 87 25 132 87 25 132 87 25 132 87 25 132 87 25 132 87 25 132 87 25 132 87 25 132 87 25 132 87 25 132 87 25 132 87 25 132 87 25 129 86 25 134 88 31 157 95 33 175 104 33 176 105 33 174 104 33 174 104 33 174 104 33 174 104 33 174 104 33 174 104 33 174 104 33 174 104 33 174 104 33 174 104 33 174 104 33 174 104 33 174 104 33 174 104 33 174 104 33 174 104 33 174 104 33 174 104 33 174 104 33 174 104 33 174 104 33 174 104 33 174 104 33 174 104 33 174 104 33 174 104 33 174 104 33 174 104 33 174 104 33 174 104 33 174 104 33 174 104 33 174 104 33 174 104 33 174 104 33 174 104 33 174 104 33 174 104 33 174 104 33 174 104 33 174 104 33 174 104 33 174 104 33 174 104 33 174 104 33 174 104 33 174 104 33 174 104 33 174 104 33 174 104 33 174 104 33 174 104 33 174 104 33 174 104 33 174 104 33 173 102 33 174 104 34 175 105 22 113 71 0 0 0 0 0 0 0 0 0 0 0 0 0 0 0 0 0 0 0 0 0 0 0 0 0 0 0 0 0 0 0 0 0
0 0 0 0 0 0 0 0 0 0 0 0 0 0 0 0 0 0 0 0 0 0 0 0 0 0 0 0 1 1 0 2 1 0 0 0 34 52 45 33 170 103 33 177 106 33 172 102 33 174 104 33 174 104 33 174 104 33 174 104 33 174 104 33 174 104 33 174 104 33 174 104 33 174 104 33 174 104 33 174 104 33 174 104 33 174 104 33 174 104 33 174 104 33 174 104 33 174 104 33 174 104 33 174 104 33 174 104 33 174 104 33 174 104 33 174 104 33 174 104 33 173 104 34 178 106 34 160 100 25 129 86 25 132 87 25 132 87 25 132 87 25 132 87 25 132 87 25 132 87 25 132 87 25 132 87 25 132 87 25 132 87 25 132 87 25 132 87 25 132 87 25 132 87 25 132 87 25 132 87 25 132 87 25 132 87 25 132 87 25 132 87 25 132 87 25 132 87 25 132 87 25 132 87 25 132 87 25 132 87 25 132 87 25 132 87 25 132 87 25 132 87 25 132 87 25 132 87 25 132 87 25 132 87 25 132 87 25 132 87 25 132 87 25 132 87 25 132 87 25 132 87 25 132 87 25 132 87 25 132 87 25 132 87 25 132 87 25 132 87 25 132 87 25 132 87 25 132 87 25 132 87 25 132 87 25 132 87 25 132 87 25 132 87 25 132 87 25 132 87 25 132 87 25 132 87 25 132 87 25 132 87 25 132 87 25 132 87 25 132 87 25 132 87 25 132 87 25 132 87 25 132 87 25 132 87 25 132 87 25 132 87 25 132 87 25 132 87 25 132 87 25 132 87 25 132 87 25 132 87 25 132 87 25 132 87 25 132 87 25 132 87 25 132 87 25 132 87 25 132 87 25 132 87 25 132 87 25 132 87 25 132 87 25 132 87 25 132 87 25 132 87 25 132 87 25 132 87 25 132 87 25 132 87 25 132 87 25 132 87 25 132 87 25 132 87 25 132 87 25 132 87 25 132 87 25 132 87 25 132 87 25 132 87 25 132 87 25 132 87 25 132 87 25 132 87 25 132 87 25 132 87 25 132 87 25 132 87 25 133 87 25 129 86 25 129 86 28 146 91 31 169 101 33 176 105 33 174 104 33 174 104 33 174 104 33 174 104 33 174 104 33 174 104 33 174 104 33 174 104 33 174 104 33 174 104 33 174 104 33 174 104 33 174 104 33 174 104 33 174 104 33 174 104 33 174 104 33 174 104 33 174 104 33 174 104 33 174 104 33 174 104 33 174 104 33 174 104 33 174 104 33 174 104 33 174 104 33 174 104 33 174 104 33 174 104 33 174 104 33 174 104 33 174 104 33 174 104 33 174 104 33 174 104 33 174 104 33 174 104 33 174 104 33 174 104 33 174 104 33 174 104 33 174 104 33 174 104 33 174 104 33 174 104 33 174 104 33 174 104 33 174 104 33 174 104 33 174 104 33 174 104 33 174 104 33 173 102 33 176 105 33 176 106 34 52 45 0 0 0 0 2 1 0 1 1 0 0 0 0 0 0 0 0 0 0 0 0 0 0 0 0 0 0 0 0 0 0 0 0 0 0 0
0 0 0 0 0 0 0 0 0 0 0 0 0 0 0 0 0 0 0 0 0 0 0 0 0 0 0 0 0 0 0 0 0 0 2 1 0 0 0 34 52 45 34 160 100 34 178 106 33 172 104 33 174 104 33 174 104 33 174 104 33 174 104 33 174 104 33 174 104 33 174 104 33 174 104 33 174 104 33 174 104 33 174 104 33 174 104 33 174 104 33 174 104 33 174 104 33 174 104 33 174 104 33 174 104 33 174 104 33 174 104 33 174 104 33 174 104 33 174 104 33 174 104 33 175 105 31 148 95 25 129 86 25 133 87 25 132 87 25 132 87 25 132 87 25 132 87 25 132 87 25 132 87 25 132 87 25 132 87 25 132 87 25 132 87 25 132 87 25 132 87 25 132 87 25 132 87 25 132 87 25 132 87 25 132 87 25 132 87 25 132 87 25 132 87 25 132 87 25 132 87 25 132 87 25 132 87 25 132 87 25 132 87 25 132 87 25 132 87 25 132 87 25 132 87 25 132 87 25 132 87 25 132 87 25 132 87 25 132 87 25 132 87 25 132 87 25 132 87 25 132 87 25 132 87 25 132 87 25 132 87 25 132 87 25 132 87 25 132 87 25 132 87 25 132 87 25 132 87 25 132 87 25 132 87 25 132 87 25 132 87 25 132 87 25 132 87 25 132 87 25 132 87 25 132 87 25 132 87 25 132 87 25 132 87 25 132 87 25 132 87 25 132 87 25 132 87 25 132 87 25 132 87 25 132 87 25 132 87 25 132 87 25 132 87 25 132 87 25 132 87 25 132 87 25 132 87 25 132 87 25 132 87 25 132 87 25 132 87 25 132 87 25 132 87 25 132 87 25 132 87 25 132 87 25 132 87 25 132 87 25 132 87 25 132 87 25 132 87 25 132 87 25 132 87 25 132 87 25 132 87 25 132 87 25 132 87 25 132 87 25 132 87 25 132 87 25 132 87 25 132 87 25 132 87 25 132 87 25 132 87 25 132 87 25 132 87 25 132 87 25 132 87 25 132 87 25 132 87 25 132 87 25 132 87 25 132 87 25 132 87 25 132 87 25 132 87 25 129 86 25 132 88 31 157 95 33 174 104 33 176 105 33 174 104 33 174 104 33 174 104 33 174 104 33 174 104 33 174 104 33 174 104 33 174 104 33 174 104 33 174 104 33 174 104 33 174 104 33 174 104 33 174 104 33 174 104 33 174 104 33 174 104 33 174 104 33 174 104 33 174 104 33 174 104 33 174 104 33 174 104 33 174 104 33 174 104 33 174 104 33 174 104 33 174 104 33 174 104 33 174 104 33 174 104 33 174 104 33 174 104 33 174 104 33 174 104 33 174 104 33 174 104 33 174 104 33 174 104 33 174 104 33 174 104 33 174 104 33 174 104 33 174 104 33 174 104 33 174 104 33 174 104 33 174 104 33 174 104 33 173 104 33 172 102 34 178 106 31 169 101 34 52 45 0 0 0 0 1 1 0 0 0 0 0 0 0 0 0 0 0 0 0 0 0 0 0 0 0 0 0 0 0 0 0 0 0 0 0 0 0 0 0
0 0 0 0 0 0 0 0 0 0 0 0 0 0 0 0 0 0 0 0 0 0 0 0 0 0 0 0 0 0 0 0 0 0 1 1 0 1 1 0 0 0 21 29 25 28 146 91 34 178 106 33 173 102 33 172 102 33 174 104 33 174 104 33 174 104 33 174 104 33 174 104 33 174 104 33 174 104 33 174 104 33 174 104 33 174 104 33 174 104 33 174 104 33 174 104 33 174 104 33 174 104 33 174 104 33 174 104 33 174 104 33 174 104 33 174 104 33 174 104 33 175 104 33 170 103 25 133 87 25 132 87 25 132 87 25 132 87 25 132 87 25 132 87 25 132 87 25 132 87 25 132 87 25 132 87 25 132 87 25 132 87 25 132 87 25 132 87 25 132 87 25 132 87 25 132 87 25 132 87 25 132 87 25 132 87 25 132 87 25 132 87 25 132 87 25 132 87 25 132 87 25 132 87 25 132 87 25 132 87 25 132 87 25 132 87 25 132 87 25 132 87 25 132 87 25 132 87 25 132 87 25 132 87 25 132 87 25 132 87 25 132 87 25 132 87 25 132 87 25 132 87 25 132 87 25 132 87 25 132 87 25 132 87 25 132 87 25 132 87 25 132 87 25 132 87 25 132 87 25 132 87 25 132 87 25 132 87 25 132 87 25 132 87 25 132 87 25 132 87 25 132 87 25 132 87 25 132 87 25 132 87 25 132 87 25 132 87 25 132 87 25 132 87 25 132 87 25 132 87 25 132 87 25 132 87 25 132 87 25 132 87 25 132 87 25 132 87 25 132 87 25 132 87 25 132 87 25 132 87 25 132 87 25 132 87 25 132 87 25 132 87 25 132 87 25 132 87 25 132 87 25 132 87 25 132 87 25 132 87 25 132 87 25 132 87 25 132 87 25 132 87 25 132 87 25 132 87 25 132 87 25 132 87 25 132 87 25 132 87 25 132 87 25 132 87 25 132 87 25 132 87 25 132 87 25 132 87 25 132 87 25 132 87 25 132 87 25 132 87 25 132 87 25 132 87 25 132 87 25 132 87 25 132 87 25 132 87 25 132 87 25 132 87 25 132 87 25 133 87 25 132 87 25 129 86 28 138 89 31 169 101 33 176 105 33 174 104 33 173 104 33 174 104 33 174 104 33 174 104 33 174 104 33 174 104 33 174 104 33 174 104 33 174 104 33 174 104 33 174 104 33 174 104 33 174 104 33 174 104 33 174 104 33 174 104 33 174 104 33 174 104 33 174 104 33 174 104 33 174 104 33 174 104 33 174 104 33 174 104 33 174 104 33 174 104 33 174 104 33 174 104 33 174 104 33 174 104 33 174 104 33 174 104 33 174 104 33 174 104 33 174 104 33 174 104 33 174 104 33 174 104 33 174 104 33 174 104 33 174 104 33 174 104 33 174 104 33 174 104 33 174 104 33 174 104 33 172 102 33 172 104 34 178 106 28 146 91 21 29 25 0 0 0 0 1 1 0 1 1 0 0 0 0 0 0 0 0 0 0 0 0 0 0 0 0 0 0 0 0 0 0 0 0 0 0 0 0 0 0 0 0 0
0 0 0 0 0 0 0 0 0 0 0 0 0 0 0 0 0 0 0 0 0 0 0 0 0 0 0 0 0 0 0 0 0 0 0 0 0 0 0 0 2 1 0 0 0 9 10 10 22 113 71 34 178 106 34 178 106 33 172 102 33 172 104 33 174 104 33 174 104 33 174 104 33 174 104 33 174 104 33 174 104 33 174 104 33 174 104 33 174 104 33 174 104 33 174 104 33 174 104 33 174 104 33 174 104 33 174 104 33 174 104 33 174 104 33 174 104 33 174 104 33 176 105 31 157 95 25 129 86 25 132 87 25 132 87 25 132 87 25 132 87 25 132 87 25 132 87 25 132 87 25 132 87 25 132 87 25 132 87 25 132 87 25 132 87 25 132 87 25 132 87 25 132 87 25 132 87 25 132 87 25 132 87 25 132 87 25 132 87 25 132 87 25 132 87 25 132 87 25 132 87 25 132 87 25 132 87 25 132 87 25 132 87 25 132 87 25 132 87 25 132 87 25 132 87 25 132 87 25 132 87 25 132 87 25 132 87 25 132 87 25 132 87 25 132 87 25 132 87 25 132 87 25 132 87 25 132 87 25 132 87 25 132 87 25 132 87 25 132 87 25 132 87 25 132 87 25 132 87 25 132 87 25 132 87 25 132 87 25 132 87 25 132 87 25 132 87 25 132 87 25 132 87 25 132 87 25 132 87 25 132 87 25 132 87 25 132 87 25 132 87 25 132 87 25 132 87 25 132 87 25 132 87 25 132 87 25 132 87 25 132 87 25 132 87 25 132 87 25 132 87 25 132 87 25 132 87 25 132 87 25 132 87 25 132 87 25 132 87 25 132 87 25 132 87 25 132 87 25 132 87 25 132 87 25 132 87 25 132 87 25 132 87 25 132 87 25 132 87 25 132 87 25 132 87 25 132 87 25 132 87 25 132 87 25 132 87 25 132 87 25 132 87 25 132 87 25 132 87 25 132 87 25 132 87 25 132 87 25 132 87 25 132 87 25 132 87 25 132 87 25 132 87 25 132 87 25 132 87 25 132 87 25 132 87 25 132 87 25 132 87 25 132 87 25 132 87 25 132 87 25 132 87 25 133 87 25 129 86 25 131 87 31 157 95 33 174 104 33 176 105 33 174 104 33 174 104 33 174 104 33 174 104 33 174 104 33 174 104 33 174 104 33 174 104 33 174 104 33 174 104 33 174 104 33 174 104 33 174 104 33 174 104 33 174 104 33 174 104 33 174 104 33 174 104 33 174 104 33 174 104 33 174 104 33 174 104 33 174 104 33 174 104 33 174 104 33 174 104 33 174 104 33 174 104 33 174 104 33 174 104 33 174 104 33 174 104 33 174 104 33 174 104 33 174 104 33 174 104 33 174 104 33 174 104 33 174 104 33 174 104 33 174 104 33 174 104 33 174 104 33 172 104 33 173 102 34 178 106 34 178 106 22 113 71 9 10 10 0 0 0 0 2 1 0 0 0 0 0 0 0 0 0 0 0 0 0 0 0 0 0 0 0 0 0 0 0 0 0 0 0 0 0 0 0 0 0 0 0 0 0 0 0
0 0 0 0 0 0 0 0 0 0 0 0 0 0 0 0 0 0 0 0 0 0 0 0 0 0 0 0 0 0 0 0 0 0 0 0 0 0 0 0 0 0 0 2 1 0 0 0 1 1 0 34 52 45 31 157 95 34 178 106 33 177 106 33 172 104 33 173 102 33 174 104 33 174 104 33 174 104 33 174 104 33 174 104 33 174 104 33 174 104 33 174 104 33 174 104 33 174 104 33 174 104 33 174 104 33 174 104 33 174 104 33 174 104 33 174 104 33 173 104 34 178 106 28 138 89 25 129 86 25 132 87 25 132 87 25 132 87 25 132 87 25 132 87 25 132 87 25 132 87 25 132 87 25 132 87 25 132 87 25 132 87 25 132 87 25 132 87 25 132 87 25 132 87 25 132 87 25 132 87 25 132 87 25 132 87 25 132 87 25 132 87 25 132 87 25 132 87 25 132 87 25 132 87 25 132 87 25 132 87 25 132 87 25 132 87 25 132 87 25 132 87 25 132 87 25 132 87 25 132 87 25 132 87 25 132 87 25 132 87 25 132 87 25 132 87 25 132 87 25 132 87 25 132 87 25 132 87 25 132 87 25 132 87 25 132 87 25 132 87 25 132 87 25 132 87 25 132 87 25 132 87 25 132 87 25 132 87 25 132 87 25 132 87 25 132 87 25 132 87 25 132 87 25 132 87 25 132 87 25 132 87 25 132 87 25 132 87 25 132 87 25 132 87 25 132 87 25 132 87 25 132 87 25 132 87 25 132 87 25 132 87 25 132 87 25 132 87 25 132 87 25 132 87 25 132 87 25 132 87 25 132 87 25 132 87 25 132 87 25 132 87 25 132 87 25 132 87 25 132 87 25 132 87 25 132 87 25 132 87 25 132 87 25 132 87 25 132 87 25 132 87 25 132 87 25 132 87 25 132 87 25 132 87 25 132 87 25 132 87 25 132 87 25 132 87 25 132 87 25 132 87 25 132 87 25 132 87 25 132 87 25 132 87 25 132 87 25 132 87 25 132 87 25 132 87 25 132 87 25 132 87 25 132 87 25 132 87 25 132 87 25 132 87 25 132 87 25 132 87 25 132 87 25 132 87 25 133 87 25 132 87 25 129 86 28 138 89 34 160 100 33 176 105 33 174 104 33 174 104 33 174 104 33 174 104 33 174 104 33 174 104 33 174 104 33 174 104 33 174 104 33 174 104 33 174 104 33 174 104 33 174 104 33 174 104 33 174 104 33 174 104 33 174 104 33 174 104 33 174 104 33 174 104 33 174 104 33 174 104 33 174 104 33 174 104 33 174 104 33 174 104 33 174 104 33 174 104 33 174 104 33 174 104 33 174 104 33 174 104 33 174 104 33 174 104 33 174 104 33 174 104 33 174 104 33 174 104 33 174 104 33 174 104 33 172 104 33 173 102 34 178 106 34 178 106 28 138 89 34 52 45 1 1 1 0 0 0 0 2 1 0 0 0 0 0 0 0 0 0 0 0 0 0 0 0 0 0 0 0 0 0 0 0 0 0 0 0 0 0 0 0 0 0 0 0 0 0 0 0 0 0 0
0 0 0 0 0 0 0 0 0 0 0 0 0 0 0 0 0 0 0 0 0 0 0 0 0 0 0 0 0 0 0 0 0 0 0 0 0 0 0 0 0 0 0 0 0 0 1 1 0 1 1 0 0 0 9 10 10 22 113 71 31 157 95 34 178 106 34 178 106 33 172 102 33 172 102 33 172 104 33 174 104 33 174 104 33 174 104 33 174 104 33 174 104 33 174 104 33 174 104 33 174 104 33 174 104 33 174 104 33 174 104 33 174 104 33 174 104 33 175 104 31 169 101 27 134 88 25 131 86 25 132 87 25 132 87 25 132 87 25 132 87 25 132 87 25 132 87 25 132 87 25 132 87 25 132 87 25 132 87 25 132 87 25 132 87 25 132 87 25 132 87 25 132 87 25 132 87 25 132 87 25 132 87 25 132 87 25 132 87 25 132 87 25 132 87 25 132 87 25 132 87 25 132 87 25 132 87 25 132 87 25 132 87 25 132 87 25 132 87 25 132 87 25 132 87 25 132 87 25 132 87 25 132 87 25 132 87 25 132 87 25 132 87 25 132 87 25 132 87 25 132 87 25 132 87 25 132 87 25 132 87 25 132 87 25 132 87 25 132 87 25 132 87 25 132 87 25 132 87 25 132 87 25 132 87 25 132 87 25 132 87 25 132 87 25 132 87 25 132 87 25 132 87 25 132 87 25 132 87 25 132 87 25 132 87 25 132 87 25 132 87 25 132 87 25 132 87 25 132 87 25 132 87 25 132 87 25 132 87 25 132 87 25 132 87 25 132 87 25 132 87 25 132 87 25 132 87 25 132 87 25 132 87 25 132 87 25 132 87 25 132 87 25 132 87 25 132 87 25 132 87 25 132 87 25 132 87 25 132 87 25 132 87 25 132 87 25 132 87 25 132 87 25 132 87 25 132 87 25 132 87 25 132 87 25 132 87 25 132 87 25 132 87 25 132 87 25 132 87 25 132 87 25 132 87 25 132 87 25 132 87 25 132 87 25 132 87 25 132 87 25 132 87 25 132 87 25 132 87 25 132 87 25 132 87 25 132 87 25 132 87 25 132 87 25 132 87 25 132 87 25 132 87 25 132 87 25 132 87 25 132 87 25 132 87 25 129 86 25 132 88 31 157 95 33 174 104 33 176 105 33 173 104 33 174 104 33 174 104 33 174 104 33 174 104 33 174 104 33 174 104 33 174 104 33 174 104 33 174 104 33 174 104 33 174 104 33 174 104 33 174 104 33 174 104 33 174 104 33 174 104 33 174 104 33 174 104 33 174 104 33 174 104 33 174 104 33 174 104 33 174 104 33 174 104 33 174 104 33 174 104 33 174 104 33 174 104 33 174 104 33 174 104 33 174 104 33 174 104 33 174 104 33 174 104 33 172 104 33 173 102 33 173 102 34 178 106 34 178 106 31 157 95 22 113 71 4 4 4 0 0 0 0 0 0 0 1 1 0 0 0 0 0 0 0 0 0 0 0 0 0 0 0 0 0 0 0 0 0 0 0 0 0 0 0 0 0 0 0 0 0 0 0 0 0 0 0 0 0 0 0 0 0
0 0 0 0 0 0 0 0 0 0 0 0 0 0 0 0 0 0 0 0 0 0 0 0 0 0 0 0 0 0 0 0 0 0 0 0 0 0 0 0 0 0 0 0 0 0 0 0 0 0 0 0 2 1 0 0 0 0 0 0 13 18 16 22 113 71 31 157 95 34 178 106 34 178 106 33 176 106 33 172 104 33 172 102 33 172 104 33 173 102 33 172 104 33 173 104 33 174 104 33 174 104 33 174 104 33 174 104 33 174 104 33 174 104 33 173 104 34 178 106 31 157 95 25 129 86 25 133 87 25 132 87 25 132 87 25 132 87 25 132 87 25 132 87 25 132 87 25 132 87 25 132 87 25 132 87 25 132 87 25 132 87 25 132 87 25 132 87 25 132 87 25 132 87 25 132 87 25 132 87 25 132 87 25 132 87 25 132 87 25 132 87 25 132 87 25 132 87 25 132 87 25 132 87 25 132 87 25 132 87 25 132 87 25 132 87 25 132 87 25 132 87 25 132 87 25 132 87 25 132 87 25 132 87 25 132 87 25 132 87 25 132 87 25 132 87 25 132 87 25 132 87 25 132 87 25 132 87 25 132 87 25 132 87 25 132 87 25 132 87 25 132 87 25 132 87 25 132 87 25 132 87 25 132 87 25 132 87 25 132 87 25 132 87 25 132 87 25 132 87 25 132 87 25 132 87 25 132 87 25 132 87 25 132 87 25 132 87 25 132 87 25 132 87 25 132 87 25 132 87 25 132 87 25 132 87 25 132 87 25 132 87 25 132 87 25 132 87 25 132 87 25 132 87 25 132 87 25 132 87 25 132 87 25 132 87 25 132 87 25 132 87 25 132 87 25 132 87 25 132 87 25 132 87 25 132 87 25 132 87 25 132 87 25 132 87 25 132 87 25 132 87 25 132 87 25 132 87 25 132 87 25 132 87 25 132 87 25 132 87 25 132 87 25 132 87 25 132 87 25 132 87 25 132 87 25 132 87 25 132 87 25 132 87 25 132 87 25 132 87 25 132 87 25 132 87 25 132 87 25 132 87 25 132 87 25 132 87 25 132 87 25 132 87 25 132 87 25 132 87 25 132 87 25 132 87 25 132 87 25 132 87 25 132 87 25 133 87 25 132 87 25 129 86 28 146 91 31 169 101 33 177 106 33 174 104 33 174 104 33 174 104 33 174 104 33 174 104 33 174 104 33 174 104 33 174 104 33 174 104 33 174 104 33 174 104 33 174 104 33 174 104 33 174 104 33 174 104 33 174 104 33 174 104 33 174 104 33 174 104 33 174 104 33 174 104 33 174 104 33 174 104 33 174 104 33 174 104 33 174 104 33 174 104 33 174 104 33 174 104 33 172 104 33 173 102 33 172 104 33 172 104 33 174 104 34 178 106 34 178 106 34 178 106 28 138 89 34 52 45 13 18 16 0 0 0 0 0 0 0 2 1 0 0 0 0 0 0 0 0 0 0 0 0 0 0 0 0 0 0 0 0 0 0 0 0 0 0 0 0 0 0 0 0 0 0 0 0 0 0 0 0 0 0 0 0 0 0 0 0 0 0 0
0 0 0 0 0 0 0 0 0 0 0 0 0 0 0 0 0 0 0 0 0 0 0 0 0 0 0 0 0 0 0 0 0 0 0 0 0 0 0 0 0 0 0 0 0 0 0 0 0 0 0 0 0 0 0 1 1 0 1 1 0 0 0 0 0 0 13 18 16 34 52 45 22 116 76 31 157 95 34 178 106 34 178 106 34 178 106 34 178 106 33 175 104 33 173 104 33 172 102 33 172 102 33 173 102 33 173 102 33 172 104 33 172 104 33 172 104 33 174 105 31 148 95 25 129 86 25 133 87 25 132 87 25 132 87 25 132 87 25 132 87 25 131 87 25 131 87 25 131 87 25 132 87 25 132 87 25 132 87 25 132 87 25 132 87 25 132 87 25 132 87 25 132 87 25 132 87 25 132 87 25 132 87 25 132 87 25 132 87 25 132 87 25 132 87 25 132 87 25 132 87 25 132 87 25 132 87 25 132 87 25 132 87 25 132 87 25 132 87 25 132 87 25 132 87 25 132 87 25 132 87 25 132 87 25 132 87 25 132 87 25 132 87 25 132 87 25 132 87 25 132 87 25 132 87 25 132 87 25 132 87 25 132 87 25 132 87 25 132 87 25 132 87 25 132 87 25 132 87 25 132 87 25 132 87 25 132 87 25 132 87 25 132 87 25 132 87 25 132 87 25 132 87 25 132 87 25 132 87 25 132 87 25 132 87 25 132 87 25 132 87 25 132 87 25 132 87 25 132 87 25 132 87 25 132 87 25 132 87 25 132 87 25 132 87 25 132 87 25 132 87 25 132 87 25 132 87 25 132 87 25 132 87 25 132 87 25 132 87 25 132 87 25 132 87 25 132 87 25 132 87 25 132 87 25 132 87 25 132 87 25 131 87 25 131 87 25 131 87 25 131 87 25 131 87 25 131 87 25 131 87 25 131 87 25 131 87 25 131 87 25 131 87 25 131 87 25 131 87 25 131 87 25 131 87 25 131 87 25 131 87 25 131 87 25 131 87 25 131 87 25 131 87 25 131 87 25 131 87 25 131 87 25 131 87 25 131 87 25 131 87 25 131 87 25 131 87 25 131 87 25 131 87 25 131 87 25 131 87 25 131 87 25 131 87 25 131 87 25 131 87 25 131 87 25 129 86 27 134 88 31 157 95 33 175 105 33 174 104 33 172 104 33 172 104 33 172 104 33 172 104 33 172 104 33 173 104 33 173 104 33 173 104 33 173 104 33 173 104 33 173 104 33 173 104 33 173 104 33 173 104 33 173 104 33 173 104 33 173 104 33 173 104 33 173 104 33 172 104 33 172 104 33 172 104 33 172 104 33 173 102 33 173 102 33 172 102 33 172 102 33 174 104 34 178 106 34 178 106 34 178 106 34 178 106 31 157 95 22 116 76 34 52 45 9 10 10 0 0 0 0 0 0 0 1 1 0 1 1 0 0 0 0 0 0 0 0 0 0 0 0 0 0 0 0 0 0 0 0 0 0 0 0 0 0 0 0 0 0 0 0 0 0 0 0 0 0 0 0 0 0 0 0 0 0 0 0 0 0 0 0 0 0
0 0 0 0 0 0 0 0 0 0 0 0 0 0 0 0 0 0 0 0 0 0 0 0 0 0 0 0 0 0 0 0 0 0 0 0 0 0 0 0 0 0 0 0 0 0 0 0 0 0 0 0 0 0 0 0 0 0 0 0 0 1 1 0 1 1 0 0 0 0 0 0 0 0 0 13 18 16 34 52 45 22 113 71 25 132 78 31 157 95 33 170 103 34 175 105 34 178 106 34 178 106 34 178 106 34 178 106 34 178 106 34 178 106 34 178 106 34 175 105 28 138 89 25 132 87 25 133 87 25 132 87 25 132 87 25 132 87 25 133 87 25 133 87 25 133 87 25 133 87 25 132 87 25 132 87 25 132 87 25 132 87 25 132 87 25 132 87 25 132 87 25 132 87 25 132 87 25 132 87 25 132 87 25 132 87 25 132 87 25 132 87 25 132 87 25 132 87 25 132 87 25 132 87 25 132 87 25 132 87 25 132 87 25 132 87 25 132 87 25 132 87 25 132 87 25 132 87 25 132 87 25 132 87 25 132 87 25 132 87 25 132 87 25 132 87 25 132 87 25 132 87 25 132 87 25 132 87 25 132 87 25 132 87 25 132 87 25 132 87 25 132 87 25 132 87 25 132 87 25 132 87 25 132 87 25 132 87 25 132 87 25 132 87 25 132 87 25 132 87 25 132 87 25 132 87 25 132 87 25 132 87 25 132 87 25 132 87 25 132 87 25 132 87 25 132 87 25 132 87 25 132 87 25 132 87 25 132 87 25 132 87 25 132 87 25 132 87 25 132 87 25 132 87 25 132 87 25 132 87 25 132 87 25 132 87 25 132 87 25 132 87 25 132 87 25 132 87 25 132 87 25 132 87 25 132 87 25 133 87 25 133 87 25 133 87 25 133 87 25 133 87 25 134 88 25 134 88 25 134 88 25 134 88 25 134 88 25 134 88 25 134 88 25 134 88 25 134 88 25 134 88 25 134 88 25 134 88 25 134 88 25 134 88 25 134 88 25 134 88 25 134 88 25 134 88 25 134 88 25 134 88 25 134 88 25 134 88 25 134 88 25 134 88 25 134 88 25 134 88 25 134 88 25 134 88 25 134 88 25 134 88 25 134 88 25 134 88 25 134 88 25 134 88 25 134 88 25 133 87 25 131 87 31 148 95 33 173 104 34 178 106 34 178 106 34 178 106 34 178 106 33 176 105 33 176 105 33 176 105 33 176 105 33 176 105 33 176 105 33 176 105 33 176 105 33 176 105 33 176 105 33 176 105 33 176 105 33 176 105 33 176 105 33 176 105 34 178 106 33 177 106 34 178 106 34 178 106 34 178 106 34 178 106 34 178 106 34 178 106 33 170 103 31 157 95 28 138 89 22 113 71 34 52 45 9 10 10 0 0 0 0 0 0 0 0 0 0 2 1 0 1 1 0 0 0 0 0 0 0 0 0 0 0 0 0 0 0 0 0 0 0 0 0 0 0 0 0 0 0 0 0 0 0 0 0 0 0 0 0 0 0 0 0 0 0 0 0 0 0 0 0 0 0 0 0 0 0 0 0 0 0 0
0 0 0 0 0 0 0 0 0 0 0 0 0 0 0 0 0 0 0 0 0 0 0 0 0 0 0 0 0 0 0 0 0 0 0 0 0 0 0 0 0 0 0 0 0 0 0 0 0 0 0 0 0 0 0 0 0 0 0 0 0 0 0 0 0 0 0 1 1 0 1 1 0 0 0 0 0 0 0 0 0 0 0 0 2 3 3 13 18 16 21 29 25 34 52 45 34 52 45 22 113 71 22 116 76 22 116 76 25 132 78 28 138 89 28 146 91 25 132 78 22 116 76 22 116 76 24 125 81 25 133 87 25 131 87 25 132 87 24 125 81 22 116 76 22 116 76 22 116 76 25 131 86 25 133 87 25 132 87 25 132 87 25 132 87 25 132 87 25 132 87 25 132 87 25 132 87 25 132 87 25 132 87 25 132 87 25 132 87 25 132 87 25 132 87 25 132 87 25 132 87 25 132 87 25 132 87 25 132 87 25 132 87 25 132 87 25 132 87 25 132 87 25 132 87 25 132 87 25 132 87 25 132 87 25 132 87 25 132 87 25 132 87 25 132 87 25 132 87 25 132 87 25 132 87 25 132 87 25 132 87 25 132 87 25 132 87 25 132 87 25 132 87 25 132 87 25 132 87 25 132 87 25 132 87 25 132 87 25 132 87 25 132 87 25 132 87 25 132 87 25 132 87 25 132 87 25 132 87 25 132 87 25 132 87 25 132 87 25 132 87 25 132 87 25 132 87 25 132 87 25 132 87 25 132 87 25 132 87 25 132 87 25 132 87 25 132 87 25 132 87 25 132 87 25 132 87 25 132 87 25 132 87 25 132 87 25 132 87 25 132 87 25 132 87 25 132 87 25 132 87 25 132 87 25 131 87 24 125 81 22 116 76 24 125 81 24 125 81 22 116 76 22 116 76 22 116 76 22 116 76 22 116 76 22 116 76 22 116 76 22 116 76 22 116 76 22 116 76 22 116 76 22 116 76 22 116 76 22 116 76 22 116 76 22 116 76 22 116 76 22 116 76 22 116 76 22 116 76 22 116 76 22 116 76 22 116 76 22 116 76 22 116 76 22 116 76 22 116 76 22 116 76 22 116 76 22 116 76 22 116 76 22 116 76 22 116 76 22 116 76 22 116 76 22 116 76 22 116 76 22 116 76 22 116 76 24 125 81 27 134 88 28 138 89 28 138 89 28 138 89 31 148 95 31 157 95 31 157 95 31 157 95 31 157 95 31 157 95 31 157 95 31 157 95 31 157 95 31 157 95 31 157 95 31 157 95 31 157 95 31 157 95 31 157 95 28 138 89 28 138 89 28 138 89 28 138 89 25 132 78 22 116 76 22 113 71 34 52 45 21 29 25 13 18 16 9 10 10 0 0 0 0 0 0 0 0 0 0 0 0 0 2 1 0 1 1 0 0 0 0 0 0 0 0 0 0 0 0 0 0 0 0 0 0 0 0 0 0 0 0 0 0 0 0 0 0 0 0 0 0 0 0 0 0 0 0 0 0 0 0 0 0 0 0 0 0 0 0 0 0 0 0 0 0 0 0 0 0 0 0 0 0
